packages/webcomponents/examples/FLog2C_to_CLASSIC-Neg_VLog.cube
TITLE "Generated by Resolve"
#LUMIXPHOTOSTYLE VLOG
LUT_3D_SIZE 5
0 0 0
0.257816 0.0204929 0.000244144
0.951064 0.281895 0.277256
0.951186 0.2851 0.276905
0.955749 0.544137 0.2271
0.00370794 0.138842 0.0216983
0.0803998 0.0712596 0.000839246
0.939101 0.166293 0.0975357
0.951492 0.328725 0.270619
0.955718 0.55584 0.223499
0.0225223 0.716594 0.119753
0.0208286 0.648447 0.108598
0.760296 0.599847 0.00108339
0.955749 0.560052 0.222324
0.956558 0.62742 0.200168
0.0292973 0.944442 0.157092
0.0292973 0.944442 0.157092
0.0330663 0.943862 0.156542
0.946807 0.963012 0.0332952
0.956832 0.894926 0.0265965
0.453361 0.969009 0.101167
0.463142 0.969589 0.0998398
0.526558 0.973007 0.0917678
0.865675 0.992447 0.0480507
0.933883 0.995666 0.0392767
0.00939956 0.00392157 0.0549935
0.204822 0.015259 0.00102235
0.95082 0.277531 0.273335
0.9514 0.293614 0.275105
0.955749 0.544396 0.227039
0.0135653 0.188708 0.224063
0.0763561 0.0928664 0.0822919
0.918563 0.170275 0.0898909
0.95198 0.346303 0.266804
0.955718 0.555978 0.223453
0.0306249 0.776944 0.298039
0.0269474 0.715938 0.242267
0.693858 0.645762 0.124636
0.958679 0.596231 0.261814
0.956558 0.62742 0.200168
0.029633 0.944793 0.157443
0.0292973 0.944442 0.157092
0.0292973 0.944442 0.157092
0.939574 0.981033 0.0353552
0.956832 0.894926 0.0265965
0.444541 0.968765 0.148531
0.45359 0.969284 0.146304
0.513695 0.972702 0.132342
0.854398 0.991958 0.0529488
0.933883 0.995666 0.0392767
0.127794 0.057084 0.449317
0.272297 0.0296635 0.232914
0.954864 0.25539 0.388479
0.960708 0.364645 0.477256
0.968658 0.637629 0.489662
0.276295 0.340932 0.858656
0.201694 0.152163 0.571588
0.920348 0.182712 0.446433
0.96524 0.440955 0.527535
0.969055 0.648692 0.492729
0.0594797 0.82652 0.99266
0.0561074 0.784985 0.943923
0.760479 0.725673 0.731228
0.97583 0.678584 0.650828
0.971435 0.711772 0.507744
0.0535286 0.942153 0.764477
0.0535286 0.942153 0.764401
0.0544747 0.941314 0.769009
0.968612 0.982956 0.60705
0.973571 0.918379 0.462089
0.521965 0.96939 0.736431
0.528832 0.969802 0.7346
0.573709 0.972381 0.722164
0.856565 0.989364 0.623285
0.94667 0.994339 0.268009
0.679606 0.293965 0.91989
0.675502 0.294011 0.921218
0.954894 0.196597 0.829175
0.971893 0.382895 0.742199
0.982269 0.689906 0.797498
0.682673 0.398459 0.938231
0.675853 0.354711 0.931243
0.941207 0.318975 0.87866
0.974517 0.442771 0.767285
0.982696 0.699489 0.80174
0.467124 0.753277 0.999924
0.478996 0.744152 0.999832
0.862974 0.74522 0.973053
0.983764 0.674159 0.851499
0.985107 0.753643 0.824506
0.0666209 0.939712 0.999649
0.066865 0.939345 0.999634
0.150423 0.940673 0.999863
0.968154 0.962173 0.966339
0.991501 0.915267 0.895277
0.624369 0.976776 0.999832
0.629953 0.977157 0.999847
0.663645 0.979156 0.99971
0.873716 0.99173 0.995758
0.98793 0.995758 0.917235
0.0682994 0.902083 0.999939
0.247852 0.851545 0.999969
0.760021 0.671885 0.974517
0.982177 0.50071 0.914153
0.985656 0.623865 0.934173
0.0660258 0.910796 0.999924
0.254673 0.849332 0.999756
0.748531 0.694148 0.979889
0.983093 0.530007 0.919249
0.985946 0.631098 0.935561
0.0826886 0.890394 0.999863
0.207843 0.862593 0.999756
0.657847 0.795743 0.999771
0.987305 0.675715 0.943206
0.987243 0.67512 0.943725
0.0672465 0.94255 0.999985
0.067216 0.942519 0.999985
0.0711833 0.941405 0.999832
0.933181 0.946792 0.99678
0.993805 0.87599 0.97702
0.475959 0.967376 0.999893
0.481697 0.967742 0.999893
0.52166 0.970367 0.999878
0.811185 0.987182 0.999619
1 1 1
