packages/webcomponents/examples/FLog2C_to_ETERNA_VLog.cube
TITLE "Generated by Resolve"
#LUMIXPHOTOSTYLE VLOG
LUT_3D_SIZE 33
0.00585946 0.00585946 0.00585946
0.00585946 0.00585946 0.00585946
0.00585946 0.00585946 0.00585946
0.00585946 0.00585946 0.00585946
0.0372778 0.00776684 0.0102541
0.110704 0.009308 0.0206912
0.16669 0.0184329 0.0262303
0.231907 0.0196078 0.0358282
0.314107 0.0325628 0.047364
0.42533 0.0504005 0.0606394
0.55668 0.0769665 0.0776226
0.691951 0.106111 0.0879988
0.826734 0.146944 0.107195
0.928313 0.195209 0.115679
0.940291 0.246006 0.174914
0.944839 0.306264 0.251621
0.943984 0.328389 0.270512
0.943984 0.328389 0.270512
0.943984 0.328389 0.270512
0.943984 0.328389 0.270512
0.943984 0.328389 0.270512
0.943984 0.328389 0.270512
0.943984 0.328389 0.270512
0.943984 0.328389 0.270512
0.943481 0.331411 0.267338
0.944152 0.346563 0.256672
0.940352 0.370489 0.241947
0.939605 0.394537 0.224231
0.937346 0.421576 0.202029
0.934936 0.45127 0.171664
0.933074 0.482872 0.131655
0.929931 0.518029 0.0786297
0.928145 0.551919 0.0656291
0.00585946 0.00585946 0.00585946
0.00585946 0.00585946 0.00585946
0.00585946 0.00585946 0.00585946
0.00585946 0.00585946 0.00585946
0.0502327 0.00877394 0.011902
0.121248 0.0100404 0.0219272
0.175479 0.018616 0.0273442
0.239826 0.0201724 0.0370794
0.321904 0.0344091 0.0483406
0.433051 0.0515145 0.0616159
0.563119 0.0783703 0.0783551
0.696437 0.107057 0.0884565
0.830152 0.147951 0.10782
0.929397 0.19617 0.115602
0.940429 0.24686 0.176623
0.944869 0.306905 0.252277
0.943984 0.328389 0.270512
0.943984 0.328389 0.270512
0.943984 0.328389 0.270512
0.943984 0.328389 0.270512
0.943984 0.328389 0.270512
0.943984 0.328389 0.270512
0.943984 0.328389 0.270512
0.943984 0.328389 0.270512
0.943328 0.334218 0.264714
0.943389 0.351522 0.253819
0.940597 0.374212 0.239155
0.939239 0.397665 0.221561
0.937133 0.424018 0.199298
0.934936 0.45333 0.16965
0.932876 0.484535 0.128801
0.929931 0.519341 0.0767834
0.928115 0.552987 0.0655833
0.00585946 0.00585946 0.00585946
0.00585946 0.00585946 0.00585946
0.00585946 0.00585946 0.00585946
0.00585946 0.00585946 0.00585946
0.0631418 0.00968948 0.013611
0.13196 0.0116121 0.0230411
0.184634 0.0183108 0.0286107
0.248112 0.0209659 0.0383459
0.330098 0.0359045 0.0492866
0.438376 0.0520333 0.0623178
0.560632 0.0777752 0.0776074
0.685359 0.104158 0.0895552
0.809247 0.139818 0.104372
0.919371 0.182498 0.114305
0.937575 0.225498 0.136248
0.941833 0.270314 0.210895
0.945556 0.315358 0.258793
0.943938 0.328176 0.270359
0.943984 0.328389 0.270512
0.943984 0.328389 0.270512
0.943984 0.328389 0.270512
0.943984 0.328389 0.270512
0.943984 0.328389 0.270512
0.943984 0.328389 0.270512
0.943648 0.338354 0.261494
0.942473 0.35639 0.251011
0.940841 0.377844 0.236439
0.938888 0.400748 0.218921
0.936919 0.426368 0.196643
0.934936 0.455299 0.167712
0.932692 0.486107 0.126116
0.929931 0.520653 0.0749676
0.928084 0.553979 0.0655375
0.00585946 0.00585946 0.00585946
0.00585946 0.00585946 0.00585946
0.00585946 0.00585946 0.00585946
0.00585946 0.00585946 0.00585946
0.0413977 0.00738537 0.0101015
0.10631 0.00921645 0.0202945
0.158679 0.0132906 0.0254826
0.208881 0.0194553 0.0336004
0.277058 0.0289311 0.0426795
0.366979 0.0387732 0.0547494
0.47953 0.0586404 0.0652934
0.602045 0.0877852 0.078996
0.724346 0.113893 0.0938582
0.845273 0.152163 0.11014
0.929564 0.193851 0.115145
0.939712 0.234638 0.158953
0.943694 0.27866 0.221256
0.944793 0.321355 0.264637
0.943984 0.328389 0.270512
0.943984 0.328389 0.270512
0.943984 0.328389 0.270512
0.943984 0.328389 0.270512
0.943984 0.328389 0.270512
0.943923 0.329564 0.269505
0.943954 0.342245 0.258457
0.941604 0.361028 0.248341
0.941054 0.381369 0.233799
0.938552 0.403693 0.216388
0.936706 0.428824 0.193927
0.934936 0.45716 0.165881
0.932494 0.487785 0.123262
0.929915 0.521965 0.073167
0.928054 0.554955 0.0654917
0.00462348 0.0217288 0.00283818
0.0047303 0.0230564 0.00267033
0.00514229 0.0229191 0.00239567
0.00563058 0.0119478 0.00500496
0.0186007 0.00595102 0.00796521
0.0838483 0.00967422 0.0162203
0.127367 0.0131991 0.0220493
0.174105 0.0167544 0.0294041
0.231479 0.02327 0.0352941
0.305119 0.0324559 0.0439612
0.403891 0.0461891 0.0570993
0.518135 0.066804 0.072694
0.642298 0.0943008 0.0853895
0.762982 0.124468 0.100954
0.879469 0.165331 0.112413
0.9346 0.208759 0.112718
0.940246 0.25008 0.184421
0.944854 0.299413 0.242405
0.944244 0.327413 0.269673
0.943984 0.328389 0.270512
0.943984 0.328389 0.270512
0.943984 0.328389 0.270512
0.943984 0.328389 0.270512
0.943618 0.33489 0.264897
0.942779 0.348531 0.256001
0.941375 0.365301 0.244984
0.941039 0.384863 0.231189
0.938231 0.406653 0.213855
0.936492 0.431189 0.191257
0.934936 0.459129 0.163943
0.932311 0.489357 0.120577
0.929915 0.523171 0.0714275
0.928038 0.555932 0.0654459
0.00495918 0.0852216 0.000274662
0.00495918 0.0860914 0.000259403
0.00540169 0.0769818 0.000289921
0.00526436 0.0586557 0.000137331
0.00816358 0.0406653 0.00157168
0.0562448 0.0299077 0.00846876
0.10573 0.0227359 0.0168154
0.148608 0.0200046 0.0238193
0.199634 0.0215 0.030396
0.263386 0.0270542 0.0396429
0.347478 0.035584 0.0503243
0.455329 0.0572671 0.0622721
0.578103 0.0792096 0.0777295
0.703075 0.109316 0.0941634
0.82472 0.146365 0.10222
0.928115 0.188495 0.117037
0.938476 0.231571 0.152041
0.943572 0.279194 0.223682
0.944106 0.325612 0.268193
0.943984 0.328389 0.270512
0.943984 0.328389 0.270512
0.943938 0.328649 0.270237
0.943557 0.331167 0.26685
0.943389 0.340169 0.260471
0.941665 0.354452 0.253712
0.941375 0.369299 0.241505
0.940673 0.388525 0.228443
0.938033 0.409979 0.211276
0.936309 0.433692 0.188602
0.93492 0.461021 0.162036
0.932128 0.490913 0.117922
0.929915 0.524498 0.0696269
0.928008 0.556909 0.0654002
0.00631724 0.125902 0.00047303
0.00634775 0.126589 0.000457771
0.00578317 0.115724 0.000213626
0.00604257 0.0996262 6.10361e-05
0.00515755 0.0832837 4.57771e-05
0.035172 0.0708171 0.000198367
0.0888228 0.0627298 0.00761425
0.132723 0.0594034 0.0142672
0.181155 0.0535134 0.0222934
0.239094 0.0535286 0.0314031
0.31426 0.0524605 0.0428626
0.414542 0.0575723 0.0564126
0.532265 0.06981 0.0705119
0.658991 0.10074 0.0865949
0.782666 0.131716 0.100969
0.899779 0.173556 0.113756
0.936904 0.218112 0.122438
0.942153 0.264439 0.199847
0.944518 0.315908 0.260075
0.943984 0.328389 0.270512
0.943969 0.328496 0.27042
0.943664 0.330327 0.268467
0.943206 0.33489 0.26305
0.943389 0.346288 0.255818
0.940932 0.359915 0.250828
0.941375 0.373175 0.238117
0.940307 0.392111 0.225772
0.937835 0.413321 0.208698
0.936141 0.436347 0.185916
0.934737 0.463157 0.159106
0.931975 0.492576 0.115114
0.929915 0.525704 0.0679332
0.927977 0.557885 0.0653391
0.00555428 0.166461 3.0518e-05
0.00556954 0.166964 4.57771e-05
0.00546273 0.15552 7.62951e-05
0.00630198 0.136553 1.5259e-05
0.0061799 0.116564 0.000167849
0.0188754 0.106126 0.000442512
0.0711986 0.100893 0.000488289
0.117708 0.0958114 0.00590524
0.165133 0.0913405 0.0142824
0.220356 0.090959 0.0222171
0.28986 0.090013 0.0327153
0.38201 0.0938735 0.0455024
0.496086 0.0991379 0.0611124
0.619211 0.11249 0.0776226
0.742077 0.135073 0.0903944
0.864591 0.168078 0.107012
0.934874 0.209613 0.111055
0.93991 0.254002 0.17792
0.944121 0.302861 0.243168
0.943435 0.331212 0.267002
0.943893 0.332647 0.267094
0.943786 0.337118 0.263539
0.943191 0.343084 0.25861
0.943267 0.353445 0.250767
0.940902 0.365728 0.245884
0.941268 0.378088 0.234211
0.939879 0.396353 0.222583
0.937606 0.417288 0.205615
0.935943 0.43949 0.182712
0.934508 0.465736 0.155535
0.931823 0.494743 0.111513
0.929854 0.527199 0.0674144
0.927947 0.559182 0.0652628
0.00552377 0.2103 3.0518e-05
0.00552377 0.2103 1.5259e-05
0.00531014 0.191974 0.000122072
0.00560006 0.173953 0.000503548
0.00546273 0.155138 7.62951e-05
0.00518807 0.144579 0.000122072
0.0538491 0.137804 0.000442512
0.103197 0.131594 1.5259e-05
0.152651 0.125795 0.0056611
0.202319 0.123033 0.0136568
0.267262 0.12166 0.0241093
0.352087 0.124315 0.0361334
0.460121 0.130114 0.0509651
0.580468 0.139284 0.066392
0.704829 0.158618 0.0817273
0.827008 0.183963 0.0969711
0.930236 0.223468 0.104311
0.937255 0.262135 0.127062
0.942962 0.304341 0.212879
0.943404 0.341802 0.256626
0.943725 0.344213 0.258122
0.942885 0.34818 0.255558
0.941802 0.354131 0.251484
0.942123 0.363302 0.246845
0.940841 0.373083 0.239811
0.940917 0.385458 0.229221
0.939422 0.402045 0.218006
0.937301 0.422415 0.201648
0.935683 0.443641 0.178515
0.934203 0.469108 0.150866
0.93164 0.497612 0.106752
0.929732 0.529397 0.0671702
0.927916 0.560815 0.0651255
0.00616464 0.268421 9.15541e-05
0.00721752 0.256489 0.000122072
0.00569162 0.235096 0.00030518
0.00514229 0.21207 6.10361e-05
0.00561532 0.194354 6.10361e-05
0.00614939 0.183932 0.000411994
0.0269627 0.177401 1.5259e-05
0.0853285 0.169741 0
0.135607 0.166201 0.000457771
0.184726 0.161669 0.00500496
0.247623 0.158129 0.0145571
0.325994 0.158267 0.0270542
0.425696 0.161761 0.0398871
0.543572 0.171542 0.0567636
0.665721 0.18558 0.0721599
0.789212 0.209201 0.0851759
0.9066 0.240375 0.097322
0.935409 0.279545 0.0962387
0.940291 0.313848 0.167926
0.941512 0.355703 0.242329
0.941695 0.360952 0.248203
0.941421 0.362921 0.246326
0.940444 0.36701 0.243381
0.941146 0.373877 0.239551
0.940597 0.382925 0.233692
0.940459 0.394583 0.223041
0.93904 0.409796 0.21088
0.936996 0.428824 0.195911
0.935332 0.449104 0.172992
0.933791 0.473564 0.144747
0.93138 0.501366 0.100526
0.929564 0.532189 0.0668498
0.927871 0.563027 0.0649119
0.0065156 0.338109 0.000717174
0.00675975 0.310582 0.000610361
0.00657664 0.281666 3.0518e-05
0.0062562 0.257725 0.000198367
0.0065156 0.239643 0.000442512
0.00622568 0.228138 0.000839246
0.0133211 0.220569 0.000457771
0.0632792 0.213275 0.000244144
0.118898 0.206729 6.10361e-05
0.170962 0.201434 0.000793469
0.228992 0.19704 0.00543221
0.302983 0.194675 0.0169985
0.396857 0.197299 0.0301366
0.508385 0.203265 0.0456245
0.629252 0.214389 0.0619364
0.750744 0.236454 0.0762493
0.870237 0.266987 0.088365
0.935302 0.304036 0.09131
0.937179 0.331151 0.102647
0.938872 0.367391 0.20383
0.940963 0.380377 0.231922
0.940917 0.38175 0.233219
0.940047 0.382971 0.234333
0.940307 0.38761 0.228824
0.940261 0.3953 0.223896
0.939941 0.406073 0.215122
0.938521 0.419577 0.201846
0.936828 0.436088 0.187549
0.934768 0.456153 0.165972
0.933272 0.479423 0.136645
0.931044 0.506416 0.0921492
0.929366 0.535821 0.0664378
0.92781 0.565988 0.0646372
0.00727855 0.40763 0.000183108
0.00756847 0.370367 9.15541e-05
0.00619516 0.335683 0.000106813
0.00675975 0.310933 0.000106813
0.00662242 0.293233 0.00030518
0.00604257 0.281239 0
0.00738537 0.272908 0.000518807
0.0371862 0.263844 0
0.101595 0.257801 3.0518e-05
0.155459 0.25066 0
0.215305 0.244846 0.00111391
0.282155 0.240955 0.00663767
0.370108 0.240879 0.0180362
0.476265 0.244022 0.0337987
0.594354 0.252293 0.050309
0.714885 0.270832 0.0650187
0.832837 0.297704 0.0772564
0.934005 0.330877 0.0866407
0.93698 0.360067 0.0831464
0.936568 0.385245 0.142916
0.939025 0.406119 0.216449
0.938979 0.403845 0.217395
0.938415 0.404471 0.215198
0.938796 0.407294 0.213626
0.938613 0.411963 0.209293
0.938293 0.420264 0.202808
0.937118 0.43238 0.189502
0.936492 0.445548 0.176867
0.933791 0.465324 0.157153
0.932387 0.487068 0.125429
0.930602 0.512825 0.0814984
0.929091 0.540612 0.0659037
0.927733 0.569986 0.064271
0.00782788 0.472648 0.000427253
0.0077821 0.43154 0.000564584
0.00656138 0.398505 0.000259403
0.00668345 0.376059 7.62951e-05
0.00601205 0.357549 7.62951e-05
0.00642405 0.345159 0.000274662
0.00636301 0.336156 0.000106813
0.0206912 0.326223 0.000122072
0.0822919 0.318563 1.5259e-05
0.140383 0.30837 0.000427253
0.198886 0.30251 0.000656138
0.26598 0.295293 0.000198367
0.347478 0.29218 0.00717174
0.450965 0.29276 0.0216068
0.561517 0.300053 0.0359655
0.679042 0.312062 0.0520333
0.796796 0.335515 0.0657359
0.905989 0.367987 0.0766155
0.933577 0.401877 0.0763714
0.932784 0.41471 0.07953
0.935531 0.433249 0.177172
0.936217 0.433051 0.190814
0.936629 0.430564 0.195438
0.937133 0.430213 0.193957
0.936614 0.433646 0.1897
0.936278 0.43859 0.184695
0.935454 0.448035 0.174426
0.934829 0.459846 0.163027
0.93257 0.477073 0.144594
0.930892 0.497276 0.109285
0.929946 0.521004 0.0731212
0.92874 0.546944 0.0651865
0.927626 0.575082 0.0638132
0.00794995 0.528176 0.000198367
0.00755322 0.495308 0.00047303
0.00796521 0.469581 0.000183108
0.00788891 0.449668 0.000549325
0.00782788 0.433051 0.000198367
0.00682078 0.423194 4.57771e-05
0.00668345 0.41416 3.0518e-05
0.0118868 0.403998 0.000122072
0.0597086 0.392996 6.10361e-05
0.124544 0.383047 0.000701915
0.184054 0.372137 0.000228885
0.248875 0.363638 0.000503548
0.327855 0.356924 0.000411994
0.426917 0.353658 0.00746166
0.534417 0.357992 0.0227512
0.648707 0.366918 0.0374456
0.763104 0.385229 0.0536202
0.872221 0.41355 0.0667124
0.930938 0.446845 0.0742504
0.930053 0.454383 0.0717632
0.93164 0.46595 0.0873732
0.93431 0.466239 0.158221
0.934508 0.460853 0.163027
0.934264 0.459007 0.16611
0.934859 0.459251 0.167056
0.93431 0.46215 0.160159
0.933715 0.468391 0.152758
0.933074 0.478019 0.137896
0.931167 0.492561 0.118761
0.929305 0.510124 0.0902113
0.928985 0.531151 0.0695354
0.928206 0.555398 0.0643015
0.927504 0.581827 0.0632029
0.00819409 0.589044 0.000793469
0.00755322 0.566323 3.0518e-05
0.00750744 0.547234 0.000137331
0.00820935 0.530343 0.000106813
0.00827039 0.51667 4.57771e-05
0.00817884 0.506371 0.000106813
0.00869764 0.498344 0.000122072
0.0104524 0.489509 0.000366217
0.0401923 0.479271 0.000579843
0.104036 0.468437 0.000366217
0.168444 0.45684 6.10361e-05
0.236866 0.445792 1.5259e-05
0.311162 0.4374 0.000137331
0.405127 0.43151 0.000518807
0.513252 0.430762 0.00848402
0.624552 0.435142 0.0233768
0.735348 0.447089 0.0377813
0.838911 0.468315 0.0529793
0.92575 0.495125 0.067628
0.928771 0.506004 0.0679637
0.92961 0.504143 0.0692912
0.929992 0.504036 0.0964065
0.930434 0.496834 0.107912
0.930999 0.492561 0.11606
0.932219 0.488823 0.122179
0.930602 0.490425 0.123095
0.930648 0.494362 0.115358
0.931044 0.500221 0.101656
0.930587 0.511345 0.0879225
0.92903 0.526055 0.0737316
0.927977 0.543938 0.0658427
0.927443 0.566522 0.0631723
0.927291 0.59057 0.0628672
0.00866712 0.656764 4.57771e-05
0.00859083 0.641108 0.000167849
0.00888075 0.627161 0.000213626
0.00865187 0.615488 0.00015259
0.00756847 0.606271 9.15541e-05
0.0080415 0.598215 0.000457771
0.00834669 0.5906 0.000640879
0.00791943 0.581979 0.000167849
0.0277104 0.572168 0.000366217
0.08159 0.56228 0.000579843
0.156313 0.551904 0.000274662
0.225025 0.539055 7.62951e-05
0.297826 0.52903 0.000717174
0.390723 0.519631 0.000259403
0.494194 0.514534 0.000259403
0.601831 0.514504 0.00761425
0.707225 0.521065 0.0243076
0.808179 0.532921 0.0409094
0.900664 0.550729 0.0586862
0.927687 0.566705 0.065156
0.928145 0.55555 0.0648051
0.927825 0.547494 0.0656596
0.928435 0.537484 0.0669871
0.929519 0.530846 0.0664378
0.928923 0.52517 0.0744182
0.92874 0.523095 0.0688945
0.929183 0.523247 0.0732586
0.929107 0.526909 0.0723735
0.929885 0.534081 0.0670024
0.928756 0.545296 0.0646067
0.927565 0.560449 0.0648508
0.926848 0.580255 0.0621958
0.927001 0.60177 0.0627756
0.00921645 0.725612 0.000198367
0.00920119 0.71635 0.000396735
0.00900282 0.707561 0.000396735
0.00885023 0.699825 0.000366217
0.00891127 0.693141 0.000289921
0.00901808 0.686656 0.000228885
0.00927749 0.680354 0.000259403
0.0104982 0.673014 0.000274662
0.0182345 0.6645 0.000198367
0.0666361 0.655741 0.00015259
0.140688 0.646372 0.000106813
0.210849 0.63534 3.0518e-05
0.285878 0.623957 0.000244144
0.375967 0.613581 0.000350958
0.477195 0.605219 0
0.58204 0.601465 0.00077821
0.683787 0.599741 0.0119478
0.781415 0.604074 0.0326696
0.874983 0.614511 0.0515297
0.925414 0.625208 0.0609445
0.926879 0.613016 0.0624704
0.927123 0.596857 0.0627146
0.927321 0.58172 0.0631876
0.92694 0.573617 0.0624704
0.927626 0.565469 0.0657206
0.927611 0.55967 0.0651255
0.928695 0.557351 0.0640574
0.927581 0.55761 0.0654459
0.928161 0.561624 0.064622
0.928145 0.569406 0.062211
0.927306 0.580758 0.0633555
0.92723 0.596246 0.0624399
0.926604 0.615976 0.0623941
0.00918593 0.793057 0.000350958
0.00924697 0.786816 9.15541e-05
0.00892653 0.781003 0.000167849
0.00862135 0.775769 0.000228885
0.00846876 0.770993 0.00015259
0.00834669 0.766674 6.10361e-05
0.00874342 0.762173 0
0.0107576 0.75642 3.0518e-05
0.0158694 0.749508 9.15541e-05
0.0622263 0.742519 0.000534066
0.124712 0.734371 0.000564584
0.198398 0.725063 0.000366217
0.275074 0.714702 0.000411994
0.361166 0.703822 0.00047303
0.460853 0.694682 4.57771e-05
0.563043 0.684367 3.0518e-05
0.664134 0.678706 0.00263981
0.758541 0.677165 0.0228122
0.847944 0.680491 0.0426337
0.918074 0.685771 0.0559396
0.925643 0.677211 0.0585641
0.92549 0.654383 0.0589456
0.926482 0.630732 0.0613107
0.926345 0.61886 0.0607156
0.925811 0.609125 0.0616465
0.927077 0.601083 0.0637522
0.927047 0.595712 0.0623178
0.926604 0.592584 0.061738
0.927169 0.593118 0.0628214
0.927367 0.597879 0.0608377
0.926879 0.605188 0.0626383
0.926879 0.617487 0.0607767
0.926085 0.633814 0.0613107
0.00996414 0.856992 0.000946059
0.00968948 0.852979 0.0009308
0.00924697 0.84921 0.000915541
0.00885023 0.84564 0.000915541
0.0087129 0.84239 0.000946059
0.00875868 0.839063 0.0010071
0.00880446 0.835828 0.00105287
0.0100862 0.83209 0.00105287
0.0174868 0.826398 0.000747692
0.0282139 0.819501 0.000350958
0.110643 0.813001 0.000122072
0.189014 0.805142 0.000427253
0.263645 0.795071 0.000701915
0.351049 0.783795 0.000549325
0.446769 0.774044 0.000259403
0.549889 0.764111 0.000549325
0.644984 0.756558 0.000854505
0.73756 0.751064 0.0148165
0.825284 0.747204 0.0360723
0.907866 0.7467 0.0501259
0.926711 0.741512 0.0554971
0.926558 0.715679 0.0569314
0.925902 0.686961 0.057557
0.926192 0.667308 0.058854
0.92607 0.655848 0.0606546
0.925994 0.646265 0.0593118
0.925933 0.638697 0.0592813
0.926085 0.632578 0.0618601
0.926177 0.63006 0.0607004
0.926543 0.63032 0.0609903
0.926848 0.634165 0.0620279
0.925933 0.642649 0.0592203
0.926299 0.65481 0.0610208
0.0133059 0.910384 0.000289921
0.013138 0.907912 0.000198367
0.0129397 0.905516 0.000137331
0.0127871 0.903334 6.10361e-05
0.0127413 0.901106 0
0.01355 0.898772 1.5259e-05
0.0143893 0.896498 3.0518e-05
0.0153048 0.893935 4.57771e-05
0.0218814 0.89041 6.10361e-05
0.0618601 0.885679 4.57771e-05
0.112139 0.879881 3.0518e-05
0.180209 0.87364 1.5259e-05
0.25597 0.865507 0
0.338506 0.856275 0.000411994
0.431373 0.84625 0.000503548
0.530068 0.835935 0
0.626383 0.827985 9.15541e-05
0.716472 0.818738 0.00672923
0.801495 0.811887 0.0270085
0.884474 0.806683 0.0443122
0.926802 0.80235 0.0532235
0.926482 0.778698 0.0551308
0.926589 0.745144 0.0561685
0.925994 0.71751 0.0559091
0.924788 0.705364 0.0569009
0.925643 0.69369 0.0579385
0.925917 0.683787 0.0580758
0.925322 0.675746 0.0589914
0.925872 0.670466 0.0582132
0.925933 0.667781 0.057969
0.926421 0.667887 0.0586709
0.925963 0.671946 0.05832
0.925536 0.680446 0.0598154
0.0169375 0.959945 0.000122072
0.0163424 0.958343 0.000228885
0.0157778 0.956756 0.000335698
0.0152285 0.955245 0.000442512
0.0146944 0.953765 0.000534066
0.016144 0.952209 0.000518807
0.0189059 0.950347 0.000411994
0.0222019 0.948196 0.00030518
0.0265965 0.945296 0.00015259
0.0392615 0.941756 0
0.102998 0.937072 6.10361e-05
0.181445 0.931334 0.000106813
0.247913 0.923644 4.57771e-05
0.326162 0.916213 0
0.415854 0.908583 0.000167849
0.511772 0.900252 0.000289921
0.604776 0.891447 4.57771e-05
0.695659 0.881666 0.00296025
0.779477 0.87335 0.0208743
0.86099 0.86627 0.0381323
0.925811 0.859846 0.0554208
0.926329 0.838605 0.0539559
0.92726 0.806043 0.0538949
0.926574 0.77171 0.0552224
0.926558 0.75494 0.0557259
0.925643 0.742916 0.0567788
0.926467 0.7308 0.0550393
0.92575 0.721187 0.056733
0.926436 0.712932 0.0569772
0.926497 0.707805 0.0551766
0.925689 0.705211 0.0567636
0.925948 0.705623 0.0565347
0.924865 0.710399 0.0569467
0.0226444 0.996735 0.000183108
0.0232395 0.996185 0.00015259
0.0240024 0.995636 0.00015259
0.0245975 0.995117 0.000122072
0.0251926 0.994598 0.000106813
0.0256352 0.994217 9.15541e-05
0.037232 0.993057 0.000167849
0.0516518 0.991638 0.000244144
0.0707408 0.989761 0.000366217
0.0953231 0.98735 0.000503548
0.129061 0.984344 0.000610361
0.182956 0.98056 0.000335698
0.249943 0.975906 0
0.320104 0.969589 0
0.402899 0.962158 0
0.494636 0.954467 4.57771e-05
0.587335 0.947082 0.000320439
0.673945 0.939208 0.000701915
0.756359 0.929442 0.0141451
0.834119 0.919448 0.032166
0.903716 0.910597 0.0487068
0.928176 0.894331 0.0531777
0.92752 0.863401 0.0550546
0.927657 0.828244 0.0556802
0.927184 0.804501 0.054902
0.926574 0.791485 0.0558633
0.927153 0.778958 0.0551614
0.925872 0.768246 0.0559548
0.92726 0.758114 0.0559701
0.927306 0.750256 0.0551308
0.925902 0.74493 0.0564431
0.927062 0.741817 0.0569467
0.925811 0.743175 0.0549172
0.0263523 0.999847 0.000228885
0.0273747 0.999847 0.000228885
0.0278782 0.999847 0.000244144
0.0288853 0.999847 0.000244144
0.0293889 0.999847 0.000244144
0.030396 0.999847 0.000259403
0.033463 0.999847 0.000259403
0.0523537 0.999756 0.00030518
0.0768444 0.999649 0.000335698
0.10901 0.999512 0.000396735
0.150271 0.999359 0.00047303
0.201175 0.999191 0.000534066
0.251804 0.999207 0.000457771
0.315328 0.999252 0.000381476
0.38909 0.99855 0.000564584
0.471702 0.995621 0.000320439
0.558785 0.989899 4.57771e-05
0.645624 0.981933 0.000259403
0.727749 0.973266 0.00747692
0.80444 0.965194 0.0243229
0.875151 0.954147 0.0406653
0.930358 0.939849 0.0550088
0.929595 0.916564 0.0564126
0.928267 0.88397 0.0536965
0.92784 0.854688 0.0543832
0.927199 0.839872 0.0556954
0.926863 0.828046 0.0543374
0.927291 0.8159 0.0545205
0.92697 0.804608 0.0559396
0.926955 0.795224 0.0541238
0.927245 0.787259 0.0545815
0.927184 0.781872 0.0552682
0.926207 0.779324 0.0555581
0.0856184 0.99968 0.000106813
0.0944381 0.999649 9.15541e-05
0.103349 0.999634 7.62951e-05
0.112261 0.999603 6.10361e-05
0.120607 0.999573 4.57771e-05
0.129519 0.999557 3.0518e-05
0.137972 0.999527 1.5259e-05
0.148318 0.999527 0
0.162722 0.999542 0
0.181155 0.999588 0
0.205661 0.999634 0
0.237873 0.999695 0
0.277928 0.999771 1.5259e-05
0.324453 0.999863 6.10361e-05
0.383658 0.999969 0.000106813
0.455024 0.999863 3.0518e-05
0.533272 0.999435 0
0.615366 0.999298 0
0.695109 0.999771 0.00247196
0.771206 1 0.0173342
0.842893 0.9906 0.03299
0.909224 0.979324 0.0492866
0.932342 0.962493 0.0569772
0.930709 0.9346 0.0568399
0.928573 0.901015 0.0535744
0.928527 0.886549 0.0533455
0.928405 0.874388 0.0545357
0.92755 0.862608 0.053315
0.92665 0.851041 0.0547189
0.927169 0.840879 0.0532082
0.927855 0.8318 0.0547799
0.927565 0.823453 0.055314
0.927062 0.81857 0.0565042
0.164858 0.999527 0
0.172427 0.999496 0
0.17998 0.999481 0
0.187533 0.999451 0
0.195102 0.99942 0
0.202121 0.999405 0
0.209674 0.999374 0
0.21886 0.999359 0
0.229297 0.999359 0
0.242176 0.99942 0
0.258915 0.999512 0
0.280797 0.999619 0
0.309255 0.999756 0
0.346166 0.999893 0
0.393378 0.999939 0
0.450996 0.999985 0
0.516564 0.999893 0
0.587976 0.999908 0.000488289
0.66244 0.999634 0.000442512
0.735195 0.999481 0.00630198
0.807004 0.999603 0.029633
0.87689 0.999359 0.0558328
0.926146 0.99559 0.067628
0.931517 0.978683 0.0561532
0.930938 0.951476 0.0545052
0.931289 0.929397 0.0540627
0.929335 0.917632 0.0551614
0.929244 0.906065 0.0534981
0.928222 0.894987 0.0544594
0.928679 0.884596 0.0543374
0.928679 0.874266 0.0547341
0.927733 0.86566 0.0545815
0.927779 0.858808 0.053193
0.248585 0.999863 0.000427253
0.253193 0.999847 0.000457771
0.257404 0.999847 0.000488289
0.262013 0.999847 0.000518807
0.266346 0.999847 0.000534066
0.270542 0.999832 0.000564584
0.274739 0.999832 0.000595102
0.279911 0.999832 0.00062562
0.287175 0.999817 0.000671397
0.296666 0.999817 0.000701915
0.30927 0.999786 0.000732433
0.326635 0.999771 0.00077821
0.34876 0.999741 0.000839246
0.377829 0.99971 0.000915541
0.41352 0.99968 0.000854505
0.457191 0.999695 0.000488289
0.510231 0.999725 0.000167849
0.568704 0.999741 0.000457771
0.633555 0.999878 0.000244144
0.70277 0.999985 0.00460822
0.770748 0.99968 0.0190433
0.83917 0.999298 0.0441444
0.902342 0.999908 0.0694438
0.93286 0.999619 0.0797589
0.931991 0.989761 0.0634775
