packages/webcomponents/examples/FLog2C_to_ETERNA_VLog.cube
TITLE "Generated by Resolve"
#LUMIXPHOTOSTYLE VLOG
LUT_3D_SIZE 9
0.00585946 0.00585946 0.00585946
0.0372778 0.00776684 0.0102541
0.314107 0.0325628 0.047364
0.826734 0.146944 0.107195
0.943984 0.328389 0.270512
0.943984 0.328389 0.270512
0.943481 0.331411 0.267338
0.937346 0.421576 0.202029
0.928145 0.551919 0.0656291
0.00462348 0.0217288 0.00283818
0.0186007 0.00595102 0.00796521
0.231479 0.02327 0.0352941
0.642298 0.0943008 0.0853895
0.940246 0.25008 0.184421
0.943984 0.328389 0.270512
0.942779 0.348531 0.256001
0.936492 0.431189 0.191257
0.928038 0.555932 0.0654459
0.00552377 0.2103 3.0518e-05
0.00546273 0.155138 7.62951e-05
0.152651 0.125795 0.0056611
0.460121 0.130114 0.0509651
0.930236 0.223468 0.104311
0.943725 0.344213 0.258122
0.940841 0.373083 0.239811
0.935683 0.443641 0.178515
0.927916 0.560815 0.0651255
0.00782788 0.472648 0.000427253
0.00601205 0.357549 7.62951e-05
0.0822919 0.318563 1.5259e-05
0.347478 0.29218 0.00717174
0.796796 0.335515 0.0657359
0.935531 0.433249 0.177172
0.936614 0.433646 0.1897
0.93257 0.477073 0.144594
0.927626 0.575082 0.0638132
0.00921645 0.725612 0.000198367
0.00891127 0.693141 0.000289921
0.0182345 0.6645 0.000198367
0.285878 0.623957 0.000244144
0.683787 0.599741 0.0119478
0.926879 0.613016 0.0624704
0.927626 0.565469 0.0657206
0.928161 0.561624 0.064622
0.926604 0.615976 0.0623941
0.0169375 0.959945 0.000122072
0.0146944 0.953765 0.000534066
0.0265965 0.945296 0.00015259
0.247913 0.923644 4.57771e-05
0.604776 0.891447 4.57771e-05
0.925811 0.859846 0.0554208
0.926558 0.75494 0.0557259
0.926436 0.712932 0.0569772
0.924865 0.710399 0.0569467
0.164858 0.999527 0
0.195102 0.99942 0
0.229297 0.999359 0
0.309255 0.999756 0
0.516564 0.999893 0
0.807004 0.999603 0.029633
0.930938 0.951476 0.0545052
0.928222 0.894987 0.0544594
0.927779 0.858808 0.053193
0.397406 0.999435 3.0518e-05
0.403464 0.999405 3.0518e-05
0.410925 0.999359 1.5259e-05
0.431815 0.999374 1.5259e-05
0.49575 0.999695 0
0.659342 0.999481 7.62951e-05
0.906966 0.999756 0.0699474
0.933928 0.999802 0.0830396
0.933059 0.998627 0.0726635
0.694209 0.999542 0.000122072
0.695537 0.999542 0.000122072
0.697078 0.999527 0.000122072
0.701396 0.999512 0.000427253
0.714839 0.999512 0.00285344
0.756115 0.999512 0.010605
0.853468 0.99913 0.0495003
0.932509 0.999634 0.0824445
0.932509 0.999634 0.0824445
0.00585946 0.00585946 0.00585946
0.0235142 0.00614939 0.00843824
0.294331 0.0287633 0.0445563
0.798611 0.137194 0.101152
0.943984 0.328389 0.270512
0.943984 0.328389 0.270512
0.943465 0.331533 0.26717
0.937331 0.421729 0.201877
0.928145 0.55201 0.0656291
0.00665293 0.026215 0.0320287
0.0065156 0.00610361 0.00611887
0.213184 0.0189212 0.0329442
0.607538 0.0863661 0.0826886
0.938277 0.239918 0.162661
0.943984 0.328389 0.270512
0.94255 0.349767 0.255558
0.936477 0.431327 0.191089
0.928038 0.556039 0.0654307
0.00996414 0.223514 0.0383307
0.00531014 0.164828 1.5259e-05
0.135653 0.134585 0.00181582
0.431998 0.135134 0.045304
0.916716 0.220981 0.103426
0.942687 0.349386 0.254856
0.940719 0.373419 0.239521
0.935668 0.443809 0.178347
0.927916 0.560922 0.0651102
0.00746166 0.502037 0.000228885
0.00640879 0.374304 0.000350958
0.0585794 0.328878 0.000808728
0.3243 0.301045 0.00196841
0.772 0.340093 0.0606851
0.934279 0.436683 0.152407
0.937072 0.434714 0.187655
0.93257 0.477165 0.144442
0.927626 0.575082 0.0638132
0.00910964 0.743557 0.000503548
0.00860609 0.708644 0.000381476
0.010193 0.680934 0.00062562
0.257832 0.63743 0.000106813
0.659358 0.611322 0.00773632
0.926268 0.625299 0.0618143
0.927184 0.567971 0.0647135
0.928161 0.561624 0.064622
0.926604 0.615976 0.0623941
0.0177615 0.972259 0.000747692
0.0191196 0.96556 0.000335698
0.0208438 0.957794 0.000503548
0.185046 0.938018 0.000381476
0.568353 0.902327 0.000579843
0.915175 0.868559 0.0538033
0.926238 0.759411 0.0566567
0.926436 0.712932 0.0569772
0.924865 0.710399 0.0569467
0.0803845 0.999619 0.000503548
0.102846 0.999542 0.00062562
0.130327 0.999496 0.000717174
0.221347 0.999771 0.000656138
0.437736 0.999542 3.0518e-05
0.765301 0.999573 0.0145266
0.931441 0.962982 0.0575875
0.928222 0.894987 0.0544594
0.927779 0.858808 0.053193
0.359792 0.999313 0.00015259
0.365591 0.999283 0.000122072
0.373068 0.999252 7.62951e-05
0.394171 0.999283 1.5259e-05
0.458289 0.999649 0
0.614359 0.999634 4.57771e-05
0.870207 0.999527 0.0585641
0.93283 0.999664 0.0825818
0.933059 0.998627 0.0726635
0.685878 0.99968 0.000244144
0.687312 0.999695 0.000244144
0.688838 0.999695 0.000244144
0.693111 0.999725 0.000564584
0.706584 0.999786 0.00299077
0.748119 0.999908 0.0105135
0.846937 0.999222 0.0472419
0.932509 0.999634 0.0824445
0.932509 0.999634 0.0824445
0.0114595 0.0041352 0.133272
0.0146792 0.0043183 0.10071
0.269322 0.0221866 0.066743
0.753628 0.123812 0.0979171
0.944305 0.324758 0.267262
0.943984 0.328389 0.270512
0.943511 0.33872 0.260624
0.936248 0.430426 0.193942
0.928145 0.552117 0.0656291
0.0150912 0.0215457 0.186099
0.0121614 0.00518807 0.143832
0.202869 0.00621042 0.128542
0.566201 0.0694896 0.126314
0.936965 0.219852 0.128161
0.943984 0.328389 0.270512
0.941314 0.362478 0.246845
0.935546 0.440803 0.183169
0.928038 0.556039 0.0654307
0.0221408 0.242481 0.244312
0.0161898 0.174197 0.1682
0.13283 0.140536 0.143191
0.416815 0.135653 0.147662
0.883818 0.215503 0.160021
0.942092 0.359533 0.250141
0.940703 0.387167 0.228672
0.935042 0.453178 0.171359
0.927916 0.560922 0.0651102
0.0264286 0.547845 0.246647
0.0200046 0.4121 0.158999
0.0316777 0.357885 0.124804
0.318334 0.319005 0.124193
0.748913 0.346349 0.125963
0.937041 0.444938 0.200565
0.935088 0.453086 0.172
0.933318 0.487037 0.125978
0.927626 0.575189 0.063798
0.0196841 0.776898 0.0560006
0.0178073 0.743862 0.0335241
0.0160678 0.716854 0.0181888
0.232044 0.67155 0.00999466
0.634989 0.632532 0.00129702
0.926589 0.644816 0.0597848
0.926909 0.590204 0.0699626
0.927199 0.573098 0.0643931
0.926604 0.615976 0.0623941
0.0197604 0.98439 0.000335698
0.0190433 0.978714 0.000534066
0.0176852 0.972641 0.000732433
0.115602 0.953811 0.000366217
0.522667 0.915587 0.000274662
0.886946 0.879561 0.0457008
0.927108 0.776211 0.0544289
0.925124 0.727291 0.0556954
0.924865 0.710399 0.0569467
0.0240787 0.999817 0.000244144
0.0251164 0.999802 0.000259403
0.0341039 0.999802 0.000274662
0.154788 0.999939 0.000228885
0.384466 0.999542 0.000350958
0.730251 0.999512 0.00767529
0.931533 0.979873 0.0548562
0.929488 0.909758 0.0543679
0.927779 0.858808 0.053193
0.338796 0.999863 0.000640879
0.344823 0.999893 0.000610361
0.352392 0.999924 0.000595102
0.373404 0.999863 0.000488289
0.437232 0.999359 0.000137331
0.59176 0.999664 6.10361e-05
0.850019 0.999573 0.0479591
0.932509 0.999634 0.0824445
0.933059 0.998627 0.0726635
0.679118 0.999817 0.000167849
0.680476 0.999832 0.000167849
0.682017 0.999847 0.000167849
0.68629 0.999863 0.000442512
0.699275 0.999817 0.00250248
0.739376 0.999725 0.00889601
0.839628 0.999268 0.044831
0.932509 0.999634 0.0824445
0.932509 0.999634 0.0824445
0.0195621 0.00283818 0.278767
0.0178988 0.00292973 0.233722
0.272908 0.00213626 0.216724
0.734447 0.0969253 0.23978
0.944503 0.318669 0.286397
0.946532 0.332189 0.313985
0.946685 0.358083 0.33193
0.939529 0.455741 0.272831
0.927504 0.576516 0.063798
0.0266575 0.0130617 0.381415
0.0214084 0.00239567 0.303471
0.203098 0.000137331 0.270985
0.548882 0.0234226 0.294423
0.947036 0.18088 0.337499
0.948089 0.342473 0.371405
0.945876 0.382834 0.341665
0.939101 0.466804 0.272023
0.927443 0.580652 0.0636454
0.0379339 0.262181 0.519356
0.0290684 0.184039 0.38468
0.136034 0.144183 0.320195
0.421088 0.133761 0.313207
0.872297 0.197894 0.364309
0.947646 0.386297 0.395712
0.944579 0.410147 0.345724
0.939422 0.479332 0.270878
0.927382 0.585595 0.0633402
0.0451972 0.584619 0.569177
0.0361181 0.455253 0.443595
0.0332952 0.391089 0.376822
0.330022 0.338598 0.349966
0.750652 0.34818 0.364584
0.94519 0.456291 0.390967
0.943893 0.473823 0.356756
0.938079 0.513893 0.266133
0.92723 0.599863 0.0619669
0.045243 0.790433 0.447028
0.0406653 0.762112 0.412879
0.0373541 0.737957 0.381979
0.226337 0.693294 0.352865
0.639658 0.645396 0.347967
0.940368 0.647654 0.337133
0.942092 0.602396 0.354086
0.936736 0.597528 0.249821
0.926543 0.640513 0.0601663
0.0470436 0.969406 0.219593
0.0463874 0.96585 0.211215
0.0446021 0.96112 0.200336
0.0655222 0.94902 0.179812
0.491249 0.917998 0.209461
0.868132 0.879911 0.213123
0.939162 0.78172 0.27863
0.931517 0.744976 0.163073
0.927108 0.734615 0.0558938
0.0228122 0.999832 0.000198367
0.0231327 0.999832 0.000198367
0.029221 0.999832 0.000198367
0.121386 0.999771 0.000106813
0.327825 0.999695 0.000183108
0.684215 0.999954 0.000579843
0.931411 0.984985 0.0611124
0.930129 0.918715 0.0566262
0.928435 0.881392 0.0538033
0.32285 0.999466 0.000137331
0.328008 0.999435 0.000106813
0.334356 0.99939 6.10361e-05
0.353674 0.999435 4.57771e-05
0.414099 0.999786 0.000183108
0.566247 0.999588 0.00015259
0.820386 0.999832 0.035935
0.932509 0.999634 0.0824445
0.933349 0.99968 0.0795605
0.66717 0.999603 0.0238804
0.668498 0.999603 0.0231174
0.669886 0.999603 0.0215763
0.673915 0.999603 0.0196536
0.686885 0.999557 0.0154421
0.727092 0.999374 0.00703441
0.824811 0.999695 0.0392309
0.932509 0.999634 0.0824445
0.932509 0.999634 0.0824445
0.0343633 0.00514229 0.532006
0.0301061 0.00366217 0.458244
0.289174 0 0.390814
0.731533 0.042771 0.422415
0.952056 0.290913 0.424567
0.951232 0.337514 0.461295
0.95285 0.379324 0.483909
0.948806 0.487587 0.479133
0.943267 0.603006 0.393347
0.0460365 0.0163729 0.712215
0.0391394 0.0077821 0.607416
0.203983 0.00117494 0.518029
0.534508 0.000518807 0.511498
0.954269 0.111269 0.578592
0.955306 0.338872 0.511162
0.951812 0.408972 0.500877
0.948653 0.497185 0.482628
0.943191 0.606912 0.393271
0.0544289 0.281117 0.819196
0.0471199 0.195819 0.699229
0.143999 0.146715 0.610727
0.441306 0.126101 0.571771
0.864759 0.177722 0.605844
0.954177 0.380926 0.544137
0.951934 0.438926 0.517128
0.948928 0.508415 0.484825
0.94316 0.61149 0.392889
0.0606699 0.59791 0.830259
0.0537728 0.488045 0.740246
0.0491646 0.425589 0.682643
0.350225 0.363058 0.652171
0.759243 0.348455 0.642817
0.955673 0.453635 0.599588
0.95172 0.507759 0.548913
0.949126 0.540551 0.491524
0.943252 0.624506 0.391592
0.0673533 0.788678 0.735729
0.0625467 0.766644 0.714183
0.0590677 0.745464 0.691279
0.216571 0.70399 0.669352
0.642496 0.654337 0.667414
0.956893 0.642741 0.641123
0.952697 0.621714 0.579095
0.948745 0.615228 0.502586
0.943069 0.661936 0.385809
0.074876 0.940764 0.61207
0.0733043 0.937331 0.606271
0.0731518 0.933379 0.599786
0.0742504 0.92253 0.583566
0.456382 0.897856 0.606149
0.856031 0.863615 0.603143
0.956359 0.783734 0.573281
0.950408 0.746609 0.493217
0.942626 0.747448 0.357305
0.0635233 0.997925 0.373953
0.0629435 0.998062 0.372824
0.0655528 0.998184 0.371862
0.11136 0.997971 0.374899
0.315251 0.997177 0.400702
0.654169 0.999557 0.405402
0.950561 0.980117 0.364889
0.948714 0.911543 0.366583
0.9393 0.884916 0.231189
0.372137 0.999512 0.318212
0.375753 0.999588 0.316976
0.380575 0.999649 0.314809
0.394659 0.999756 0.308858
0.438926 0.999924 0.29073
0.562051 0.999878 0.235554
0.785626 0.999252 0.0979477
0.932509 0.999634 0.0824445
0.932906 0.999649 0.0812543
0.681514 0.999619 0.488975
0.682658 0.999634 0.48867
0.683925 0.999664 0.488106
0.687694 0.99971 0.486351
0.699474 0.99968 0.480812
0.736217 0.999573 0.462791
0.825162 0.999634 0.404654
0.944762 0.99971 0.224475
0.932509 0.999634 0.0824445
0.0544289 0.0357061 0.889601
0.0514534 0.0262913 0.829938
0.271366 0.00683604 0.732326
0.663523 0.00015259 0.730144
0.971023 0.0738689 0.780804
0.963378 0.2813 0.649577
0.959716 0.362005 0.643519
0.95639 0.490654 0.640787
0.956298 0.627466 0.639445
0.0740673 0.0621347 0.999619
0.0628367 0.0481727 0.963226
0.182544 0.026978 0.874968
0.524269 0.000442512 0.840925
0.91426 0.0556039 0.853071
0.963531 0.311879 0.692653
0.959487 0.390082 0.656901
0.956634 0.50193 0.645869
0.95639 0.630808 0.640269
0.063447 0.272053 0.983322
0.0630045 0.206043 0.979232
0.120256 0.152499 0.915373
0.458564 0.122972 0.880781
0.852781 0.156832 0.874754
0.965835 0.330434 0.741787
0.959899 0.419821 0.669825
0.957153 0.514885 0.652216
0.956634 0.634577 0.641047
0.0651713 0.542748 0.937179
0.0646372 0.485542 0.946517
0.0637827 0.434134 0.931136
0.355413 0.374487 0.914534
0.76112 0.343511 0.900435
0.966705 0.414755 0.821027
0.960204 0.49041 0.696452
0.957839 0.549783 0.663981
0.957336 0.64538 0.643244
0.0737316 0.746487 0.895689
0.0733043 0.732219 0.898314
0.0724346 0.717708 0.895521
0.191867 0.689143 0.888457
0.628122 0.647593 0.897963
0.9617 0.619364 0.874693
0.961929 0.622644 0.736507
0.959777 0.631907 0.693019
0.958373 0.676936 0.649332
0.0874189 0.898939 0.827558
0.0874342 0.895644 0.824369
0.0851148 0.8925 0.820111
0.0834974 0.884215 0.809537
0.400565 0.864912 0.828519
0.82446 0.834913 0.844388
0.969467 0.785122 0.785122
0.964675 0.75079 0.723323
0.960037 0.749355 0.654459
0.0872663 0.985611 0.68397
0.0873121 0.98558 0.682857
0.0873732 0.985534 0.681788
0.08748 0.985641 0.678203
0.192386 0.986343 0.686183
0.598596 0.985733 0.727916
0.951324 0.958816 0.730144
0.969436 0.897795 0.695842
0.962753 0.87245 0.620493
0.329778 0.98822 0.656245
0.335271 0.988235 0.656291
0.342199 0.988266 0.656275
0.362295 0.988434 0.656199
0.422599 0.989075 0.656748
0.575601 0.992676 0.659968
0.789685 0.999725 0.627726
0.965286 0.999847 0.532937
0.958144 0.999786 0.425635
0.672511 0.992599 0.760861
0.674189 0.99266 0.760815
0.675639 0.992691 0.760861
0.680308 0.992828 0.760906
0.694011 0.99324 0.761364
0.736507 0.994476 0.762692
0.823758 0.997833 0.752026
0.971878 0.999771 0.683635
0.9635 0.999588 0.50779
0.0768292 0.070222 0.999741
0.0698405 0.0698711 0.999847
0.0636606 0.0700389 0.999283
0.476844 0.0544137 0.999771
0.874983 0.000213626 0.999634
0.978637 0.216495 0.932403
0.969558 0.344518 0.829648
0.965148 0.461433 0.801129
0.964843 0.609735 0.782498
0.104067 0.0844434 0.999603
0.0943618 0.0768444 0.999847
0.0793011 0.0702373 0.999954
0.433539 0.0654154 0.999664
0.836133 0.0553902 0.999359
0.978607 0.237491 0.968124
0.969238 0.367041 0.836469
0.965301 0.472282 0.803723
0.964889 0.61355 0.783352
0.13611 0.205341 0.999542
0.114641 0.182971 0.999161
0.0894636 0.157046 0.999573
0.386114 0.140551 0.999741
0.80061 0.15201 0.999496
0.980407 0.265568 0.992554
0.96846 0.392859 0.842969
0.965835 0.4851 0.806195
0.964965 0.618112 0.78439
0.0756237 0.397253 0.963043
0.0656138 0.368277 0.967025
0.064622 0.350759 0.96997
0.307881 0.341985 0.999374
0.717784 0.3243 0.999329
0.979095 0.356237 0.999786
0.968368 0.455589 0.856199
0.965667 0.519142 0.814176
0.965164 0.630838 0.787274
0.0665141 0.626307 0.922408
0.0664225 0.618357 0.925032
0.0665141 0.6112 0.92578
0.202487 0.60087 0.944091
0.562127 0.587976 0.989807
0.926482 0.566278 0.999115
0.970123 0.583535 0.877043
0.966812 0.600687 0.830732
0.966567 0.667491 0.796277
0.0813611 0.82208 0.880369
0.0818952 0.819394 0.880949
0.0818799 0.817197 0.881529
0.0816205 0.810956 0.882689
0.368292 0.799359 0.922805
0.766247 0.784283 0.984878
0.977142 0.751842 0.936751
0.972625 0.733959 0.855711
0.970184 0.746975 0.815305
0.100206 0.966293 0.853956
0.100175 0.965652 0.85391
0.100099 0.964874 0.853956
0.0991073 0.962783 0.855817
0.120836 0.957626 0.858701
0.527398 0.945556 0.911543
0.913512 0.923247 0.931899
0.980972 0.884153 0.882994
0.976226 0.862348 0.835248
0.186877 0.980011 0.852766
0.194232 0.980011 0.853269
0.203662 0.980011 0.853864
0.229206 0.980117 0.855131
0.305608 0.980667 0.858045
0.482048 0.984207 0.86302
0.76701 0.992645 0.862913
0.986236 0.999863 0.832349
0.981125 0.994568 0.780041
0.585519 0.985138 0.924178
0.586984 0.985168 0.924376
0.589044 0.985199 0.924681
0.594476 0.985351 0.925307
0.611734 0.98584 0.92694
0.664714 0.98735 0.931853
0.786313 0.992065 0.932647
0.964004 0.99942 0.921187
0.98616 0.99971 0.838865
0.0646372 0.480629 0.947753
0.0690166 0.433906 0.95639
0.136645 0.218753 0.997467
0.210483 0.0741588 0.999741
0.595209 0.0778821 0.999878
0.97293 0.184649 0.999878
0.978561 0.333242 0.99968
0.973831 0.423377 0.971542
0.971252 0.564889 0.930953
0.064683 0.533852 0.939147
0.0648051 0.454276 0.951843
0.127535 0.25922 0.993927
0.210636 0.097673 0.999969
0.574563 0.117128 0.999649
0.957351 0.212497 0.999924
0.977951 0.347845 0.999451
0.973922 0.4327 0.972107
0.971405 0.568551 0.931517
0.0659953 0.586099 0.93022
0.0647135 0.467399 0.949905
0.113817 0.302266 0.985351
0.212924 0.157595 0.999954
0.55256 0.169741 0.999435
0.939391 0.244221 0.999557
0.977417 0.365072 0.999359
0.974121 0.443458 0.972503
0.971649 0.572961 0.932219
0.068452 0.669474 0.913497
0.0653697 0.512474 0.943358
0.074052 0.411353 0.960815
0.218906 0.288029 0.998215
0.505974 0.277684 0.99939
0.892912 0.323323 0.999084
0.978088 0.414298 0.999878
0.974182 0.473274 0.975082
0.972335 0.585626 0.934157
0.0694438 0.68188 0.90988
0.0675975 0.642298 0.91931
0.0663005 0.605722 0.927001
0.163699 0.533761 0.95375
0.446479 0.47248 0.99826
0.795026 0.495521 0.999512
0.977905 0.516014 0.999588
0.975692 0.547784 0.98439
0.972885 0.621668 0.938445
0.0806134 0.822934 0.880583
0.0804761 0.814939 0.882368
0.0802777 0.805463 0.884184
0.0861372 0.781643 0.888365
0.343893 0.73312 0.932403
0.681346 0.696025 0.985199
0.971572 0.700313 0.999603
0.977981 0.683543 0.994614
0.976318 0.704479 0.948226
0.0990158 0.964904 0.854887
0.0985122 0.963516 0.85536
0.0979629 0.96199 0.855863
0.0981613 0.95668 0.856596
0.152346 0.940063 0.867353
0.514031 0.905928 0.925658
0.854978 0.868757 0.985779
0.986099 0.845991 0.997848
0.982605 0.832929 0.962356
0.110979 0.979706 0.85391
0.112032 0.979706 0.854017
0.113207 0.979706 0.854139
0.132906 0.979767 0.857084
0.227832 0.980163 0.871489
0.403769 0.981643 0.897917
0.708888 0.988785 0.946563
0.987442 0.995651 0.994629
0.993347 0.976013 0.970443
0.542351 0.983902 0.919402
0.544015 0.983932 0.919676
0.545953 0.983978 0.919982
0.551934 0.9841 0.920928
0.569253 0.984436 0.923674
0.622049 0.985443 0.932006
0.744701 0.98999 0.953277
0.936278 0.997467 0.986343
0.999863 0.999985 0.999725
0.0890059 0.891966 0.868269
0.0890211 0.892088 0.868254
0.0792096 0.789654 0.886412
0.0673686 0.646082 0.91809
0.349432 0.510826 0.981109
0.704524 0.404425 0.999374
0.98027 0.35227 0.99971
0.97966 0.381582 0.999512
0.979263 0.493584 0.999863
0.090074 0.89984 0.867124
0.0900893 0.899962 0.867094
0.0787213 0.7879 0.886885
0.0674449 0.655131 0.916808
0.346288 0.523766 0.977691
0.701198 0.419226 0.99942
0.97966 0.366064 0.999725
0.979919 0.388693 0.999634
0.979126 0.496727 0.999847
0.0908217 0.908415 0.865736
0.0901656 0.896345 0.866987
0.0790265 0.785138 0.888747
0.0680858 0.665476 0.914626
0.342016 0.538247 0.974334
0.69723 0.437049 0.999496
0.979339 0.381979 0.999725
0.980209 0.396918 0.999786
0.978958 0.500633 0.999863
0.0930495 0.931975 0.861845
0.0852979 0.858763 0.873259
0.0787366 0.787289 0.887449
0.0695201 0.694209 0.908095
0.329595 0.578805 0.964889
0.685588 0.485023 0.999741
0.979492 0.425162 0.999619
0.980362 0.419379 0.999908
0.978454 0.511482 0.999863
0.0873426 0.871412 0.870329
0.0841993 0.838956 0.876616
0.081178 0.811429 0.883314
0.0747997 0.758694 0.893843
0.291615 0.673106 0.938704
0.657557 0.596246 0.997513
0.955108 0.533883 0.999634
0.978714 0.483482 0.999573
0.978271 0.544869 0.999847
0.0910506 0.903181 0.865156
0.0897536 0.896025 0.867109
0.0884413 0.887663 0.868528
0.0864576 0.866499 0.871794
0.179431 0.8215 0.892744
0.597147 0.757931 0.961913
0.894163 0.709178 0.999237
0.979767 0.635157 0.99939
0.978927 0.633478 0.999908
0.0997635 0.979355 0.852735
0.0997635 0.979248 0.852781
0.0997635 0.979126 0.852842
0.0997482 0.978561 0.852827
0.100069 0.971649 0.853834
0.404013 0.940475 0.904326
0.811673 0.893736 0.976593
0.98587 0.842359 0.999451
0.983734 0.790249 0.99942
0.0997177 0.979767 0.852705
0.0997177 0.979767 0.852705
0.0997177 0.979767 0.852705
0.106111 0.979751 0.853788
0.14757 0.97969 0.860792
0.344457 0.980072 0.888609
0.665354 0.98735 0.939696
0.96408 0.998306 0.990188
0.994568 0.973617 0.999023
0.489799 0.983383 0.91017
0.491447 0.983398 0.91043
0.493751 0.983429 0.910765
0.499855 0.983536 0.911727
0.51838 0.983932 0.914855
0.575372 0.985138 0.924453
0.708217 0.988357 0.946136
0.910338 0.996078 0.980972
1 1 1
