packages/webcomponents/examples/FLog2C_to_CLASSIC-CHROME_VLog.cube
TITLE "Generated by Resolve"
#LUMIXPHOTOSTYLE VLOG
LUT_3D_SIZE 33
0 0 0
0 0 0
0 0 0
0 0 0
0.00642405 0.00106813 0.000183108
0.0474098 0.00187686 0.00231937
0.103227 0.00384527 0.00294499
0.188922 0.00622568 0.00782788
0.310567 0.00939956 0.0180056
0.462303 0.0169223 0.0333715
0.632578 0.034165 0.0664378
0.783169 0.0649271 0.115526
0.89984 0.115312 0.197787
0.964584 0.193133 0.311162
0.962097 0.269474 0.386511
0.958541 0.346883 0.431113
0.95877 0.374456 0.4486
0.95877 0.374456 0.4486
0.95877 0.374456 0.4486
0.95877 0.374456 0.4486
0.95877 0.374456 0.4486
0.95877 0.374456 0.4486
0.95877 0.374456 0.4486
0.95877 0.374456 0.4486
0.958892 0.377874 0.44712
0.957885 0.396826 0.440955
0.957504 0.421302 0.432166
0.957687 0.445579 0.421973
0.957748 0.473915 0.410574
0.957229 0.504189 0.397086
0.955428 0.537118 0.380728
0.954452 0.571191 0.363058
0.952621 0.605692 0.339788
0 0 0
0 0 0
0 0 0
0 0 0
0.010071 0.00141909 7.62951e-05
0.0566262 0.00195315 0.00256352
0.114611 0.00404364 0.0037232
0.199695 0.00662242 0.00848402
0.322271 0.00985733 0.0187228
0.472816 0.0173342 0.0348211
0.640177 0.0352331 0.0682536
0.787686 0.0662089 0.117525
0.902556 0.116686 0.200107
0.964736 0.194705 0.31339
0.962081 0.270512 0.387121
0.958526 0.347646 0.43154
0.95877 0.374456 0.4486
0.95877 0.374456 0.4486
0.95877 0.374456 0.4486
0.95877 0.374456 0.4486
0.95877 0.374456 0.4486
0.95877 0.374456 0.4486
0.95877 0.374456 0.4486
0.95877 0.374456 0.4486
0.958831 0.381186 0.445731
0.958282 0.402075 0.438788
0.957702 0.424887 0.430228
0.957534 0.448676 0.420462
0.957748 0.476555 0.409476
0.957168 0.506462 0.395972
0.955306 0.538933 0.379858
0.954421 0.572473 0.362295
0.95259 0.60679 0.338888
0 0 0
0 0 0
0 0 0
0 0 0
0.0142672 0.00172427 0
0.0659342 0.00210575 0.00225834
0.126757 0.0041352 0.00463874
0.211994 0.00675975 0.00984207
0.333669 0.0104677 0.0195315
0.479957 0.0175326 0.0357214
0.636973 0.0345769 0.0670634
0.776883 0.0622263 0.1131
0.884825 0.108202 0.182879
0.960784 0.172229 0.281773
0.963043 0.241779 0.367086
0.960769 0.299641 0.403738
0.958404 0.360464 0.439536
0.958846 0.374151 0.448585
0.95877 0.374456 0.4486
0.95877 0.374456 0.4486
0.95877 0.374456 0.4486
0.95877 0.374456 0.4486
0.95877 0.374456 0.4486
0.95877 0.374456 0.4486
0.958404 0.386221 0.443763
0.958892 0.407111 0.436561
0.95787 0.428397 0.428351
0.957397 0.451728 0.418967
0.957748 0.479103 0.408408
0.957107 0.508659 0.394873
0.955184 0.540642 0.379034
0.954376 0.573754 0.361517
0.952544 0.607813 0.338064
0 0 0
0 0 0
0 0 0
0 0 0
0.00817884 0.00077821 0.000289921
0.0434272 0.00132753 0.00170901
0.0939345 0.00283818 0.00387579
0.158938 0.00445563 0.00743114
0.254475 0.00782788 0.0137331
0.383062 0.0119173 0.0248722
0.533867 0.0225223 0.0453651
0.687373 0.041413 0.0784314
0.814069 0.0748913 0.131319
0.912764 0.12462 0.211856
0.963317 0.190997 0.308095
0.962921 0.253346 0.378149
0.959182 0.311589 0.409659
0.958984 0.366293 0.443351
0.95877 0.374456 0.4486
0.95877 0.374456 0.4486
0.95877 0.374456 0.4486
0.95877 0.374456 0.4486
0.95877 0.374456 0.4486
0.958816 0.375662 0.448081
0.958007 0.390967 0.441886
0.959472 0.411902 0.43444
0.958022 0.431785 0.426535
0.957259 0.454643 0.417548
0.957748 0.481743 0.407309
0.957061 0.510735 0.393851
0.955062 0.542458 0.378164
0.954345 0.575036 0.360754
0.952514 0.608804 0.337255
0.000869764 0.00463874 0.00047303
0.000854505 0.00508125 0.000411994
0.000610361 0.00433356 0.000350958
0.000488289 0.00173953 0.00030518
0.00221256 0.000579843 0
0.025864 0.00129702 4.57771e-05
0.0606088 0.00263981 0.00227359
0.111757 0.00273136 0.00550851
0.189471 0.0055848 0.00816358
0.297459 0.00877394 0.0160525
0.431327 0.0161288 0.0290227
0.586389 0.026627 0.0547646
0.732235 0.0514534 0.0926986
0.846052 0.0883803 0.156329
0.939315 0.145235 0.242283
0.964599 0.215793 0.340764
0.961807 0.27425 0.389624
0.958846 0.337499 0.425025
0.958755 0.373465 0.447944
0.95877 0.374456 0.4486
0.95877 0.374456 0.4486
0.95877 0.374456 0.4486
0.95877 0.374456 0.4486
0.959014 0.38114 0.445762
0.957824 0.396765 0.439475
0.95906 0.416236 0.432761
0.958114 0.435416 0.425055
0.957122 0.457588 0.416114
0.957748 0.484306 0.406241
0.957 0.512932 0.392752
0.954955 0.544167 0.37734
0.954299 0.576226 0.360052
0.952483 0.609812 0.336461
0.000579843 0.0222324 6.10361e-05
0.000534066 0.0227207 7.62951e-05
0 0.0186618 9.15541e-05
0.000259403 0.0132906 0.000259403
0.000869764 0.00891127 0.000244144
0.0132906 0.00576791 7.62951e-05
0.0429236 0.00476081 0.000640879
0.0824598 0.00358587 0.00296025
0.145113 0.00433356 0.00564584
0.234455 0.00762951 0.0108186
0.357137 0.0108492 0.0211643
0.503731 0.0208591 0.0388952
0.658534 0.035874 0.0710307
0.792233 0.0692912 0.122194
0.898955 0.114748 0.195392
0.963897 0.180377 0.297154
0.963973 0.24947 0.374166
0.960037 0.312596 0.410391
0.958907 0.371191 0.446479
0.95877 0.374456 0.4486
0.95877 0.374456 0.4486
0.958831 0.374807 0.448432
0.958877 0.377584 0.446403
0.958923 0.386954 0.443183
0.957656 0.402213 0.437217
0.958312 0.420249 0.431266
0.958114 0.439612 0.423987
0.957244 0.461021 0.414923
0.957732 0.486854 0.404959
0.956939 0.515023 0.391714
0.954833 0.545846 0.376532
0.954269 0.577508 0.359274
0.952453 0.610803 0.335653
0.000122072 0.0476081 0
0.000137331 0.0482338 0
0.000396735 0.0407416 0.00015259
0 0.0292821 0
9.15541e-05 0.0218509 0.000213626
0.00515755 0.0166171 1.5259e-05
0.029221 0.014313 0.00015259
0.0643778 0.0136873 0.000289921
0.120455 0.0129549 0.00170901
0.199451 0.0138399 0.00654612
0.311009 0.0149081 0.0158236
0.445075 0.0200351 0.0285039
0.601862 0.0285954 0.0574044
0.749447 0.0564126 0.0996872
0.863874 0.0964065 0.165606
0.955489 0.156954 0.260258
0.964096 0.230838 0.36022
0.960281 0.293172 0.397604
0.958679 0.36022 0.439139
0.95877 0.374456 0.4486
0.958755 0.374533 0.448569
0.959228 0.377157 0.447318
0.95877 0.381811 0.444312
0.957961 0.394888 0.439399
0.957626 0.407553 0.435187
0.957595 0.424155 0.429816
0.958099 0.443687 0.422919
0.957382 0.464469 0.413718
0.957702 0.489433 0.403494
0.956786 0.517052 0.390677
0.954742 0.54757 0.375708
0.954238 0.578698 0.358572
0.952407 0.611811 0.334844
0.000320439 0.0810254 0.000137331
0.000320439 0.0815747 0.000137331
0.000793469 0.0726482 0.000396735
0.000335698 0.057496 0.000274662
0.000106813 0.0407416 7.62951e-05
0.00163272 0.0344244 0.000183108
0.0172122 0.0303655 9.15541e-05
0.0532692 0.0280461 0
0.0988937 0.0276493 9.15541e-05
0.171695 0.0273594 0.0012665
0.276799 0.0292363 0.00839246
0.402167 0.0344549 0.0183719
0.559533 0.0434119 0.0429389
0.706401 0.0628519 0.0789349
0.830503 0.0946822 0.13814
0.928908 0.142718 0.226276
0.964034 0.214878 0.330541
0.961654 0.27866 0.387778
0.959686 0.343511 0.428
0.958892 0.377813 0.445838
0.958984 0.380056 0.44622
0.958785 0.384176 0.444556
0.957656 0.391043 0.442695
0.957137 0.4038 0.435401
0.957885 0.414023 0.433127
0.957275 0.429175 0.427832
0.958083 0.448539 0.421668
0.957519 0.468574 0.412284
0.957671 0.492515 0.40174
0.956603 0.519509 0.389395
0.95465 0.549661 0.374716
0.954192 0.580224 0.357595
0.952377 0.613092 0.333791
9.15541e-05 0.131121 0.000244144
0.000106813 0.131228 0.000228885
0.000579843 0.10985 3.0518e-05
0.000183108 0.0879835 0.000198367
0.000793469 0.0721447 0.000396735
0.000579843 0.063508 0.00030518
0.00999466 0.059205 0.00062562
0.0384222 0.053666 3.0518e-05
0.0841382 0.0506752 0
0.148882 0.0502785 7.62951e-05
0.243076 0.0516976 0.000656138
0.364553 0.0560159 0.00891127
0.510201 0.0661326 0.0232242
0.663188 0.0806592 0.0551461
0.79379 0.112093 0.103853
0.895537 0.157122 0.182086
0.963149 0.224018 0.286793
0.961852 0.286595 0.368551
0.959274 0.343053 0.408637
0.957885 0.389654 0.440833
0.95819 0.393668 0.441596
0.957992 0.396735 0.440238
0.95819 0.402808 0.437705
0.958373 0.413169 0.433219
0.95819 0.422217 0.430488
0.958236 0.436896 0.424399
0.958068 0.454734 0.419638
0.957717 0.473884 0.410452
0.957626 0.496559 0.399451
0.956344 0.522713 0.387717
0.954543 0.552422 0.373419
0.954131 0.582483 0.35613
0.952331 0.614633 0.33257
0.000701915 0.204944 0
0.000213626 0.190127 0.000915541
0.000167849 0.161196 0.00047303
0.000457771 0.13489 0.000503548
1.5259e-05 0.112886 1.5259e-05
0.000259403 0.100221 0.000122072
0.00375372 0.0943008 0.000213626
0.022446 0.0878157 1.5259e-05
0.0666972 0.0842145 0
0.127459 0.0803693 0.000167849
0.214145 0.0805524 6.10361e-05
0.330663 0.0838026 0.000411994
0.465446 0.0927596 0.009308
0.618769 0.108431 0.031281
0.754391 0.137972 0.0763256
0.861158 0.181079 0.142351
0.95584 0.240528 0.237201
0.960464 0.306981 0.343297
0.958755 0.350545 0.387045
0.95761 0.405264 0.432364
0.958129 0.410986 0.433921
0.957382 0.413092 0.434394
0.958389 0.416815 0.431708
0.958083 0.424796 0.429343
0.958251 0.433524 0.426749
0.959228 0.446433 0.420218
0.958038 0.462409 0.415915
0.95787 0.480751 0.407721
0.95758 0.501854 0.396429
0.956024 0.52694 0.385534
0.954391 0.556039 0.371695
0.954055 0.585336 0.354284
0.95227 0.616709 0.330907
0.000106813 0.304509 0.00115969
0.000137331 0.267933 0.000701915
0.000442512 0.226963 0.000183108
0.000350958 0.192187 0
0.000259403 0.16817 9.15541e-05
9.15541e-05 0.152926 6.10361e-05
0.0010071 0.144625 3.0518e-05
0.0125582 0.136889 0.000244144
0.050309 0.129976 0.000289921
0.107774 0.124453 0
0.186755 0.122713 0
0.299199 0.124224 0.000213626
0.429236 0.130724 0.00195315
0.574701 0.144411 0.0113375
0.712963 0.170077 0.0467384
0.827451 0.211337 0.10219
0.925444 0.266453 0.186419
0.959365 0.330541 0.30045
0.959182 0.36759 0.362127
0.958343 0.413779 0.407233
0.957931 0.430915 0.425589
0.957305 0.432944 0.427283
0.957458 0.434104 0.426398
0.957656 0.440253 0.424292
0.957946 0.446784 0.42182
0.957931 0.45774 0.415717
0.957992 0.472114 0.411261
0.957809 0.489128 0.403586
0.957137 0.508965 0.39295
0.955596 0.532525 0.38262
0.954192 0.560891 0.369406
0.953964 0.589059 0.351873
0.952193 0.619501 0.328679
0.000411994 0.39263 0.000213626
0.000122072 0.344106 0.000259403
0.000213626 0.300038 0.000488289
0.00047303 0.267475 0.000885023
0.000549325 0.243198 0.00047303
0.000671397 0.227604 0.000839246
0.000167849 0.216449 0.000976577
0.00189212 0.202823 0.000228885
0.0336156 0.195499 0.000259403
0.087541 0.186999 1.5259e-05
0.167666 0.180987 3.0518e-05
0.272175 0.179278 0
0.392508 0.181811 0.000213626
0.534661 0.193729 0.00140383
0.67364 0.218158 0.0195315
0.792126 0.252628 0.065095
0.892714 0.299992 0.138231
0.959243 0.356832 0.241321
0.959319 0.397665 0.329641
0.958801 0.429236 0.379065
0.957839 0.458335 0.416938
0.957916 0.4551 0.41828
0.957671 0.45597 0.416968
0.958389 0.459861 0.417792
0.957366 0.464378 0.414725
0.957229 0.472557 0.40972
0.957946 0.485023 0.405905
0.95761 0.49987 0.398383
0.95584 0.518685 0.389288
0.955291 0.540078 0.379019
0.953948 0.567086 0.366476
0.953826 0.593973 0.348684
0.952087 0.623255 0.325689
0.00209049 0.472404 0.000564584
0.000183108 0.422507 0.00047303
6.10361e-05 0.380972 0.000366217
0.000137331 0.351843 3.0518e-05
0.000442512 0.328664 0.00047303
0.000671397 0.31339 0.000335698
0.000259403 0.301671 6.10361e-05
0.00134279 0.289708 6.10361e-05
0.01944 0.279362 0.000747692
0.06804 0.268894 1.5259e-05
0.142611 0.260471 3.0518e-05
0.243732 0.25478 0
0.36492 0.254978 0.000503548
0.500694 0.262318 0.00169375
0.636957 0.28043 0.00856031
0.757488 0.304936 0.0303502
0.860273 0.344167 0.0898604
0.948211 0.394095 0.183124
0.957671 0.441382 0.290883
0.958404 0.457633 0.343465
0.957137 0.486229 0.398779
0.957626 0.484596 0.405447
0.958419 0.483162 0.407858
0.957656 0.482551 0.407462
0.957549 0.486793 0.404578
0.957244 0.492332 0.402029
0.957794 0.501183 0.397742
0.956329 0.514641 0.392218
0.954421 0.531075 0.384314
0.955322 0.550637 0.374487
0.953796 0.57496 0.362036
0.953658 0.600443 0.344488
0.951934 0.628061 0.321859
0.00393683 0.535515 3.0518e-05
0.00276188 0.498527 0.000213626
0.000732433 0.468833 0.000213626
0.000213626 0.444999 0.000366217
0.00030518 0.425956 0.000274662
0.000198367 0.411429 0.000488289
0.000442512 0.400626 0.000320439
0.000610361 0.389731 0.000122072
0.00869764 0.377844 0.00015259
0.0474403 0.36492 3.0518e-05
0.118776 0.352911 0.000183108
0.218036 0.345129 9.15541e-05
0.335912 0.341192 0.000259403
0.469581 0.342702 0.00570687
0.604578 0.352041 0.0130922
0.725582 0.368414 0.0202335
0.828702 0.39736 0.0458381
0.919844 0.438331 0.122759
0.956252 0.483467 0.225879
0.956695 0.49633 0.302632
0.957534 0.515984 0.361212
0.955581 0.519081 0.390188
0.956634 0.515129 0.391302
0.957961 0.511543 0.391669
0.956161 0.512078 0.393454
0.956695 0.516274 0.391516
0.956863 0.521462 0.387213
0.95552 0.532464 0.384161
0.954528 0.546777 0.375677
0.955154 0.563775 0.368475
0.953826 0.584772 0.35555
0.953262 0.608652 0.338521
0.951751 0.634409 0.316793
0.0093843 0.600488 0.00015259
0.00720226 0.576471 0.00047303
0.00538643 0.556008 0.000350958
0.00466926 0.538567 0.000167849
0.0040589 0.52433 0.000228885
0.00370794 0.512566 9.15541e-05
0.00343328 0.503243 7.62951e-05
0.00187686 0.493248 0.000183108
0.00378424 0.482033 0.000137331
0.0316625 0.469123 0.000167849
0.0970626 0.456977 0.000167849
0.194965 0.443534 0.00030518
0.311681 0.436454 0.00300603
0.440223 0.431891 0.00814832
0.575219 0.434501 0.0151827
0.695857 0.443641 0.0244755
0.800519 0.463004 0.0336156
0.891691 0.494682 0.0648051
0.956497 0.530251 0.156817
0.956436 0.549493 0.251759
0.954864 0.554528 0.316091
0.954513 0.556924 0.369619
0.95433 0.551492 0.374105
0.955581 0.546151 0.376242
0.955825 0.542153 0.377783
0.95523 0.54432 0.378759
0.955245 0.546746 0.375891
0.954452 0.553994 0.372869
0.953552 0.565423 0.365621
0.953872 0.579232 0.359197
0.953735 0.597345 0.346975
0.952575 0.619013 0.330327
0.95172 0.64268 0.309377
0.013611 0.666407 0.00421149
0.0128939 0.651118 0.00344854
0.0119326 0.638041 0.00268559
0.0107576 0.626688 0.00155642
0.00968948 0.616892 9.15541e-05
0.00962844 0.608438 0.000427253
0.00941482 0.600793 0.000656138
0.00846876 0.593408 0.000244144
0.00859083 0.583764 0.000381476
0.0224918 0.572213 0.000427253
0.0762493 0.560571 0.00125124
0.171237 0.548043 0.00354009
0.286778 0.536538 0.00860609
0.414221 0.528466 0.0140536
0.547082 0.525414 0.023621
0.669947 0.528695 0.0320287
0.776516 0.539239 0.0396735
0.86688 0.558679 0.0494545
0.942321 0.583459 0.0898756
0.951995 0.610178 0.193332
0.953201 0.602792 0.258762
0.953628 0.599847 0.328954
0.953887 0.591043 0.351339
0.954269 0.583764 0.354086
0.95436 0.578622 0.35877
0.953017 0.576837 0.360693
0.953399 0.576211 0.360723
0.953445 0.579904 0.357275
0.952758 0.587884 0.352132
0.953582 0.598733 0.345159
0.953079 0.614359 0.334005
0.951995 0.631998 0.319753
0.951812 0.65333 0.299245
0.019852 0.728511 0.00914015
0.0178378 0.719921 0.00790417
0.0178683 0.711864 0.00695811
0.0178988 0.70489 0.00622568
0.0171054 0.699321 0.00598154
0.0163882 0.693797 0.00569162
0.0158846 0.688167 0.00520333
0.015259 0.681712 0.00460822
0.0144198 0.67509 0.00355535
0.0203098 0.6663 0.00361639
0.0565194 0.655787 0.00546273
0.142367 0.644633 0.00909438
0.258106 0.634272 0.0147402
0.389624 0.625818 0.0217288
0.520088 0.618784 0.0298161
0.64686 0.617075 0.0383154
0.753536 0.619745 0.0486915
0.843549 0.629892 0.0594949
0.921508 0.643046 0.07393
0.95082 0.662043 0.119203
0.951614 0.657038 0.190066
0.953002 0.646799 0.265095
0.952712 0.634913 0.31664
0.952712 0.626383 0.325872
0.952193 0.61796 0.330205
0.952911 0.612985 0.334905
0.953948 0.610864 0.337667
0.952972 0.610559 0.337209
0.953079 0.614893 0.332357
0.953307 0.622385 0.327901
0.952682 0.633936 0.317586
0.952193 0.647883 0.305852
0.951873 0.666438 0.285267
0.0257572 0.785428 0.0146029
0.0252079 0.780133 0.0144961
0.024445 0.775937 0.0140993
0.0237583 0.772168 0.0137636
0.023621 0.767865 0.0128786
0.0235447 0.763882 0.0119936
0.02327 0.759991 0.0111696
0.0223392 0.755764 0.0103456
0.0214084 0.750637 0.00946059
0.0233005 0.744396 0.0102388
0.0494392 0.736614 0.0106966
0.118029 0.727718 0.0133364
0.231601 0.718532 0.0202029
0.360525 0.709804 0.0280613
0.494362 0.701946 0.0362249
0.622477 0.697963 0.0466316
0.731472 0.695537 0.0571603
0.820035 0.696498 0.071931
0.897536 0.703655 0.0875868
0.950103 0.714961 0.0997177
0.950561 0.712993 0.123293
0.95079 0.699199 0.187152
0.951995 0.679988 0.26566
0.951507 0.669078 0.282628
0.951843 0.660304 0.292988
0.952102 0.651789 0.300328
0.952087 0.646967 0.305425
0.952209 0.644358 0.309285
0.952621 0.645502 0.30695
0.952621 0.649027 0.305043
0.952407 0.656413 0.295125
0.952132 0.667033 0.284215
0.951843 0.681956 0.264591
0.0314641 0.836561 0.0191806
0.0308232 0.833371 0.0186923
0.030045 0.83006 0.0181888
0.0293126 0.826932 0.0177157
0.0288853 0.824125 0.0173953
0.0286564 0.821317 0.0171511
0.0284428 0.818586 0.0169223
0.0280919 0.815671 0.0164797
0.0270237 0.81239 0.0150607
0.0261997 0.808392 0.0133669
0.0391394 0.801968 0.0148013
0.0933547 0.794736 0.0189975
0.198291 0.787015 0.0257725
0.329488 0.780209 0.0338598
0.464561 0.773602 0.0426337
0.596674 0.76669 0.0578775
0.706966 0.762051 0.0735332
0.798932 0.760861 0.0871443
0.876371 0.761486 0.103517
0.941314 0.766812 0.115938
0.95201 0.768612 0.118212
0.950332 0.751598 0.121523
0.95082 0.727962 0.183047
0.951339 0.711498 0.227497
0.950942 0.702571 0.239902
0.95169 0.692561 0.251438
0.951095 0.686656 0.260288
0.952529 0.681361 0.266224
0.952224 0.678798 0.269368
0.952285 0.679011 0.269139
0.952132 0.682719 0.264363
0.951934 0.689784 0.25626
0.951125 0.701213 0.241154
0.0364996 0.881285 0.0234073
0.0363928 0.878752 0.023621
0.0363012 0.87631 0.0238193
0.0362249 0.874052 0.0240177
0.0361334 0.87187 0.0241398
0.0360113 0.870146 0.0238193
0.035874 0.868482 0.0235142
0.0357519 0.866606 0.0231632
0.0356909 0.864073 0.0227054
0.0364385 0.861067 0.0221561
0.0380407 0.857389 0.0215305
0.0830243 0.852308 0.0242161
0.166812 0.846098 0.0294347
0.29247 0.839719 0.0384222
0.431937 0.833005 0.0511482
0.567193 0.826276 0.06804
0.685008 0.820829 0.0883345
0.776913 0.816892 0.104067
0.857786 0.815641 0.119234
0.926772 0.818051 0.13257
0.952682 0.81883 0.137697
0.951583 0.803784 0.133104
0.951446 0.778042 0.126894
0.951553 0.754955 0.160754
0.950591 0.744457 0.178073
0.950347 0.735088 0.192706
0.951202 0.725322 0.206592
0.950164 0.719493 0.216098
0.951019 0.714443 0.223865
0.950591 0.712276 0.226993
0.95021 0.712139 0.227146
0.951095 0.715877 0.221302
0.950774 0.723461 0.211383
0.0430915 0.923079 0.029099
0.0428016 0.921447 0.0287327
0.0425422 0.91986 0.028397
0.0422827 0.918334 0.0280766
0.0420233 0.916838 0.0277562
0.0419165 0.915648 0.0277256
0.041886 0.914458 0.027863
0.0418555 0.913069 0.0280308
0.0418097 0.911208 0.0282597
0.0423438 0.90901 0.028397
0.0455024 0.906386 0.027451
0.0512551 0.903181 0.0264744
0.141085 0.897124 0.0333104
0.25948 0.89131 0.0435035
0.399435 0.884916 0.0594186
0.536416 0.87805 0.0799115
0.659525 0.872618 0.0979171
0.757702 0.86865 0.117769
0.839948 0.866117 0.131319
0.910048 0.865751 0.147875
0.95462 0.865843 0.157305
0.954864 0.850843 0.149569
0.953201 0.826413 0.140078
0.951995 0.799603 0.1308
0.951232 0.785641 0.127657
0.95172 0.77528 0.135027
0.951217 0.766796 0.141787
0.9505 0.758282 0.154299
0.951095 0.751827 0.164782
0.950408 0.746777 0.17406
0.950134 0.74461 0.176577
0.951629 0.744762 0.176898
0.950545 0.748898 0.170687
0.0489967 0.961517 0.03505
0.0489662 0.960586 0.0349737
0.0489204 0.959716 0.0348974
0.0488746 0.958846 0.0348363
0.0488441 0.957992 0.0347601
0.0488441 0.957244 0.0347143
0.0488289 0.956588 0.0345006
0.0487373 0.955795 0.0342107
0.0487221 0.954742 0.0338598
0.0486458 0.953384 0.033402
0.0526284 0.951568 0.0332036
0.0806134 0.948272 0.035172
0.117983 0.944213 0.0379492
0.234012 0.938628 0.0492714
0.368078 0.931685 0.0655985
0.507301 0.924758 0.0867933
0.634119 0.919799 0.110246
0.737606 0.916548 0.128679
0.822248 0.912291 0.146746
0.891478 0.910094 0.161013
0.948257 0.905333 0.172274
0.956573 0.893568 0.170275
0.955535 0.870771 0.15993
0.953384 0.844999 0.147234
0.953002 0.825925 0.139254
0.95227 0.816129 0.137194
0.952468 0.805859 0.134295
0.951476 0.797177 0.129519
0.951308 0.788922 0.127199
0.951705 0.782223 0.128283
0.951019 0.778119 0.131716
0.951217 0.775769 0.132311
0.951095 0.776318 0.129366
0.0478676 0.967224 0.0339208
0.0478676 0.967224 0.0339208
0.0478676 0.967224 0.0339208
0.0478676 0.967224 0.0339208
0.0478676 0.967224 0.0339208
0.0478676 0.967224 0.0339208
0.0478676 0.967224 0.0339208
0.0486 0.967193 0.0339666
0.0496986 0.967147 0.0340276
0.050782 0.967102 0.0340887
0.0518807 0.967056 0.034165
0.0641337 0.96701 0.0351568
0.123262 0.966949 0.0402228
0.199802 0.966735 0.0473335
0.330953 0.962905 0.0686656
0.46714 0.958907 0.0921645
0.596857 0.955642 0.115465
0.70753 0.952117 0.136706
0.795056 0.948135 0.152392
0.867216 0.943191 0.170047
0.929656 0.938643 0.180377
0.959976 0.929381 0.186191
0.958694 0.911604 0.175128
0.956008 0.886763 0.166125
0.955123 0.864637 0.155886
0.954467 0.853407 0.151537
0.95346 0.844083 0.147387
0.95314 0.83534 0.144503
0.953063 0.826185 0.140948
0.952712 0.819257 0.137148
0.95259 0.812451 0.135653
0.951995 0.807874 0.133471
0.951659 0.806043 0.13228
0.0482948 0.967224 0.0339513
0.0482948 0.967224 0.0339513
0.0483864 0.967224 0.0339513
0.0484627 0.967224 0.0339666
0.0484627 0.967224 0.0339666
0.0485542 0.967224 0.0339666
0.0486305 0.967224 0.0339818
0.0510414 0.967224 0.0341192
0.0604562 0.967208 0.034699
0.0724956 0.967178 0.0354314
0.0886549 0.967147 0.0364385
0.10959 0.967102 0.0377203
0.147646 0.966613 0.0417487
0.229618 0.96463 0.0541238
0.332357 0.962371 0.0698405
0.441398 0.962097 0.0885328
0.556283 0.962127 0.109697
0.665415 0.963424 0.132616
0.759121 0.965621 0.155108
0.836011 0.967773 0.169635
0.901534 0.965011 0.18851
0.953521 0.960281 0.196735
0.962158 0.945907 0.192126
0.960113 0.926085 0.183307
0.957778 0.900114 0.171496
0.956344 0.888731 0.166873
0.956649 0.879255 0.16202
0.955322 0.87039 0.158267
0.955062 0.862104 0.15494
0.954742 0.854047 0.151705
0.953735 0.847257 0.149981
0.953216 0.841062 0.147509
0.953689 0.837507 0.14464
0.0601053 0.967529 0.0358892
0.0612345 0.967559 0.0360723
0.0623484 0.96759 0.0362554
0.0634775 0.96762 0.0364385
0.0645914 0.967636 0.0366217
0.0656443 0.967666 0.0367895
0.0667582 0.967697 0.0369726
0.0681315 0.967727 0.0372015
0.0778973 0.96762 0.0382086
0.0988022 0.9673 0.040238
0.125963 0.966888 0.0428931
0.161532 0.966339 0.0464027
0.207691 0.965652 0.0508583
0.267659 0.964813 0.0581521
0.344518 0.963928 0.0709087
0.437186 0.962814 0.0866407
0.534554 0.961257 0.105547
0.632975 0.961654 0.126513
0.723674 0.964172 0.145846
0.800473 0.967056 0.16112
0.867948 0.969924 0.1785
0.928756 0.972213 0.196857
0.961166 0.971695 0.210254
0.963836 0.959045 0.198047
0.960403 0.937057 0.188769
0.958602 0.921843 0.180438
0.958572 0.913008 0.176654
0.957641 0.904021 0.172305
0.957321 0.895262 0.170275
0.956298 0.887251 0.167346
0.955535 0.879789 0.162814
0.955749 0.873075 0.159411
0.955108 0.867689 0.157443
0.124331 0.966918 0.0403296
0.129671 0.966903 0.0407721
0.134539 0.966888 0.0411841
0.139391 0.966857 0.0415961
0.144305 0.966842 0.0420081
0.149157 0.966827 0.0424048
0.154009 0.966812 0.0428168
0.159899 0.966781 0.0433051
0.167712 0.966751 0.0439765
0.182773 0.9664 0.0462501
0.203647 0.96585 0.0496071
0.232364 0.965118 0.0542
0.26891 0.964187 0.060029
0.316976 0.962951 0.0677043
0.374685 0.961944 0.0769818
0.442969 0.961624 0.0880293
0.524437 0.961471 0.101778
0.607263 0.962432 0.118563
0.689891 0.963287 0.13727
0.766598 0.965789 0.154467
0.834119 0.967941 0.170657
0.895735 0.970306 0.184771
0.946761 0.973312 0.201053
0.964309 0.973037 0.212192
0.963684 0.967224 0.206241
0.962371 0.950561 0.194034
0.961761 0.942992 0.190341
0.96051 0.934905 0.187381
0.959899 0.926955 0.18291
0.959503 0.918776 0.178744
0.958221 0.911696 0.176837
0.957687 0.904616 0.172656
0.957595 0.897627 0.170275
0.20029 0.965408 0.0515145
0.205402 0.965331 0.0521401
0.210391 0.965255 0.0527657
0.215457 0.965179 0.0533913
0.220981 0.965087 0.0540932
0.225452 0.965026 0.0546273
0.230976 0.964935 0.0553292
0.237552 0.964828 0.0561532
0.245853 0.964691 0.0572061
0.257267 0.964508 0.058732
0.27274 0.964248 0.061326
0.292302 0.963928 0.064622
0.319402 0.9635 0.0690318
0.353277 0.962982 0.0745708
0.399756 0.96228 0.0821393
