packages/webcomponents/examples/FLog2C_to_ACROS_VLog.cube
TITLE "Generated by Resolve"
#LUMIXPHOTOSTYLE VLOG
LUT_3D_SIZE 33
0 0 0
0 0 0
0 0 0
0 0 0
0.00373846 0.00373846 0.00373846
0.0158389 0.0158389 0.0158389
0.0316472 0.0316472 0.0316472
0.0517281 0.0517281 0.0517281
0.0861982 0.0861982 0.0861982
0.128267 0.128267 0.128267
0.179263 0.179263 0.179263
0.24033 0.24033 0.24033
0.312154 0.312154 0.312154
0.398825 0.398825 0.398825
0.473411 0.473411 0.473411
0.537316 0.537316 0.537316
0.558587 0.558587 0.558587
0.558587 0.558587 0.558587
0.558587 0.558587 0.558587
0.558587 0.558587 0.558587
0.558587 0.558587 0.558587
0.558587 0.558587 0.558587
0.558587 0.558587 0.558587
0.558587 0.558587 0.558587
0.56112 0.56112 0.56112
0.573449 0.573449 0.573449
0.58912 0.58912 0.58912
0.605249 0.605249 0.605249
0.621271 0.621271 0.621271
0.638178 0.638178 0.638178
0.656092 0.656092 0.656092
0.673777 0.673777 0.673777
0.691737 0.691737 0.691737
0 0 0
0 0 0
0 0 0
0 0 0
0.00543221 0.00543221 0.00543221
0.0183719 0.0183719 0.0183719
0.0340734 0.0340734 0.0340734
0.0546273 0.0546273 0.0546273
0.0897231 0.0897231 0.0897231
0.130983 0.130983 0.130983
0.181827 0.181827 0.181827
0.242481 0.242481 0.242481
0.314076 0.314076 0.314076
0.400549 0.400549 0.400549
0.474449 0.474449 0.474449
0.537911 0.537911 0.537911
0.558587 0.558587 0.558587
0.558587 0.558587 0.558587
0.558587 0.558587 0.558587
0.558587 0.558587 0.558587
0.558587 0.558587 0.558587
0.558587 0.558587 0.558587
0.558587 0.558587 0.558587
0.558587 0.558587 0.558587
0.563485 0.563485 0.563485
0.576745 0.576745 0.576745
0.591775 0.591775 0.591775
0.607217 0.607217 0.607217
0.622705 0.622705 0.622705
0.639368 0.639368 0.639368
0.657008 0.657008 0.657008
0.674434 0.674434 0.674434
0.692287 0.692287 0.692287
0 0 0
0 0 0
0 0 0
0 0 0
0.00720226 0.00720226 0.00720226
0.02121 0.02121 0.02121
0.0365148 0.0365148 0.0365148
0.0579232 0.0579232 0.0579232
0.0930648 0.0930648 0.0930648
0.132784 0.132784 0.132784
0.180911 0.180911 0.180911
0.236805 0.236805 0.236805
0.301457 0.301457 0.301457
0.377295 0.377295 0.377295
0.447288 0.447288 0.447288
0.500923 0.500923 0.500923
0.548409 0.548409 0.548409
0.558511 0.558511 0.558511
0.558587 0.558587 0.558587
0.558587 0.558587 0.558587
0.558587 0.558587 0.558587
0.558587 0.558587 0.558587
0.558587 0.558587 0.558587
0.558587 0.558587 0.558587
0.566949 0.566949 0.566949
0.57995 0.57995 0.57995
0.594354 0.594354 0.594354
0.60914 0.60914 0.60914
0.624079 0.624079 0.624079
0.640513 0.640513 0.640513
0.657893 0.657893 0.657893
0.67509 0.67509 0.67509
0.692775 0.692775 0.692775
0 0 0
0 0 0
0 0 0
0 0 0
0.00402838 0.00402838 0.00402838
0.0149844 0.0149844 0.0149844
0.0279545 0.0279545 0.0279545
0.0445411 0.0445411 0.0445411
0.0714733 0.0714733 0.0714733
0.105715 0.105715 0.105715
0.148104 0.148104 0.148104
0.199237 0.199237 0.199237
0.256626 0.256626 0.256626
0.322789 0.322789 0.322789
0.397101 0.397101 0.397101
0.458991 0.458991 0.458991
0.50927 0.50927 0.50927
0.552483 0.552483 0.552483
0.558587 0.558587 0.558587
0.558587 0.558587 0.558587
0.558587 0.558587 0.558587
0.558587 0.558587 0.558587
0.558587 0.558587 0.558587
0.559594 0.559594 0.559594
0.570214 0.570214 0.570214
0.583001 0.583001 0.583001
0.596857 0.596857 0.596857
0.610986 0.610986 0.610986
0.625498 0.625498 0.625498
0.641596 0.641596 0.641596
0.658824 0.658824 0.658824
0.675746 0.675746 0.675746
0.693278 0.693278 0.693278
0.00404364 0.00404364 0.00404364
0.00440986 0.00440986 0.00440986
0.00437934 0.00437934 0.00437934
0.00170901 0.00170901 0.00170901
0.00112917 0.00112917 0.00112917
0.0103914 0.0103914 0.0103914
0.0208133 0.0208133 0.0208133
0.0332952 0.0332952 0.0332952
0.0531777 0.0531777 0.0531777
0.0822003 0.0822003 0.0822003
0.120394 0.120394 0.120394
0.163027 0.163027 0.163027
0.216953 0.216953 0.216953
0.276326 0.276326 0.276326
0.345876 0.345876 0.345876
0.421485 0.421485 0.421485
0.47863 0.47863 0.47863
0.53164 0.53164 0.53164
0.557794 0.557794 0.557794
0.558587 0.558587 0.558587
0.558587 0.558587 0.558587
0.558587 0.558587 0.558587
0.558587 0.558587 0.558587
0.564111 0.564111 0.564111
0.574044 0.574044 0.574044
0.585931 0.585931 0.585931
0.599237 0.599237 0.599237
0.612833 0.612833 0.612833
0.626886 0.626886 0.626886
0.642741 0.642741 0.642741
0.659693 0.659693 0.659693
0.676356 0.676356 0.676356
0.693767 0.693767 0.693767
0.0212406 0.0212406 0.0212406
0.021561 0.021561 0.021561
0.0191501 0.0191501 0.0191501
0.0141299 0.0141299 0.0141299
0.00972 0.00972 0.00972
0.0133669 0.0133669 0.0133669
0.0188296 0.0188296 0.0188296
0.0271916 0.0271916 0.0271916
0.0413825 0.0413825 0.0413825
0.0654765 0.0654765 0.0654765
0.0987106 0.0987106 0.0987106
0.139727 0.139727 0.139727
0.187915 0.187915 0.187915
0.245823 0.245823 0.245823
0.310704 0.310704 0.310704
0.387884 0.387884 0.387884
0.455543 0.455543 0.455543
0.510643 0.510643 0.510643
0.556146 0.556146 0.556146
0.558587 0.558587 0.558587
0.558587 0.558587 0.558587
0.558816 0.558816 0.558816
0.561288 0.561288 0.561288
0.568292 0.568292 0.568292
0.577646 0.577646 0.577646
0.588708 0.588708 0.588708
0.601587 0.601587 0.601587
0.614755 0.614755 0.614755
0.62829 0.62829 0.62829
0.643854 0.643854 0.643854
0.660548 0.660548 0.660548
0.676997 0.676997 0.676997
0.69427 0.69427 0.69427
0.0390631 0.0390631 0.0390631
0.0393683 0.0393683 0.0393683
0.0349737 0.0349737 0.0349737
0.0272679 0.0272679 0.0272679
0.0207065 0.0207065 0.0207065
0.0222477 0.0222477 0.0222477
0.0265354 0.0265354 0.0265354
0.0343175 0.0343175 0.0343175
0.0443885 0.0443885 0.0443885
0.0637369 0.0637369 0.0637369
0.0917983 0.0917983 0.0917983
0.126665 0.126665 0.126665
0.168948 0.168948 0.168948
0.22501 0.22501 0.22501
0.286992 0.286992 0.286992
0.36083 0.36083 0.36083
0.436835 0.436835 0.436835
0.493996 0.493996 0.493996
0.547997 0.547997 0.547997
0.558587 0.558587 0.558587
0.558663 0.558663 0.558663
0.560235 0.560235 0.560235
0.564599 0.564599 0.564599
0.572229 0.572229 0.572229
0.581216 0.581216 0.581216
0.591424 0.591424 0.591424
0.603876 0.603876 0.603876
0.616678 0.616678 0.616678
0.629755 0.629755 0.629755
0.645045 0.645045 0.645045
0.661448 0.661448 0.661448
0.677607 0.677607 0.677607
0.694759 0.694759 0.694759
0.0583658 0.0583658 0.0583658
0.0586557 0.0586557 0.0586557
0.0527962 0.0527962 0.0527962
0.0433814 0.0433814 0.0433814
0.0349737 0.0349737 0.0349737
0.034638 0.034638 0.034638
0.037644 0.037644 0.037644
0.0438239 0.0438239 0.0438239
0.0519112 0.0519112 0.0519112
0.068513 0.068513 0.068513
0.0934768 0.0934768 0.0934768
0.127367 0.127367 0.127367
0.167071 0.167071 0.167071
0.214908 0.214908 0.214908
0.27187 0.27187 0.27187
0.339818 0.339818 0.339818
0.419303 0.419303 0.419303
0.480552 0.480552 0.480552
0.535195 0.535195 0.535195
0.561456 0.561456 0.561456
0.562249 0.562249 0.562249
0.566033 0.566033 0.566033
0.570718 0.570718 0.570718
0.576898 0.576898 0.576898
0.585672 0.585672 0.585672
0.594675 0.594675 0.594675
0.606607 0.606607 0.606607
0.618967 0.618967 0.618967
0.631495 0.631495 0.631495
0.646479 0.646479 0.646479
0.662562 0.662562 0.662562
0.678386 0.678386 0.678386
0.695399 0.695399 0.695399
0.0867933 0.0867933 0.0867933
0.0867781 0.0867781 0.0867781
0.0741588 0.0741588 0.0741588
0.0624094 0.0624094 0.0624094
0.0526436 0.0526436 0.0526436
0.0501869 0.0501869 0.0501869
0.0534829 0.0534829 0.0534829
0.0576028 0.0576028 0.0576028
0.0651865 0.0651865 0.0651865
0.0779736 0.0779736 0.0779736
0.0996414 0.0996414 0.0996414
0.131014 0.131014 0.131014
0.168505 0.168505 0.168505
0.21294 0.21294 0.21294
0.26714 0.26714 0.26714
0.333883 0.333883 0.333883
0.412894 0.412894 0.412894
0.478553 0.478553 0.478553
0.531929 0.531929 0.531929
0.569726 0.569726 0.569726
0.571023 0.571023 0.571023
0.574411 0.574411 0.574411
0.578225 0.578225 0.578225
0.583764 0.583764 0.583764
0.591196 0.591196 0.591196
0.599161 0.599161 0.599161
0.610132 0.610132 0.610132
0.621927 0.621927 0.621927
0.633783 0.633783 0.633783
0.648356 0.648356 0.648356
0.664012 0.664012 0.664012
0.679515 0.679515 0.679515
0.696147 0.696147 0.696147
0.13315 0.13315 0.13315
0.124269 0.124269 0.124269
0.106218 0.106218 0.106218
0.0890974 0.0890974 0.0890974
0.0759136 0.0759136 0.0759136
0.0707561 0.0707561 0.0707561
0.0722972 0.0722972 0.0722972
0.0747997 0.0747997 0.0747997
0.0812543 0.0812543 0.0812543
0.0902266 0.0902266 0.0902266
0.110292 0.110292 0.110292
0.137789 0.137789 0.137789
0.172152 0.172152 0.172152
0.215625 0.215625 0.215625
0.268727 0.268727 0.268727
0.333791 0.333791 0.333791
0.411215 0.411215 0.411215
0.480919 0.480919 0.480919
0.531029 0.531029 0.531029
0.578973 0.578973 0.578973
0.583322 0.583322 0.583322
0.584161 0.584161 0.584161
0.587121 0.587121 0.587121
0.591577 0.591577 0.591577
0.597467 0.597467 0.597467
0.60473 0.60473 0.60473
0.614603 0.614603 0.614603
0.625711 0.625711 0.625711
0.636805 0.636805 0.636805
0.650843 0.650843 0.650843
0.665934 0.665934 0.665934
0.680964 0.680964 0.680964
0.697154 0.697154 0.697154
0.188418 0.188418 0.188418
0.16669 0.16669 0.16669
0.144289 0.144289 0.144289
0.12491 0.12491 0.12491
0.111009 0.111009 0.111009
0.103258 0.103258 0.103258
0.102083 0.102083 0.102083
0.103395 0.103395 0.103395
0.107408 0.107408 0.107408
0.114839 0.114839 0.114839
0.12987 0.12987 0.12987
0.153765 0.153765 0.153765
0.18613 0.18613 0.18613
0.22565 0.22565 0.22565
0.275441 0.275441 0.275441
0.338247 0.338247 0.338247
0.412055 0.412055 0.412055
0.486717 0.486717 0.486717
0.534157 0.534157 0.534157
0.580011 0.580011 0.580011
0.595697 0.595697 0.595697
0.596628 0.596628 0.596628
0.597986 0.597986 0.597986
0.600961 0.600961 0.600961
0.605951 0.605951 0.605951
0.611688 0.611688 0.611688
0.620264 0.620264 0.620264
0.630182 0.630182 0.630182
0.640742 0.640742 0.640742
0.654108 0.654108 0.654108
0.668498 0.668498 0.668498
0.682841 0.682841 0.682841
0.698512 0.698512 0.698512
0.234531 0.234531 0.234531
0.209628 0.209628 0.209628
0.185962 0.185962 0.185962
0.167376 0.167376 0.167376
0.153597 0.153597 0.153597
0.145495 0.145495 0.145495
0.143618 0.143618 0.143618
0.143694 0.143694 0.143694
0.145373 0.145373 0.145373
0.150774 0.150774 0.150774
0.163027 0.163027 0.163027
0.18468 0.18468 0.18468
0.211978 0.211978 0.211978
0.246387 0.246387 0.246387
0.291478 0.291478 0.291478
0.349737 0.349737 0.349737
0.417823 0.417823 0.417823
0.489647 0.489647 0.489647
0.541314 0.541314 0.541314
0.582559 0.582559 0.582559
0.611826 0.611826 0.611826
0.611063 0.611063 0.611063
0.610986 0.610986 0.610986
0.612894 0.612894 0.612894
0.616403 0.616403 0.616403
0.620539 0.620539 0.620539
0.627848 0.627848 0.627848
0.635966 0.635966 0.635966
0.645991 0.645991 0.645991
0.658259 0.658259 0.658259
0.671778 0.671778 0.671778
0.685328 0.685328 0.685328
0.700343 0.700343 0.700343
0.276188 0.276188 0.276188
0.249287 0.249287 0.249287
0.228748 0.228748 0.228748
0.213611 0.213611 0.213611
0.201617 0.201617 0.201617
0.195544 0.195544 0.195544
0.193912 0.193912 0.193912
0.19321 0.19321 0.19321
0.193469 0.193469 0.193469
0.19736 0.19736 0.19736
0.208774 0.208774 0.208774
0.224903 0.224903 0.224903
0.249134 0.249134 0.249134
0.279896 0.279896 0.279896
0.318334 0.318334 0.318334
0.36762 0.36762 0.36762
0.42916 0.42916 0.42916
0.496849 0.496849 0.496849
0.554131 0.554131 0.554131
0.590509 0.590509 0.590509
0.625635 0.625635 0.625635
0.627741 0.627741 0.627741
0.62649 0.62649 0.62649
0.626474 0.626474 0.626474
0.628412 0.628412 0.628412
0.631434 0.631434 0.631434
0.637079 0.637079 0.637079
0.644083 0.644083 0.644083
0.652644 0.652644 0.652644
0.663615 0.663615 0.663615
0.675853 0.675853 0.675853
0.688594 0.688594 0.688594
0.702693 0.702693 0.702693
0.310903 0.310903 0.310903
0.289616 0.289616 0.289616
0.273945 0.273945 0.273945
0.261341 0.261341 0.261341
0.250706 0.250706 0.250706
0.24802 0.24802 0.24802
0.247242 0.247242 0.247242
0.246479 0.246479 0.246479
0.247028 0.247028 0.247028
0.250797 0.250797 0.250797
0.25861 0.25861 0.25861
0.27335 0.27335 0.27335
0.293721 0.293721 0.293721
0.319844 0.319844 0.319844
0.353094 0.353094 0.353094
0.394903 0.394903 0.394903
0.447135 0.447135 0.447135
0.507866 0.507866 0.507866
0.566033 0.566033 0.566033
0.601709 0.601709 0.601709
0.635233 0.635233 0.635233
0.645914 0.645914 0.645914
0.643763 0.643763 0.643763
0.6421 0.6421 0.6421
0.64271 0.64271 0.64271
0.644022 0.644022 0.644022
0.64799 0.64799 0.64799
0.653635 0.653635 0.653635
0.660914 0.660914 0.660914
0.670329 0.670329 0.670329
0.680797 0.680797 0.680797
0.69279 0.69279 0.69279
0.705776 0.705776 0.705776
0.350118 0.350118 0.350118
0.33492 0.33492 0.33492
0.323033 0.323033 0.323033
0.31281 0.31281 0.31281
0.307134 0.307134 0.307134
0.305364 0.305364 0.305364
0.304295 0.304295 0.304295
0.303548 0.303548 0.303548
0.304097 0.304097 0.304097
0.307713 0.307713 0.307713
0.315587 0.315587 0.315587
0.327825 0.327825 0.327825
0.344121 0.344121 0.344121
0.365545 0.365545 0.365545
0.394369 0.394369 0.394369
0.430076 0.430076 0.430076
0.473793 0.473793 0.473793
0.524712 0.524712 0.524712
0.580011 0.580011 0.580011
0.618143 0.618143 0.618143
0.647181 0.647181 0.647181
0.667063 0.667063 0.667063
0.663447 0.663447 0.663447
0.660914 0.660914 0.660914
0.659663 0.659663 0.659663
0.659129 0.659129 0.659129
0.661128 0.661128 0.661128
0.66508 0.66508 0.66508
0.670832 0.670832 0.670832
0.678477 0.678477 0.678477
0.687083 0.687083 0.687083
0.698146 0.698146 0.698146
0.709834 0.709834 0.709834
0.394217 0.394217 0.394217
0.383383 0.383383 0.383383
0.375296 0.375296 0.375296
0.370443 0.370443 0.370443
0.368475 0.368475 0.368475
0.367498 0.367498 0.367498
0.36669 0.36669 0.36669
0.366461 0.366461 0.366461
0.368017 0.368017 0.368017
0.371847 0.371847 0.371847
0.378912 0.378912 0.378912
0.38912 0.38912 0.38912
0.401679 0.401679 0.401679
0.419486 0.419486 0.419486
0.442237 0.442237 0.442237
0.47219 0.47219 0.47219
0.508965 0.508965 0.508965
0.552041 0.552041 0.552041
0.598047 0.598047 0.598047
0.638956 0.638956 0.638956
0.663539 0.663539 0.663539
0.68394 0.68394 0.68394
0.684016 0.684016 0.684016
0.680171 0.680171 0.680171
0.677607 0.677607 0.677607
0.676509 0.676509 0.676509
0.676753 0.676753 0.676753
0.678752 0.678752 0.678752
0.682338 0.682338 0.682338
0.687999 0.687999 0.687999
0.695399 0.695399 0.695399
0.704875 0.704875 0.704875
0.715084 0.715084 0.715084
0.441215 0.441215 0.441215
0.436667 0.436667 0.436667
0.434516 0.434516 0.434516
0.433219 0.433219 0.433219
0.433356 0.433356 0.433356
0.433585 0.433585 0.433585
0.434684 0.434684 0.434684
0.435813 0.435813 0.435813
0.437446 0.437446 0.437446
0.441138 0.441138 0.441138
0.447272 0.447272 0.447272
0.454978 0.454978 0.454978
0.465217 0.465217 0.465217
0.478904 0.478904 0.478904
0.497429 0.497429 0.497429
0.521904 0.521904 0.521904
0.551781 0.551781 0.551781
0.586664 0.586664 0.586664
0.625696 0.625696 0.625696
0.661402 0.661402 0.661402
0.683055 0.683055 0.683055
0.701106 0.701106 0.701106
0.706371 0.706371 0.706371
0.701427 0.701427 0.701427
0.697795 0.697795 0.697795
0.695262 0.695262 0.695262
0.694118 0.694118 0.694118
0.693828 0.693828 0.693828
0.696132 0.696132 0.696132
0.69958 0.69958 0.69958
0.70544 0.70544 0.70544
0.713146 0.713146 0.713146
0.721706 0.721706 0.721706
0.498665 0.498665 0.498665
0.49868 0.49868 0.49868
0.499123 0.499123 0.499123
0.499657 0.499657 0.499657
0.500465 0.500465 0.500465
0.501396 0.501396 0.501396
0.502434 0.502434 0.502434
0.504479 0.504479 0.504479
0.507164 0.507164 0.507164
0.510674 0.510674 0.510674
0.51519 0.51519 0.51519
0.521324 0.521324 0.521324
0.529915 0.529915 0.529915
0.540398 0.540398 0.540398
0.555169 0.555169 0.555169
0.574563 0.574563 0.574563
0.597726 0.597726 0.597726
0.625925 0.625925 0.625925
0.657832 0.657832 0.657832
0.688624 0.688624 0.688624
0.70663 0.70663 0.70663
0.720882 0.720882 0.720882
0.728237 0.728237 0.728237
0.723659 0.723659 0.723659
0.719127 0.719127 0.719127
0.715343 0.715343 0.715343
0.712551 0.712551 0.712551
0.710842 0.710842 0.710842
0.711437 0.711437 0.711437
0.71339 0.71339 0.71339
0.716915 0.716915 0.716915
0.723201 0.723201 0.723201
0.729992 0.729992 0.729992
0.563882 0.563882 0.563882
0.564813 0.564813 0.564813
0.56585 0.56585 0.56585
0.566827 0.566827 0.566827
0.568017 0.568017 0.568017
0.569146 0.569146 0.569146
0.570245 0.570245 0.570245
0.571649 0.571649 0.571649
0.573373 0.573373 0.573373
0.575662 0.575662 0.575662
0.57969 0.57969 0.57969
0.584543 0.584543 0.584543
0.590997 0.590997 0.590997
0.600259 0.600259 0.600259
0.611658 0.611658 0.611658
0.626535 0.626535 0.626535
0.645228 0.645228 0.645228
0.666987 0.666987 0.666987
0.693385 0.693385 0.693385
0.719432 0.719432 0.719432
0.736584 0.736584 0.736584
0.742611 0.742611 0.742611
0.748394 0.748394 0.748394
0.746471 0.746471 0.746471
0.740932 0.740932 0.740932
0.736706 0.736706 0.736706
0.732341 0.732341 0.732341
0.730297 0.730297 0.730297
0.728649 0.728649 0.728649
0.729015 0.729015 0.729015
0.730694 0.730694 0.730694
0.734615 0.734615 0.734615
0.740032 0.740032 0.740032
0.624567 0.624567 0.624567
0.625559 0.625559 0.625559
0.62652 0.62652 0.62652
0.627543 0.627543 0.627543
0.628489 0.628489 0.628489
0.629801 0.629801 0.629801
0.631052 0.631052 0.631052
0.632654 0.632654 0.632654
0.634592 0.634592 0.634592
0.637018 0.637018 0.637018
0.640146 0.640146 0.640146
0.64419 0.64419 0.64419
0.64947 0.64947 0.64947
0.656596 0.656596 0.656596
0.666362 0.666362 0.666362
0.678706 0.678706 0.678706
0.692851 0.692851 0.692851
0.710384 0.710384 0.710384
0.730632 0.730632 0.730632
0.751949 0.751949 0.751949
0.768429 0.768429 0.768429
0.770703 0.770703 0.770703
0.769985 0.769985 0.769985
0.769589 0.769589 0.769589
0.763394 0.763394 0.763394
0.758587 0.758587 0.758587
0.753719 0.753719 0.753719
0.750088 0.750088 0.750088
0.747616 0.747616 0.747616
0.746456 0.746456 0.746456
0.746563 0.746563 0.746563
0.748135 0.748135 0.748135
0.751965 0.751965 0.751965
0.679225 0.679225 0.679225
0.68014 0.68014 0.68014
0.681041 0.681041 0.681041
0.681895 0.681895 0.681895
0.682734 0.682734 0.682734
0.683742 0.683742 0.683742
0.684718 0.684718 0.684718
0.685863 0.685863 0.685863
0.687404 0.687404 0.687404
0.689479 0.689479 0.689479
0.692393 0.692393 0.692393
0.696101 0.696101 0.696101
0.70074 0.70074 0.70074
0.70721 0.70721 0.70721
0.715602 0.715602 0.715602
0.725414 0.725414 0.725414
0.737316 0.737316 0.737316
0.751369 0.751369 0.751369
0.768475 0.768475 0.768475
0.786572 0.786572 0.786572
0.802609 0.802609 0.802609
0.801663 0.801663 0.801663
0.796567 0.796567 0.796567
0.790951 0.790951 0.790951
0.785748 0.785748 0.785748
0.780743 0.780743 0.780743
0.775525 0.775525 0.775525
0.771527 0.771527 0.771527
0.766918 0.766918 0.766918
0.764935 0.764935 0.764935
0.763287 0.763287 0.763287
0.763928 0.763928 0.763928
0.76582 0.76582 0.76582
0.722164 0.722164 0.722164
0.723262 0.723262 0.723262
0.724285 0.724285 0.724285
0.725307 0.725307 0.725307
0.726299 0.726299 0.726299
0.727352 0.727352 0.727352
0.728435 0.728435 0.728435
0.729763 0.729763 0.729763
0.731487 0.731487 0.731487
0.73373 0.73373 0.73373
0.736645 0.736645 0.736645
0.739971 0.739971 0.739971
0.744259 0.744259 0.744259
0.750713 0.750713 0.750713
0.758053 0.758053 0.758053
0.766415 0.766415 0.766415
0.776699 0.776699 0.776699
0.789029 0.789029 0.789029
0.80296 0.80296 0.80296
0.817472 0.817472 0.817472
0.829587 0.829587 0.829587
0.830884 0.830884 0.830884
0.823865 0.823865 0.823865
0.816114 0.816114 0.816114
0.808103 0.808103 0.808103
0.80264 0.80264 0.80264
0.796735 0.796735 0.796735
0.791714 0.791714 0.791714
0.787411 0.787411 0.787411
0.783963 0.783963 0.783963
0.781552 0.781552 0.781552
0.780179 0.780179 0.780179
0.780621 0.780621 0.780621
0.745434 0.745434 0.745434
0.746624 0.746624 0.746624
0.747753 0.747753 0.747753
0.748882 0.748882 0.748882
0.750027 0.750027 0.750027
0.751156 0.751156 0.751156
0.752255 0.752255 0.752255
0.753613 0.753613 0.753613
0.755383 0.755383 0.755383
0.757687 0.757687 0.757687
0.760678 0.760678 0.760678
0.764645 0.764645 0.764645
0.76997 0.76997 0.76997
0.776699 0.776699 0.776699
0.78439 0.78439 0.78439
0.79324 0.79324 0.79324
0.803006 0.803006 0.803006
0.814298 0.814298 0.814298
0.826963 0.826963 0.826963
0.840208 0.840208 0.840208
0.851453 0.851453 0.851453
0.856611 0.856611 0.856611
0.850462 0.850462 0.850462
0.840742 0.840742 0.840742
0.832242 0.832242 0.832242
0.825727 0.825727 0.825727
0.819669 0.819669 0.819669
0.813931 0.813931 0.813931
0.808728 0.808728 0.808728
0.803555 0.803555 0.803555
0.800748 0.800748 0.800748
0.797696 0.797696 0.797696
0.796918 0.796918 0.796918
0.761471 0.761471 0.761471
0.762264 0.762264 0.762264
0.763073 0.763073 0.763073
0.763867 0.763867 0.763867
0.76463 0.76463 0.76463
0.765423 0.765423 0.765423
0.766186 0.766186 0.766186
0.767178 0.767178 0.767178
0.768658 0.768658 0.768658
0.770581 0.770581 0.770581
0.773098 0.773098 0.773098
0.776425 0.776425 0.776425
0.780591 0.780591 0.780591
0.78558 0.78558 0.78558
0.791974 0.791974 0.791974
0.80032 0.80032 0.80032
0.810452 0.810452 0.810452
0.822461 0.822461 0.822461
0.836393 0.836393 0.836393
0.851362 0.851362 0.851362
0.864637 0.864637 0.864637
0.873747 0.873747 0.873747
0.871107 0.871107 0.871107
0.864103 0.864103 0.864103
0.853605 0.853605 0.853605
0.847364 0.847364 0.847364
0.841825 0.841825 0.841825
0.836347 0.836347 0.836347
0.831189 0.831189 0.831189
0.826078 0.826078 0.826078
0.822049 0.822049 0.822049
0.817456 0.817456 0.817456
0.814969 0.814969 0.814969
0.775311 0.775311 0.775311
0.775952 0.775952 0.775952
0.776593 0.776593 0.776593
0.777234 0.777234 0.777234
0.777874 0.777874 0.777874
0.77847 0.77847 0.77847
0.77911 0.77911 0.77911
0.779889 0.779889 0.779889
0.780896 0.780896 0.780896
0.782269 0.782269 0.782269
0.784054 0.784054 0.784054
0.786389 0.786389 0.786389
0.789425 0.789425 0.789425
0.793484 0.793484 0.793484
0.798932 0.798932 0.798932
0.805615 0.805615 0.805615
0.813382 0.813382 0.813382
0.823316 0.823316 0.823316
0.83534 0.83534 0.83534
0.848676 0.848676 0.848676
0.863188 0.863188 0.863188
0.877516 0.877516 0.877516
0.883741 0.883741 0.883741
0.879942 0.879942 0.879942
0.872755 0.872755 0.872755
0.865354 0.865354 0.865354
0.860685 0.860685 0.860685
0.856352 0.856352 0.856352
0.85156 0.85156 0.85156
0.846738 0.846738 0.846738
0.842191 0.842191 0.842191
0.838254 0.838254 0.838254
0.834714 0.834714 0.834714
0.787488 0.787488 0.787488
0.787991 0.787991 0.787991
0.788449 0.788449 0.788449
0.788937 0.788937 0.788937
0.78941 0.78941 0.78941
0.789868 0.789868 0.789868
0.790326 0.790326 0.790326
0.79089 0.79089 0.79089
0.791669 0.791669 0.791669
0.792676 0.792676 0.792676
0.794003 0.794003 0.794003
0.795834 0.795834 0.795834
0.798169 0.798169 0.798169
0.801236 0.801236 0.801236
0.805142 0.805142 0.805142
0.810162 0.810162 0.810162
0.816434 0.816434 0.816434
0.824216 0.824216 0.824216
0.834119 0.834119 0.834119
0.845685 0.845685 0.845685
0.858564 0.858564 0.858564
0.871427 0.871427 0.871427
0.882277 0.882277 0.882277
0.884749 0.884749 0.884749
0.884108 0.884108 0.884108
0.879545 0.879545 0.879545
0.875807 0.875807 0.875807
0.872572 0.872572 0.872572
0.868467 0.868467 0.868467
0.864485 0.864485 0.864485
0.860426 0.860426 0.860426
0.856367 0.856367 0.856367
0.853025 0.853025 0.853025
0.795605 0.795605 0.795605
0.795972 0.795972 0.795972
0.796323 0.796323 0.796323
0.796658 0.796658 0.796658
0.79704 0.79704 0.79704
0.797345 0.797345 0.797345
0.797726 0.797726 0.797726
0.798184 0.798184 0.798184
0.798733 0.798733 0.798733
0.799527 0.799527 0.799527
0.80058 0.80058 0.80058
0.801923 0.801923 0.801923
0.803769 0.803769 0.803769
0.806104 0.806104 0.806104
0.809277 0.809277 0.809277
0.813306 0.813306 0.813306
0.818418 0.818418 0.818418
0.824979 0.824979 0.824979
0.833585 0.833585 0.833585
0.843351 0.843351 0.843351
0.85452 0.85452 0.85452
0.866148 0.866148 0.866148
0.878386 0.878386 0.878386
0.88452 0.88452 0.88452
0.884764 0.884764 0.884764
0.884764 0.884764 0.884764
0.884672 0.884672 0.884672
0.88336 0.88336 0.88336
0.881727 0.881727 0.881727
0.878614 0.878614 0.878614
0.875425 0.875425 0.875425
0.872297 0.872297 0.872297
0.868971 0.868971 0.868971
0.801907 0.801907 0.801907
0.802121 0.802121 0.802121
0.80238 0.80238 0.80238
0.80264 0.80264 0.80264
0.802823 0.802823 0.802823
0.803143 0.803143 0.803143
0.803372 0.803372 0.803372
