packages/webcomponents/examples/FLog2C_to_CLASSIC-Neg_VLog.cube
TITLE "Generated by Resolve"
#LUMIXPHOTOSTYLE VLOG
LUT_3D_SIZE 9
0 0 0
0.0109102 0.000900282 0
0.257816 0.0204929 0.000244144
0.889998 0.105821 0.0324407
0.951064 0.281895 0.277256
0.951064 0.281895 0.277256
0.951186 0.2851 0.276905
0.953079 0.383886 0.261021
0.955749 0.544137 0.2271
0.00047303 0.00500496 0.00047303
0.00271611 0.000640879 4.57771e-05
0.162676 0.0130312 0.000320439
0.750622 0.0671702 0
0.945891 0.190082 0.192325
0.951064 0.281895 0.277256
0.951858 0.302953 0.273335
0.953277 0.395392 0.259388
0.955673 0.549477 0.225528
0.00370794 0.138842 0.0216983
0.00238041 0.0923018 0.0143893
0.0803998 0.0712596 0.000839246
0.463004 0.0896468 6.10361e-05
0.939101 0.166293 0.0975357
0.951568 0.299046 0.274266
0.951492 0.328725 0.270619
0.953643 0.410056 0.25684
0.955718 0.55584 0.223499
0.0127565 0.414435 0.0686656
0.00807202 0.283909 0.0462959
0.00701915 0.241749 0.0391394
0.255894 0.224247 0.00320439
0.872068 0.286458 0.00674449
0.954208 0.395285 0.250675
0.953414 0.397894 0.259968
0.954864 0.44892 0.249912
0.956466 0.573953 0.217151
0.0225223 0.716594 0.119753
0.0214237 0.680171 0.113741
0.0208286 0.648447 0.108598
0.084123 0.599725 0.0907912
0.760296 0.599847 0.00108339
0.953323 0.609537 0.120165
0.955749 0.560052 0.222324
0.956497 0.555901 0.22356
0.956558 0.62742 0.200168
0.0291905 0.910948 0.152697
0.0284581 0.90663 0.152224
0.0284581 0.90161 0.150698
0.0278477 0.88957 0.148928
0.398184 0.887205 0.0962081
0.94696 0.891325 0.019852
0.958602 0.797467 0.0986038
0.958206 0.7514 0.135897
0.95874 0.746624 0.138323
0.0292973 0.944442 0.157092
0.0292973 0.944442 0.157092
0.0292973 0.944442 0.157092
0.0292973 0.944442 0.157092
0.0330663 0.943862 0.156542
0.811399 0.988998 0.0548867
0.946807 0.963012 0.0332952
0.953857 0.923308 0.0253605
0.956832 0.894926 0.0265965
0.0292973 0.944442 0.157092
0.0292973 0.944442 0.157092
0.0292973 0.944442 0.157092
0.0294957 0.944289 0.157351
0.0305028 0.943526 0.158618
0.325872 0.96141 0.119356
0.914321 0.994507 0.0404822
0.933944 0.995438 0.0391394
0.936736 0.989654 0.0381933
0.453361 0.969009 0.101167
0.457938 0.969284 0.100557
0.463142 0.969589 0.0998398
0.478187 0.970428 0.0978714
0.526558 0.973007 0.0917678
0.675853 0.980941 0.0728771
0.865675 0.992447 0.0480507
0.933883 0.995666 0.0392767
0.933883 0.995666 0.0392767
0 0 0
0.00485237 0.000701915 0
0.232273 0.0184329 0.000656138
0.875242 0.0998398 0.0204623
0.951064 0.281895 0.277256
0.951064 0.281895 0.277256
0.951675 0.285924 0.276524
0.953079 0.384054 0.261006
0.955749 0.544274 0.22707
6.10361e-05 0.00764477 0.00947585
0.000137331 0.000122072 6.10361e-05
0.142916 0.0106661 7.62951e-05
0.708888 0.0623789 0.000228885
0.944732 0.17879 0.179309
0.951064 0.281895 0.277256
0.952193 0.304356 0.273259
0.953277 0.395575 0.259373
0.955673 0.549615 0.225498
0.00512703 0.155612 0.0580148
0.00296025 0.10045 0.0179904
0.0657969 0.0773938 0.00320439
0.416266 0.092546 0.000442512
0.932555 0.168688 0.0796979
0.95198 0.303822 0.27335
0.952209 0.329824 0.271336
0.953658 0.410254 0.256794
0.955718 0.555978 0.223453
0.0150301 0.454322 0.0959945
0.00866712 0.304707 0.0495308
0.00758373 0.252018 0.0413519
0.224353 0.232013 0.00703441
0.857252 0.292378 0.00263981
0.952483 0.397726 0.23946
0.95349 0.400244 0.259693
0.954864 0.449027 0.249882
0.956466 0.573953 0.217151
0.0229953 0.734371 0.122057
0.021561 0.698024 0.116335
0.0209201 0.66598 0.111254
0.0503243 0.614145 0.0979171
0.720958 0.614618 0.0047303
0.95375 0.626352 0.108675
0.956466 0.563348 0.222263
0.956497 0.555901 0.22356
0.956558 0.62742 0.200168
0.0292515 0.920073 0.153826
0.0298009 0.915908 0.152743
0.0291295 0.911147 0.152682
0.0283665 0.898177 0.149554
0.279957 0.889342 0.112352
0.938201 0.898558 0.0220645
0.957137 0.802594 0.0941482
0.958206 0.7514 0.135897
0.95874 0.746624 0.138323
0.0292973 0.944442 0.157092
0.0292973 0.944442 0.157092
0.0292973 0.944442 0.157092
0.0292973 0.944442 0.157092
0.0303044 0.943679 0.158373
0.723415 0.983902 0.0663157
0.943511 0.970428 0.0340429
0.953857 0.923308 0.0253605
0.956832 0.894926 0.0265965
0.0292973 0.944442 0.157092
0.0292973 0.944442 0.157092
0.0292973 0.944442 0.157092
0.0294347 0.944335 0.157259
0.0301976 0.943771 0.158221
0.191775 0.952773 0.135332
0.882856 0.993118 0.0455177
0.933883 0.995666 0.0392767
0.936736 0.989654 0.0381933
0.446326 0.968353 0.102892
0.451011 0.968597 0.102266
0.456031 0.968856 0.101625
0.470649 0.96968 0.099733
0.518166 0.972519 0.0936446
0.664103 0.981262 0.0747692
0.860059 0.991928 0.0491493
0.933883 0.995666 0.0392767
0.933883 0.995666 0.0392767
0.00939956 0.00392157 0.0549935
0.00714122 0.00257877 0.0338445
0.204822 0.015259 0.00102235
0.847456 0.0909743 0.00750744
0.95082 0.277531 0.273335
0.951064 0.281895 0.277256
0.9514 0.293614 0.275105
0.953933 0.394049 0.260853
0.955749 0.544396 0.227039
0.0209201 0.0158846 0.0990005
0.0116121 0.00434882 0.0627451
0.140246 0.00907912 0.0279088
0.648768 0.0536965 6.10361e-05
0.943465 0.15819 0.15845
0.951064 0.281895 0.277256
0.952148 0.317998 0.271153
0.954025 0.406043 0.258762
0.955673 0.549615 0.225498
0.0135653 0.188708 0.224063
0.00741588 0.120012 0.131273
0.0763561 0.0928664 0.0822919
0.396841 0.0985275 0.0416266
0.918563 0.170275 0.0898909
0.951904 0.315526 0.273472
0.95198 0.346303 0.266804
0.954376 0.420249 0.256321
0.955718 0.555978 0.223453
0.0268406 0.5337 0.361517
0.0172427 0.36495 0.214374
0.0133211 0.298833 0.16556
0.229145 0.261295 0.109209
0.845136 0.307134 0.0781872
0.954116 0.40827 0.266957
0.953857 0.420417 0.256092
0.954452 0.460594 0.246006
0.956466 0.574075 0.217105
0.0306249 0.776944 0.298039
0.0289769 0.74435 0.263508
0.0269474 0.715938 0.242267
0.0387427 0.661402 0.209384
0.693858 0.645762 0.124636
0.958999 0.656107 0.226535
0.958679 0.596231 0.261814
0.956527 0.571023 0.218265
0.956558 0.62742 0.200168
0.0293278 0.929686 0.155154
0.029099 0.926024 0.155276
0.0297093 0.921752 0.154635
0.0283207 0.910582 0.151995
0.187289 0.895491 0.128405
0.925887 0.907897 0.10219
0.963531 0.821698 0.222385
0.958618 0.767361 0.125978
0.95874 0.746624 0.138323
0.029633 0.944793 0.157443
0.0294652 0.94461 0.157259
0.0292973 0.944442 0.157092
0.0292973 0.944442 0.157092
0.0292973 0.944442 0.157092
0.618997 0.977981 0.0803082
0.939574 0.981033 0.0353552
0.952331 0.934005 0.0269474
0.956832 0.894926 0.0265965
0.0292973 0.944442 0.157092
0.0292973 0.944442 0.157092
0.0292973 0.944442 0.157092
0.0292973 0.944442 0.157092
0.0292973 0.944442 0.157092
0.143175 0.950149 0.142443
0.862074 0.992187 0.0481575
0.933883 0.995666 0.0392767
0.936736 0.989654 0.0381933
0.444541 0.968765 0.148531
0.448783 0.969009 0.147463
0.45359 0.969284 0.146304
0.467643 0.970092 0.142794
0.513695 0.972702 0.132342
0.655619 0.980758 0.100801
0.854398 0.991958 0.0529488
0.933883 0.995666 0.0392767
0.933883 0.995666 0.0392767
0.0485237 0.0161593 0.174166
0.036347 0.0106661 0.132845
0.220478 0.0138552 0.0773327
0.834348 0.0792706 0.056672
0.951782 0.273228 0.285435
0.952743 0.29102 0.314336
0.95465 0.322652 0.341344
0.956832 0.433234 0.326513
0.956634 0.575097 0.21738
0.0826123 0.0371099 0.279438
0.0593118 0.019852 0.197116
0.158373 0.0161593 0.134356
0.631998 0.0446021 0.0892042
0.946014 0.139498 0.252308
0.955535 0.308965 0.36791
0.955764 0.350942 0.355612
0.957397 0.446571 0.328603
0.956725 0.580606 0.215824
0.0833753 0.242374 0.535378
0.0537118 0.151583 0.345586
0.112123 0.11284 0.239551
0.427253 0.113787 0.168826
0.915801 0.172442 0.221149
0.958038 0.362264 0.404425
0.957732 0.385122 0.372732
0.957763 0.462943 0.333776
0.956817 0.587167 0.213733
0.0439002 0.610605 0.750866
0.0312657 0.441703 0.53611
0.0293584 0.360815 0.430716
0.276402 0.30544 0.314305
0.849836 0.330297 0.262745
0.961547 0.438849 0.421241
0.960967 0.465217 0.403311
0.960006 0.507164 0.3449
0.956954 0.606104 0.206821
0.0477302 0.805158 0.708659
0.0446632 0.779004 0.65478
0.0416876 0.755459 0.611048
0.081529 0.709422 0.532158
0.709407 0.685161 0.394049
0.968399 0.680095 0.442008
0.967224 0.633951 0.455421
0.963241 0.618936 0.365377
0.957427 0.661143 0.187045
0.0460212 0.930495 0.585397
0.045594 0.927855 0.575158
0.0452735 0.924559 0.56527
0.0438544 0.915557 0.541054
0.182071 0.902327 0.484474
0.926421 0.913024 0.396048
0.972091 0.83505 0.463569
0.968017 0.794507 0.36437
0.958328 0.776272 0.14023
0.0359197 0.944045 0.324529
0.0357061 0.944121 0.322927
0.0355535 0.944213 0.320638
0.0362402 0.944381 0.316457
0.0364233 0.944259 0.305638
0.524239 0.972702 0.238895
0.950698 0.983536 0.246357
0.961639 0.939574 0.239536
0.954971 0.912932 0.0337987
0.0312047 0.945037 0.172335
0.0311894 0.945052 0.170901
0.0311742 0.945068 0.169177
0.0310063 0.945083 0.166217
0.0301976 0.945098 0.160403
0.115419 0.949722 0.146349
0.826719 0.990692 0.0531167
0.934188 0.99559 0.03888
0.934951 0.99321 0.038819
0.45742 0.96762 0.377203
0.461662 0.96788 0.37612
0.466072 0.968154 0.374578
0.479103 0.968933 0.371069
0.521782 0.971374 0.358694
0.653346 0.978866 0.32076
0.852445 0.991135 0.251575
0.941039 0.995117 0.154604
0.933883 0.995666 0.0392767
0.127794 0.057084 0.449317
0.104463 0.0436866 0.362005
0.272297 0.0296635 0.232914
0.837873 0.0656138 0.203052
0.954864 0.25539 0.388479
0.957778 0.313146 0.441062
0.960708 0.364645 0.477256
0.965362 0.49514 0.513741
0.968658 0.637629 0.489662
0.218448 0.100267 0.671214
0.161242 0.0728161 0.542809
0.21677 0.0510109 0.394324
0.642176 0.0487526 0.300618
0.9505 0.110613 0.419043
0.960113 0.321096 0.482872
0.962646 0.401022 0.500832
0.965652 0.508171 0.520195
0.968826 0.642741 0.491188
0.276295 0.340932 0.858656
0.192645 0.21413 0.717403
0.201694 0.152163 0.571588
0.517021 0.139559 0.436591
0.920348 0.182712 0.446433
0.963241 0.372641 0.525963
0.96524 0.440955 0.527535
0.966995 0.523491 0.527565
0.969055 0.648692 0.492729
0.191257 0.679591 0.984054
0.147234 0.537011 0.878462
0.159579 0.453391 0.796292
0.400259 0.378698 0.65922
0.872526 0.366476 0.552346
0.967773 0.46006 0.59501
0.969589 0.53077 0.581186
0.968826 0.56524 0.548089
0.969802 0.665553 0.496986
0.0594797 0.82652 0.99266
0.057969 0.805661 0.969696
0.0561074 0.784985 0.943923
0.192844 0.752468 0.876066
0.760479 0.725673 0.731228
0.977966 0.700145 0.691386
0.97583 0.678584 0.650828
0.973724 0.662776 0.586633
0.971435 0.711772 0.507744
0.059968 0.924651 0.953994
0.0590677 0.922026 0.948531
0.0594492 0.920104 0.942672
0.0584115 0.911818 0.926162
0.252979 0.905638 0.866407
0.928603 0.914397 0.733822
0.982986 0.846769 0.701671
0.978882 0.810437 0.628
0.974166 0.804959 0.516487
0.0535286 0.942153 0.764477
0.0535286 0.942153 0.764477
0.0535286 0.942153 0.764401
0.0535134 0.942046 0.764645
0.0544747 0.941314 0.769009
0.473381 0.966476 0.692699
0.968612 0.982956 0.60705
0.978088 0.938186 0.579141
0.973571 0.918379 0.462089
0.0501869 0.94197 0.673747
0.0501717 0.941985 0.672236
0.0501411 0.942 0.669749
0.0499123 0.94197 0.662852
0.049012 0.941726 0.641703
0.184253 0.95021 0.565286
0.799405 0.986786 0.395193
0.95053 0.994598 0.34818
0.945281 0.993698 0.232883
0.521965 0.96939 0.736431
0.525231 0.969573 0.735653
0.528832 0.969802 0.7346
0.539635 0.970428 0.731517
0.573709 0.972381 0.722164
0.680018 0.9785 0.692454
0.856565 0.989364 0.623285
0.959289 0.99411 0.502647
0.94667 0.994339 0.268009
0.364065 0.164279 0.836316
0.297566 0.137392 0.790051
0.375799 0.100267 0.637842
0.810498 0.084947 0.526558
0.959182 0.108919 0.611124
0.962631 0.276341 0.579263
0.966171 0.366033 0.603586
0.972061 0.52108 0.65066
0.97821 0.692027 0.701091
0.617853 0.262119 0.912398
0.489265 0.207065 0.879683
0.412055 0.150637 0.799298
0.716579 0.128649 0.678767
0.949294 0.133852 0.653208
0.965698 0.316426 0.625208
0.968048 0.401801 0.625101
0.972854 0.536034 0.658656
0.978332 0.695872 0.702785
0.633967 0.452628 0.954131
0.531289 0.349538 0.925444
0.444923 0.253574 0.868269
0.684337 0.207568 0.761898
0.930983 0.214694 0.701854
0.967193 0.34461 0.667994
0.968963 0.439063 0.647272
0.97377 0.553429 0.667842
0.978637 0.700328 0.704738
0.498116 0.689189 0.999786
0.478569 0.631174 0.99704
0.423972 0.557778 0.972641
0.626581 0.47631 0.889158
0.901778 0.42118 0.796323
0.974426 0.453941 0.753994
0.974533 0.530251 0.69369
0.975586 0.600275 0.690806
0.979477 0.71313 0.710323
0.236545 0.828473 0.999985
0.232822 0.817792 0.999847
0.258457 0.806485 0.999878
0.431846 0.788617 0.999756
0.831189 0.759945 0.919936
0.985275 0.711299 0.858305
0.981643 0.698009 0.770275
0.98088 0.704448 0.742916
0.980865 0.750134 0.725551
0.0656596 0.90988 0.999664
0.0645762 0.908782 0.999969
0.0638743 0.906111 0.999908
0.0755779 0.900572 0.999557
0.417563 0.907195 0.999756
0.929625 0.908309 0.913558
0.988708 0.859785 0.850828
0.985656 0.82623 0.800549
0.983764 0.820722 0.751873
0.0633249 0.942718 0.99971
0.0632334 0.942611 0.99968
0.0631571 0.942504 0.999725
0.0631418 0.94258 0.999298
0.0625162 0.942367 0.998001
0.441733 0.964691 0.950225
0.973541 0.97615 0.850278
0.989044 0.935332 0.814008
0.98613 0.916838 0.75816
0.0609445 0.941405 0.968338
0.0609751 0.941405 0.967758
0.0609903 0.941405 0.966964
0.0673838 0.941833 0.963729
0.09691 0.943816 0.953262
0.317556 0.957153 0.911818
0.811765 0.985931 0.805905
0.97081 0.992706 0.722591
0.9673 0.992126 0.648905
0.601617 0.974792 0.939803
0.605478 0.975036 0.939178
0.608865 0.97525 0.938689
0.619547 0.975891 0.937011
0.650034 0.977539 0.932082
0.744503 0.982651 0.916793
0.871305 0.989517 0.885908
0.976181 0.993835 0.821729
0.96968 0.993347 0.703578
0.679606 0.293965 0.91989
0.67805 0.293599 0.920668
0.675502 0.294011 0.921218
0.833188 0.270115 0.888487
0.954894 0.196597 0.829175
0.96994 0.269215 0.77055
0.971893 0.382895 0.742199
0.976074 0.514031 0.761395
0.982269 0.689906 0.797498
0.687831 0.30248 0.920867
0.684642 0.297932 0.919676
0.680598 0.293919 0.918685
0.830808 0.290517 0.89839
0.9467 0.240803 0.852979
0.971908 0.301442 0.800824
0.973236 0.411292 0.754696
0.976654 0.527886 0.76704
0.982452 0.694255 0.79942
0.682673 0.398459 0.938231
0.679973 0.378439 0.934493
0.675853 0.354711 0.931243
0.811749 0.343755 0.910979
0.941207 0.318975 0.87866
0.974258 0.344656 0.82887
0.974517 0.442771 0.767285
0.977752 0.544472 0.773754
0.982696 0.699489 0.80174
0.628672 0.567636 0.974426
0.6271 0.544198 0.970916
0.625895 0.527886 0.968399
0.758801 0.524514 0.949004
0.925383 0.503151 0.922042
0.980133 0.468513 0.888594
0.97734 0.520729 0.797787
0.979126 0.587381 0.790143
0.983337 0.714046 0.808164
0.467124 0.753277 0.999924
0.468391 0.748241 0.999893
0.478996 0.744152 0.999832
0.62887 0.744686 0.998764
0.862974 0.74522 0.973053
0.987778 0.710369 0.947051
0.983764 0.674159 0.851499
0.983032 0.686061 0.826993
0.985107 0.753643 0.824506
0.211795 0.870878 0.999939
0.233677 0.871199 0.999741
0.262837 0.872053 0.999908
0.354864 0.873472 0.999695
0.6439 0.884535 0.999695
0.93051 0.8869 0.987091
0.991272 0.84329 0.928786
0.988312 0.82002 0.878294
0.9879 0.82884 0.858137
0.0666209 0.939712 0.999649
0.066743 0.939559 0.999634
0.066865 0.939345 0.999634
0.0664683 0.938323 0.999908
0.150423 0.940673 0.999863
0.594903 0.960632 0.999542
0.968154 0.962173 0.966339
0.993149 0.931731 0.925429
0.991501 0.915267 0.895277
0.110033 0.944701 0.999802
0.113863 0.944945 0.999802
0.118608 0.945251 0.999817
0.134279 0.946181 0.999832
0.186618 0.949233 0.999954
0.364584 0.960723 0.999878
0.829908 0.990173 0.965499
0.987854 0.995895 0.913725
0.98526 0.992142 0.882994
0.624369 0.976776 0.999832
0.626703 0.976928 0.999832
0.629953 0.977157 0.999847
0.638346 0.977707 0.999847
0.663645 0.979156 0.99971
0.741299 0.983597 0.999283
0.873716 0.99173 0.995758
0.980209 0.997406 0.965316
0.98793 0.995758 0.917235
0.590005 0.638743 0.990555
0.613214 0.599466 0.981888
0.68162 0.4094 0.939788
0.729335 0.298146 0.914122
0.887694 0.300633 0.89305
0.977203 0.359136 0.890684
0.977066 0.430182 0.864134
0.979736 0.512581 0.861021
0.984833 0.661921 0.879133
0.557671 0.682307 0.999771
0.604868 0.615763 0.985779
0.672755 0.444038 0.946792
0.727474 0.31458 0.917754
0.88101 0.328466 0.898421
0.978332 0.386282 0.894453
0.978271 0.447822 0.868681
0.980133 0.523384 0.864408
0.984939 0.666072 0.8804
0.517891 0.723049 0.999725
0.597848 0.628046 0.990509
0.662074 0.482902 0.955367
0.724117 0.356695 0.924651
0.873014 0.369833 0.905715
0.97821 0.418021 0.899779
0.979141 0.467643 0.87454
0.98056 0.53579 0.868284
0.985046 0.671046 0.881849
0.428397 0.781262 0.999924
0.570916 0.664759 0.997406
0.624094 0.579492 0.976959
0.712306 0.473564 0.946288
0.854948 0.468849 0.925872
0.977218 0.499443 0.914214
0.981018 0.520531 0.889693
0.982193 0.569818 0.878126
0.985351 0.685328 0.886015
0.411688 0.78822 0.999756
0.459327 0.762585 0.999466
0.497963 0.7364 0.999878
0.62826 0.685954 0.993332
0.818326 0.642405 0.9608
0.951049 0.661067 0.945663
0.985534 0.637568 0.928283
0.985611 0.654322 0.902602
0.986526 0.723354 0.897887
0.200305 0.869535 0.99939
0.232624 0.866209 0.999786
0.271565 0.862608 0.999466
0.382589 0.85417 0.999741
0.665537 0.83859 0.999664
0.900725 0.821225 0.980194
0.991928 0.817136 0.967803
0.990662 0.788678 0.942016
0.989578 0.801724 0.922957
0.0666667 0.93817 0.999832
0.0667887 0.93753 0.999908
0.0670329 0.936828 1
0.0718242 0.935042 0.999954
0.203342 0.935271 0.999786
0.669886 0.942992 0.999786
0.955612 0.931807 0.991531
0.994537 0.911879 0.978195
0.994171 0.900679 0.955505
0.0959945 0.944152 0.999878
0.0986038 0.944289 0.999878
0.101625 0.944457 0.999863
0.116701 0.945403 0.999863
0.175921 0.949248 0.999954
0.351812 0.959304 0.999512
0.811856 0.987808 0.999908
0.99527 0.997772 0.997559
0.99675 0.987503 0.983658
0.558236 0.972335 0.999985
0.560845 0.972473 0.999985
0.563882 0.972641 0.999985
0.57348 0.97319 0.999985
0.602625 0.974945 0.999939
0.691402 0.980331 0.999817
0.850065 0.990478 0.999252
0.973831 0.997803 0.999252
0.999939 1 0.999939
0.0682994 0.902083 0.999939
0.0682689 0.902159 0.999939
0.247852 0.851545 0.999969
0.455772 0.765835 0.999924
0.760021 0.671885 0.974517
0.921431 0.577081 0.936278
0.982177 0.50071 0.914153
0.981781 0.523186 0.917708
0.985656 0.623865 0.934173
0.066331 0.90634 0.999924
0.0663157 0.906401 0.999924
0.251621 0.850553 0.999588
0.446479 0.772564 0.999954
0.755474 0.682429 0.976883
0.919829 0.5906 0.938491
0.982727 0.514397 0.916533
0.981842 0.529747 0.918761
0.985794 0.6271 0.934798
0.0660258 0.910796 0.999924
0.0660105 0.904631 0.999954
0.254673 0.849332 0.999756
0.433509 0.77818 0.999847
0.748531 0.694148 0.979889
0.917906 0.606912 0.941146
0.983093 0.530007 0.919249
0.981918 0.537331 0.919966
0.985946 0.631098 0.935561
0.0655528 0.922972 0.999939
0.109163 0.885328 0.999817
0.251301 0.851194 0.999344
0.397589 0.795697 0.999573
0.72903 0.726879 0.988312
0.912657 0.650217 0.948699
0.983505 0.571801 0.926452
0.982849 0.558556 0.923506
0.986404 0.642191 0.937652
0.0826886 0.890394 0.999863
0.151125 0.876905 0.999969
0.207843 0.862593 0.999756
0.307393 0.834958 0.999985
0.657847 0.795743 0.999771
0.899016 0.745113 0.967803
0.987305 0.675715 0.943206
0.984955 0.619333 0.93434
0.987243 0.67512 0.943725
0.0652323 0.907622 0.999786
0.0661479 0.903868 0.999664
0.0763409 0.899962 0.999695
0.146654 0.89247 0.999924
0.421622 0.881743 0.999985
0.847272 0.862547 0.995514
0.978882 0.825437 0.970947
0.989853 0.758083 0.956802
0.989502 0.755734 0.956222
0.0672465 0.94255 0.999985
0.0672313 0.942535 0.999985
0.067216 0.942519 0.999985
0.0672465 0.942321 0.999969
0.0711833 0.941405 0.999832
0.463462 0.949432 0.999847
0.933181 0.946792 0.99678
0.994751 0.910857 0.982864
0.993805 0.87599 0.97702
0.0673228 0.942565 1
0.0673228 0.942565 1
0.0673381 0.942565 1
0.0747234 0.943008 0.999954
0.12256 0.945937 0.999634
0.281758 0.955871 0.999939
0.754894 0.983764 0.999313
0.985168 0.998505 0.998932
0.996628 0.987503 0.995392
0.475959 0.967376 0.999893
0.478355 0.967529 0.999893
0.481697 0.967742 0.999893
0.490944 0.968338 0.999908
0.52166 0.970367 0.999878
0.616129 0.976593 0.999802
0.811185 0.987182 0.999619
0.961196 0.99649 0.999146
1 1 1
