packages/webcomponents/examples/FLog2C_to_CLASSIC-CHROME_VLog.cube
TITLE "Generated by Resolve"
#LUMIXPHOTOSTYLE VLOG
LUT_3D_SIZE 5
0 0 0
0.310567 0.00939956 0.0180056
0.95877 0.374456 0.4486
0.958892 0.377874 0.44712
0.952621 0.605692 0.339788
9.15541e-05 0.131121 0.000244144
0.0841382 0.0506752 0
0.963149 0.224018 0.286793
0.95819 0.422217 0.430488
0.952331 0.614633 0.33257
0.019852 0.728511 0.00914015
0.0144198 0.67509 0.00355535
0.753536 0.619745 0.0486915
0.952193 0.61796 0.330205
0.951873 0.666438 0.285267
0.0601053 0.967529 0.0358892
0.0778973 0.96762 0.0382086
0.534554 0.961257 0.105547
0.960403 0.937057 0.188769
0.955108 0.867689 0.157443
0.755932 0.96527 0.150927
0.759274 0.965347 0.151659
0.777111 0.966064 0.155917
0.906065 0.97026 0.190494
0.964569 0.973037 0.212375
0.000213626 0.000274662 0.0474861
0.242359 0.00654612 0.0224613
0.958816 0.370199 0.445792
0.958618 0.385962 0.442924
0.952621 0.605905 0.33962
0.000427253 0.180713 0.206394
0.0568246 0.0633097 0.0659342
0.937118 0.202991 0.26482
0.957427 0.438941 0.424949
0.952316 0.614725 0.332494
0.0235752 0.77319 0.0207065
0.0185855 0.721233 0.0090486
0.700069 0.648417 0.0652171
0.952453 0.643046 0.362936
0.951873 0.666438 0.285267
0.0478676 0.967224 0.0339208
0.0478828 0.967224 0.0339208
0.330297 0.963256 0.0699779
0.96286 0.959503 0.199603
0.955108 0.867689 0.157443
0.737133 0.964797 0.148043
0.74049 0.964889 0.148791
0.759014 0.965515 0.153323
0.892226 0.970352 0.184863
0.964569 0.973037 0.212375
0.00418097 0.000244144 0.521843
0.254734 0 0.327245
0.960876 0.328954 0.551339
0.959106 0.432944 0.601602
0.953231 0.6636 0.564279
0.00424201 0.196796 0.848325
0.0263523 0.0586252 0.621866
0.898604 0.147204 0.599725
0.957168 0.49778 0.62826
0.953216 0.67158 0.564767
0.0518349 0.799176 0.814496
0.0438239 0.75436 0.766659
0.661814 0.676692 0.68806
0.954879 0.684932 0.688396
0.953643 0.717037 0.564263
0.0630503 0.965011 0.402152
0.0632639 0.965057 0.401404
0.158373 0.961776 0.416754
0.973388 0.969207 0.535515
0.96289 0.894377 0.44303
0.7066 0.966888 0.540002
0.709834 0.966995 0.539315
0.728435 0.967666 0.533623
0.864271 0.973724 0.485008
0.964569 0.973037 0.212375
0.00570687 0 0.997772
0.00570687 0 0.997772
0.883482 0.0116884 0.957382
0.960571 0.382956 0.812085
0.955627 0.674296 0.810254
0.00695811 0.0303349 0.999954
0.00564584 0.00364691 0.99826
0.811841 0.0272374 0.988373
0.95903 0.435981 0.825895
0.955856 0.682551 0.812421
0.0330205 0.618433 0.963989
0.0323949 0.599237 0.964553
0.515099 0.584344 0.962386
0.955322 0.645289 0.865843
0.958434 0.728756 0.826566
0.0940719 0.944793 0.936492
0.0939345 0.943572 0.937041
0.0909895 0.938964 0.938537
0.927794 0.93698 0.942321
0.975708 0.892363 0.877974
0.477302 0.961639 0.942092
0.483803 0.961822 0.942229
0.523964 0.963546 0.942641
0.789136 0.978912 0.943755
0.992081 0.994949 0.888319
0.0738689 0.882887 0.950561
0.0554665 0.792477 0.957794
0.176761 0.469688 0.970626
0.961456 0.30988 0.971099
0.957092 0.506172 0.963806
0.0784314 0.895781 0.947601
0.0551003 0.787945 0.956832
0.162554 0.505638 0.96849
0.960555 0.350973 0.969528
0.956893 0.514672 0.963439
0.070161 0.865187 0.953811
0.059678 0.813031 0.956161
0.0802625 0.67245 0.961425
0.944762 0.542351 0.963424
0.955474 0.566278 0.960876
0.0999466 0.955489 0.931105
0.0997635 0.95523 0.931197
0.0960403 0.947967 0.935424
0.819425 0.899519 0.969558
0.969268 0.822095 0.971206
0.299641 0.957549 0.93901
0.306966 0.95761 0.939116
0.352895 0.958694 0.940597
0.681392 0.971099 0.959381
1 1 1
