packages/webcomponents/examples/FLog2C_to_ACROS_VLog.cube
TITLE "Generated by Resolve"
#LUMIXPHOTOSTYLE VLOG
LUT_3D_SIZE 5
0 0 0
0.0861982 0.0861982 0.0861982
0.558587 0.558587 0.558587
0.56112 0.56112 0.56112
0.691737 0.691737 0.691737
0.0867933 0.0867933 0.0867933
0.0651865 0.0651865 0.0651865
0.412894 0.412894 0.412894
0.591196 0.591196 0.591196
0.696147 0.696147 0.696147
0.441215 0.441215 0.441215
0.437446 0.437446 0.437446
0.551781 0.551781 0.551781
0.697795 0.697795 0.697795
0.721706 0.721706 0.721706
0.775311 0.775311 0.775311
0.780896 0.780896 0.780896
0.813382 0.813382 0.813382
0.872755 0.872755 0.872755
0.834714 0.834714 0.834714
0.851881 0.851881 0.851881
0.852262 0.852262 0.852262
0.854429 0.854429 0.854429
0.877531 0.877531 0.877531
0.884764 0.884764 0.884764
0.00639353 0.00639353 0.00639353
0.0675822 0.0675822 0.0675822
0.555322 0.555322 0.555322
0.567544 0.567544 0.567544
0.691829 0.691829 0.691829
0.144732 0.144732 0.144732
0.0771649 0.0771649 0.0771649
0.384604 0.384604 0.384604
0.600397 0.600397 0.600397
0.696193 0.696193 0.696193
0.517647 0.517647 0.517647
0.494087 0.494087 0.494087
0.573617 0.573617 0.573617
0.713695 0.713695 0.713695
0.721706 0.721706 0.721706
0.764797 0.764797 0.764797
0.76994 0.76994 0.76994
0.799725 0.799725 0.799725
0.882811 0.882811 0.882811
0.834714 0.834714 0.834714
0.871702 0.871702 0.871702
0.872053 0.872053 0.872053
0.874022 0.874022 0.874022
0.890013 0.890013 0.890013
0.884764 0.884764 0.884764
0.0525521 0.0525521 0.0525521
0.0919051 0.0919051 0.0919051
0.526925 0.526925 0.526925
0.591516 0.591516 0.591516
0.739055 0.739055 0.739055
0.253483 0.253483 0.253483
0.136294 0.136294 0.136294
0.389578 0.389578 0.389578
0.629435 0.629435 0.629435
0.744289 0.744289 0.744289
0.619989 0.619989 0.619989
0.593942 0.593942 0.593942
0.656016 0.656016 0.656016
0.754269 0.754269 0.754269
0.773877 0.773877 0.773877
0.821591 0.821591 0.821591
0.825849 0.825849 0.825849
0.853193 0.853193 0.853193
0.945006 0.945006 0.945006
0.891173 0.891173 0.891173
0.907485 0.907485 0.907485
0.907897 0.907897 0.907897
0.910613 0.910613 0.910613
0.933013 0.933013 0.933013
0.924346 0.924346 0.924346
0.135637 0.135637 0.135637
0.12961 0.12961 0.12961
0.349798 0.349798 0.349798
0.611276 0.611276 0.611276
0.758831 0.758831 0.758831
0.232929 0.232929 0.232929
0.18584 0.18584 0.18584
0.388708 0.388708 0.388708
0.640711 0.640711 0.640711
0.76408 0.76408 0.76408
0.553445 0.553445 0.553445
0.54313 0.54313 0.54313
0.637781 0.637781 0.637781
0.751675 0.751675 0.751675
0.794064 0.794064 0.794064
0.825223 0.825223 0.825223
0.82826 0.82826 0.82826
0.848676 0.848676 0.848676
0.94403 0.94403 0.94403
0.917189 0.917189 0.917189
0.918105 0.918105 0.918105
0.918608 0.918608 0.918608
0.922194 0.922194 0.922194
0.952773 0.952773 0.952773
0.985367 0.985367 0.985367
0.739223 0.739223 0.739223
0.665217 0.665217 0.665217
0.535409 0.535409 0.535409
0.59324 0.59324 0.59324
0.705196 0.705196 0.705196
0.750454 0.750454 0.750454
0.66244 0.66244 0.66244
0.553323 0.553323 0.553323
0.610361 0.610361 0.610361
0.709194 0.709194 0.709194
0.724437 0.724437 0.724437
0.681422 0.681422 0.681422
0.640253 0.640253 0.640253
0.693355 0.693355 0.693355
0.734325 0.734325 0.734325
0.820386 0.820386 0.820386
0.822705 0.822705 0.822705
0.838361 0.838361 0.838361
0.900008 0.900008 0.900008
0.87335 0.87335 0.87335
0.904891 0.904891 0.904891
0.905394 0.905394 0.905394
0.90866 0.90866 0.90866
0.93753 0.93753 0.93753
1 1 1
