packages/webcomponents/examples/FLog2C_to_CLASSIC-CHROME_VLog.cube
TITLE "Generated by Resolve"
#LUMIXPHOTOSTYLE VLOG
LUT_3D_SIZE 9
0 0 0
0.00642405 0.00106813 0.000183108
0.310567 0.00939956 0.0180056
0.89984 0.115312 0.197787
0.95877 0.374456 0.4486
0.95877 0.374456 0.4486
0.958892 0.377874 0.44712
0.957748 0.473915 0.410574
0.952621 0.605692 0.339788
0.000869764 0.00463874 0.00047303
0.00221256 0.000579843 0
0.189471 0.0055848 0.00816358
0.732235 0.0514534 0.0926986
0.961807 0.27425 0.389624
0.95877 0.374456 0.4486
0.957824 0.396765 0.439475
0.957748 0.484306 0.406241
0.952483 0.609812 0.336461
9.15541e-05 0.131121 0.000244144
0.000793469 0.0721447 0.000396735
0.0841382 0.0506752 0
0.510201 0.0661326 0.0232242
0.963149 0.224018 0.286793
0.95819 0.393668 0.441596
0.95819 0.422217 0.430488
0.957626 0.496559 0.399451
0.952331 0.614633 0.33257
0.00209049 0.472404 0.000564584
0.000442512 0.328664 0.00047303
0.01944 0.279362 0.000747692
0.36492 0.254978 0.000503548
0.860273 0.344167 0.0898604
0.957137 0.486229 0.398779
0.957549 0.486793 0.404578
0.954421 0.531075 0.384314
0.951934 0.628061 0.321859
0.019852 0.728511 0.00914015
0.0171054 0.699321 0.00598154
0.0144198 0.67509 0.00355535
0.258106 0.634272 0.0147402
0.753536 0.619745 0.0486915
0.951614 0.657038 0.190066
0.952193 0.61796 0.330205
0.953079 0.614893 0.332357
0.951873 0.666438 0.285267
0.0430915 0.923079 0.029099
0.0420233 0.916838 0.0277562
0.0418097 0.911208 0.0282597
0.141085 0.897124 0.0333104
0.659525 0.872618 0.0979171
0.95462 0.865843 0.157305
0.951232 0.785641 0.127657
0.951095 0.751827 0.164782
0.950545 0.748898 0.170687
0.0601053 0.967529 0.0358892
0.0645914 0.967636 0.0366217
0.0778973 0.96762 0.0382086
0.207691 0.965652 0.0508583
0.534554 0.961257 0.105547
0.867948 0.969924 0.1785
0.960403 0.937057 0.188769
0.957321 0.895262 0.170275
0.955108 0.867689 0.157443
0.344854 0.963195 0.0706798
0.355123 0.963012 0.072221
0.367742 0.962768 0.0741131
0.40119 0.962234 0.0803235
0.499565 0.961318 0.100114
0.716991 0.96408 0.144183
0.950957 0.973312 0.204089
0.964569 0.973037 0.212375
0.963821 0.971923 0.210346
0.755932 0.96527 0.150927
0.757488 0.965316 0.151263
0.759274 0.965347 0.151659
0.763943 0.965499 0.152712
0.777111 0.966064 0.155917
0.817395 0.967773 0.165698
0.906065 0.97026 0.190494
0.964569 0.973037 0.212375
0.964569 0.973037 0.212375
0 0 0
0.00389105 0.000518807 0
0.281468 0.00758373 0.0143282
0.875502 0.103716 0.175845
0.95877 0.374456 0.4486
0.95877 0.374456 0.4486
0.958923 0.378042 0.447074
0.957748 0.474067 0.410513
0.952621 0.605798 0.339696
0.000183108 0.00480659 0.00375372
0.000183108 9.15541e-05 6.10361e-05
0.164019 0.00486763 0.00686656
0.693812 0.0418708 0.081529
0.962463 0.259663 0.380529
0.95877 0.374456 0.4486
0.957855 0.398764 0.439872
0.957748 0.484459 0.40618
0.952483 0.609903 0.33637
0 0.150072 0.00581369
7.62951e-05 0.0794385 1.5259e-05
0.06804 0.0563211 9.15541e-05
0.474159 0.0690318 0.0170138
0.95996 0.217105 0.260471
0.958358 0.398184 0.439231
0.957778 0.423835 0.431144
0.957626 0.496712 0.399359
0.952316 0.614725 0.332494
0.00315862 0.504417 4.57771e-05
0.000244144 0.350942 6.10361e-05
0.00741588 0.291752 0.000320439
0.332341 0.265888 0.000183108
0.839399 0.346685 0.0695964
0.957427 0.487861 0.386267
0.95697 0.487434 0.403723
0.954437 0.531167 0.384253
0.951934 0.628061 0.321859
0.0206149 0.744076 0.00956741
0.0180209 0.713405 0.00683604
0.0159762 0.688685 0.00514229
0.214939 0.64741 0.0120699
0.728832 0.630625 0.0490883
0.951476 0.667674 0.172625
0.952743 0.621134 0.32961
0.953079 0.614893 0.332357
0.951873 0.666438 0.285267
0.0454261 0.934173 0.0307774
0.0429084 0.929625 0.0298619
0.0421759 0.923674 0.0288396
0.0785534 0.908431 0.0299687
0.611749 0.881331 0.0937667
0.954314 0.872831 0.159777
0.951171 0.789197 0.128389
0.951095 0.751827 0.164782
0.950545 0.748898 0.170687
0.0478676 0.967224 0.0339208
0.0478981 0.967224 0.0339208
0.0507362 0.967178 0.0341955
0.0923171 0.966628 0.0381476
0.414679 0.962066 0.0832532
0.829786 0.967651 0.170077
0.961334 0.946426 0.192767
0.957321 0.895262 0.170275
0.955108 0.867689 0.157443
0.285786 0.964157 0.0620279
0.29604 0.963912 0.0635233
0.309178 0.963607 0.0654307
0.343557 0.963073 0.0710307
0.443259 0.96202 0.0882734
0.66392 0.962814 0.132982
0.921447 0.971374 0.195178
0.964569 0.973037 0.212375
0.963821 0.971923 0.210346
0.745876 0.964523 0.150118
0.747539 0.964569 0.1505
0.749325 0.964599 0.150896
0.754025 0.964752 0.151995
0.767681 0.965316 0.155489
0.809567 0.966964 0.166125
0.899702 0.970489 0.188678
0.964569 0.973037 0.212375
0.964569 0.973037 0.212375
0.000213626 0.000274662 0.0474861
0.000961318 0.000564584 0.0269322
0.242359 0.00654612 0.0224613
0.839841 0.0864881 0.14905
0.958816 0.370199 0.445792
0.95877 0.374456 0.4486
0.958618 0.385962 0.442924
0.957794 0.48249 0.407401
0.952621 0.605905 0.33962
1.5259e-05 0.00238041 0.0985122
0.000183108 0.000366217 0.057084
0.143023 0.000793469 0.0418708
0.64242 0.0296941 0.0897078
0.963027 0.234119 0.364065
0.95877 0.374456 0.4486
0.957885 0.412131 0.434333
0.957336 0.493019 0.403494
0.952483 0.609903 0.33637
0.000427253 0.180713 0.206394
7.62951e-05 0.0954604 0.102281
0.0568246 0.0633097 0.0659342
0.448325 0.0690623 0.0809644
0.937118 0.202991 0.26482
0.957961 0.409598 0.435752
0.957427 0.438941 0.424949
0.956741 0.505959 0.396811
0.952316 0.614725 0.332494
0.010193 0.555215 0.237751
0.000656138 0.406058 0.114015
0.000503548 0.33959 0.0762341
0.31342 0.294011 0.0689403
0.814496 0.349187 0.16817
0.956619 0.494926 0.40856
0.957076 0.505745 0.395941
0.956115 0.53994 0.379126
0.951934 0.628153 0.321782
0.0235752 0.77319 0.0207065
0.0206149 0.745403 0.01178
0.0185855 0.721233 0.0090486
0.157427 0.677562 0.0124361
0.700069 0.648417 0.0652171
0.951812 0.685191 0.307698
0.952453 0.643046 0.362936
0.952377 0.62591 0.325246
0.951873 0.666438 0.285267
0.0458381 0.947112 0.032166
0.0459144 0.942046 0.0318151
0.0452277 0.936187 0.0307317
0.0459449 0.922316 0.0285649
0.547799 0.89305 0.0852827
0.937041 0.879683 0.157153
0.953155 0.8038 0.237125
0.950423 0.763226 0.148074
0.950545 0.748898 0.170687
0.0478676 0.967224 0.0339208
0.0478676 0.967224 0.0339208
0.0478828 0.967224 0.0339208
0.048249 0.967269 0.0340734
0.330297 0.963256 0.0699779
0.797238 0.966445 0.164157
0.96286 0.959503 0.199603
0.957839 0.906615 0.173938
0.955108 0.867689 0.157443
0.250095 0.96434 0.0576333
0.260334 0.964141 0.0589761
0.273136 0.963912 0.0606546
0.307713 0.963287 0.0660868
0.410971 0.961501 0.0838941
0.635309 0.962707 0.125673
0.903044 0.970687 0.190265
0.964569 0.973037 0.212375
0.963821 0.971923 0.210346
0.737133 0.964797 0.148043
0.738689 0.964843 0.148394
0.74049 0.964889 0.148791
0.745266 0.965057 0.149889
0.759014 0.965515 0.153323
0.80119 0.966918 0.164141
0.892226 0.970352 0.184863
0.964569 0.973037 0.212375
0.964569 0.973037 0.212375
0.00030518 3.0518e-05 0.203143
0 0.000122072 0.147112
0.240833 0.00015259 0.115084
0.816098 0.0626993 0.221942
0.959167 0.364034 0.456855
0.960266 0.379705 0.478828
0.959533 0.408957 0.495827
0.956802 0.511254 0.459907
0.95285 0.628717 0.322164
0.002121 4.57771e-05 0.341009
4.57771e-05 0 0.236378
0.134966 0.000488289 0.176928
0.615457 0.0101167 0.222171
0.965209 0.184237 0.452857
0.959396 0.391852 0.52253
0.958877 0.435874 0.502068
0.95671 0.522606 0.460945
0.952728 0.63267 0.319249
0.00254826 0.206149 0.548562
0.00151064 0.108003 0.377722
0.046128 0.0664225 0.276356
0.447562 0.0668193 0.260426
0.915999 0.179492 0.403067
0.959304 0.440558 0.54287
0.958679 0.46453 0.509636
0.95613 0.536248 0.461021
0.952575 0.637415 0.315297
0.0223697 0.58912 0.623636
0.00770581 0.44947 0.471199
0.00263981 0.378485 0.393423
0.305257 0.319417 0.332815
0.801465 0.351781 0.379599
0.957092 0.508858 0.543114
0.955352 0.532998 0.523476
0.954559 0.571191 0.46125
0.952224 0.651118 0.302068
0.0397192 0.790372 0.491356
0.0351873 0.764202 0.448173
0.032105 0.7411 0.416251
0.108827 0.699809 0.367407
0.681422 0.665049 0.370062
0.95346 0.695735 0.513497
0.953246 0.661631 0.535378
0.953063 0.654475 0.457847
0.951827 0.68896 0.256947
0.0504005 0.947494 0.163363
0.0493324 0.943755 0.157076
0.0486915 0.93962 0.151446
0.0476081 0.927718 0.141665
0.477989 0.902052 0.186969
0.914946 0.884382 0.34168
0.958694 0.816159 0.49012
0.954376 0.782849 0.409903
0.950729 0.769863 0.162203
0.0478676 0.967224 0.0339208
0.0478676 0.967224 0.0339208
0.0478676 0.967224 0.0339208
0.0478676 0.967224 0.0339208
0.222705 0.965026 0.0530709
0.745983 0.96466 0.150225
0.964309 0.963134 0.200107
0.958587 0.9122 0.185733
0.956298 0.884459 0.165927
0.215442 0.965377 0.0520638
0.224338 0.96527 0.0531624
0.235309 0.965118 0.0545357
0.267979 0.964538 0.0592966
0.369482 0.962463 0.0753338
0.598001 0.962051 0.118334
0.876387 0.968978 0.18175
0.964569 0.973037 0.212375
0.964569 0.973037 0.212375
0.717952 0.964157 0.144427
0.719676 0.964187 0.144823
0.721538 0.964233 0.145159
0.726497 0.96434 0.146288
0.740902 0.964782 0.149798
0.785275 0.966171 0.160433
0.878294 0.969345 0.184817
0.964569 0.973037 0.212375
0.964569 0.973037 0.212375
0.00418097 0.000244144 0.521843
0.00225834 3.0518e-05 0.429801
0.254734 0 0.327245
0.804349 0.0265202 0.398306
0.960876 0.328954 0.551339
0.960449 0.386679 0.582864
0.959106 0.432944 0.601602
0.954421 0.548974 0.608286
0.953231 0.6636 0.564279
0.00347906 0.000259403 0.720851
0.00297551 0.000122072 0.609857
0.11632 7.62951e-05 0.483131
0.589639 9.15541e-05 0.466712
0.966079 0.100496 0.600046
0.959014 0.389059 0.613993
0.958175 0.464897 0.6159
0.953552 0.559823 0.611185
0.953201 0.667323 0.564584
0.00424201 0.196796 0.848325
0.00393683 0.103975 0.730785
0.0263523 0.0586252 0.621866
0.453315 0.0520638 0.551812
0.898604 0.147204 0.599725
0.959152 0.434638 0.638819
0.957168 0.49778 0.62826
0.953674 0.571786 0.614572
0.953216 0.67158 0.564767
0.0285039 0.593729 0.870817
0.0146487 0.469291 0.784268
0.00950637 0.401999 0.731685
0.289525 0.337987 0.657511
0.792111 0.347433 0.632624
0.957031 0.509041 0.678904
0.95465 0.571283 0.655909
0.953445 0.604303 0.623667
0.953292 0.683436 0.565194
0.0518349 0.799176 0.814496
0.0477455 0.775784 0.78996
0.0438239 0.75436 0.766659
0.0644083 0.71368 0.72282
0.661814 0.676692 0.68806
0.956054 0.698405 0.717784
0.954879 0.684932 0.688396
0.953292 0.677241 0.638712
0.953643 0.717037 0.564263
0.0719463 0.928862 0.706371
0.0708629 0.926299 0.700816
0.0707256 0.922759 0.695766
0.0660258 0.914977 0.680323
0.385946 0.894041 0.667399
0.893172 0.883711 0.691569
0.963348 0.826246 0.702678
0.959457 0.793622 0.646433
0.957855 0.790585 0.549371
0.0630503 0.965011 0.402152
0.0631723 0.965026 0.401785
0.0632639 0.965057 0.401404
0.0631266 0.965209 0.403037
0.158373 0.961776 0.416754
0.68278 0.965499 0.453834
0.973388 0.969207 0.535515
0.968261 0.918502 0.550149
0.96289 0.894377 0.44303
0.239078 0.961761 0.293095
0.245579 0.961639 0.291463
0.254261 0.961501 0.288594
0.280003 0.961196 0.281147
0.361257 0.96054 0.259342
0.559564 0.96144 0.21033
0.836805 0.968246 0.181994
0.964736 0.974044 0.219852
0.964569 0.973037 0.212375
0.7066 0.966888 0.540002
0.70811 0.966949 0.539803
0.709834 0.966995 0.539315
0.714595 0.967163 0.537865
0.728435 0.967666 0.533623
0.771664 0.969253 0.519768
0.864271 0.973724 0.485008
0.970062 0.978729 0.386191
0.964569 0.973037 0.212375
0.00485237 7.62951e-05 0.883238
0.00537118 4.57771e-05 0.829969
0.183124 0.000228885 0.712123
0.712688 0.00329595 0.675334
0.969009 0.0774243 0.750088
0.959442 0.320089 0.694133
0.961074 0.411337 0.698985
0.955001 0.552529 0.70985
0.956603 0.690776 0.726696
0.00567636 0 0.996567
0.00563058 0.00015259 0.944015
0.0305638 0.000427253 0.852567
0.533501 3.0518e-05 0.786358
0.932677 0.0310216 0.779812
0.961181 0.353063 0.724269
0.960052 0.442466 0.708934
0.954971 0.564706 0.714153
0.956847 0.693797 0.727764
0.00634775 0.115831 0.999756
0.00505074 0.0542153 0.980789
0.00486763 0.021912 0.909743
0.427085 0.0175021 0.843961
0.87129 0.0962844 0.802731
0.960571 0.373159 0.756069
0.95819 0.47422 0.719997
0.955139 0.578531 0.719356
0.95668 0.697459 0.728588
0.0221561 0.510353 0.970657
0.0166018 0.438758 0.976669
0.0117037 0.376974 0.951507
0.23151 0.315755 0.894697
0.775326 0.315618 0.839475
0.957595 0.461189 0.812055
0.954574 0.552529 0.742809
0.954208 0.615488 0.731456
0.956191 0.707958 0.730922
0.0496376 0.754223 0.957549
0.0483406 0.741009 0.955139
0.045716 0.728496 0.947478
0.0419318 0.700618 0.926024
0.627192 0.672206 0.887449
0.956359 0.675166 0.864912
0.95581 0.687556 0.785367
0.956786 0.696651 0.759838
0.957519 0.73637 0.737377
0.0750134 0.895201 0.906065
0.0748608 0.892607 0.902174
0.0733654 0.890028 0.899428
0.0708934 0.882795 0.89134
0.246632 0.866835 0.871977
0.852537 0.862165 0.869642
0.967269 0.831632 0.836728
0.962585 0.802411 0.793439
0.962097 0.799466 0.749737
0.0887465 0.958801 0.778149
0.0888991 0.958831 0.777462
0.0890974 0.958846 0.776974
0.0894942 0.95874 0.776165
0.0875563 0.959014 0.771099
0.571923 0.964187 0.786603
0.972992 0.965072 0.81265
0.975784 0.91809 0.791608
0.971649 0.89691 0.739437
0.129259 0.958953 0.719234
0.133196 0.958923 0.718517
0.137804 0.958877 0.717525
0.165606 0.958709 0.715785
0.272831 0.958236 0.713359
0.537362 0.96286 0.715862
0.821698 0.97612 0.699657
0.980682 0.986557 0.660822
0.976822 0.983871 0.573114
0.668315 0.968658 0.811399
0.670848 0.96878 0.811429
0.673014 0.968872 0.811521
0.679698 0.969207 0.811704
0.697765 0.970138 0.812146
0.753796 0.973022 0.813504
0.848096 0.980316 0.810452
0.984405 0.990524 0.775311
0.979355 0.98555 0.637842
0.00570687 0 0.997772
0.00570687 0 0.997772
0.00570687 0 0.997772
0.403189 3.0518e-05 0.999466
0.883482 0.0116884 0.957382
0.96318 0.210025 0.865629
0.960571 0.382956 0.812085
0.95584 0.517372 0.804608
0.955627 0.674296 0.810254
0.00570687 0 0.997772
0.00570687 0 0.997772
0.00570687 0 0.997772
0.331395 0.000213626 0.99942
0.847227 0.0103609 0.979492
0.963745 0.227436 0.892241
0.960632 0.407584 0.819242
0.955703 0.529442 0.807645
0.955734 0.678035 0.811246
0.00695811 0.0303349 0.999954
0.00546273 0.0127718 0.998734
0.00564584 0.00364691 0.99826
0.251072 0.00172427 0.99971
0.811841 0.0272374 0.988373
0.961883 0.25951 0.915557
0.95903 0.435981 0.825895
0.955383 0.543267 0.811566
0.955856 0.682551 0.812421
0.00848402 0.306966 0.991211
0.00758373 0.264805 0.994339
0.0065156 0.237842 0.995773
0.110033 0.228885 0.994186
0.718395 0.231846 0.976089
0.961898 0.353979 0.962386
0.955627 0.508263 0.838468
0.954299 0.57969 0.818921
0.956161 0.695109 0.815702
0.0330205 0.618433 0.963989
0.0323796 0.608118 0.965164
0.0323949 0.599237 0.964553
0.0305791 0.587915 0.966552
0.515099 0.584344 0.962386
0.923568 0.593652 0.960021
0.955322 0.645289 0.865843
0.95581 0.664363 0.838621
0.958434 0.728756 0.826566
0.0608835 0.823423 0.955642
0.0601053 0.822095 0.95639
0.0598001 0.819944 0.95642
0.059266 0.814313 0.955871
0.180102 0.805188 0.956313
0.777783 0.8103 0.961242
0.966323 0.802701 0.924376
0.96434 0.78761 0.872053
0.96376 0.799893 0.850187
0.0940719 0.944793 0.936492
0.0940108 0.944213 0.936736
0.0939345 0.943572 0.937041
0.0936294 0.942504 0.937896
0.0909895 0.938964 0.938537
0.407034 0.929519 0.934936
0.927794 0.93698 0.942321
0.978546 0.90985 0.909163
0.975708 0.892363 0.877974
0.0986343 0.957809 0.916228
0.0986191 0.957824 0.91574
0.0985885 0.957839 0.915084
0.0984207 0.957839 0.913176
0.0977493 0.957717 0.907057
0.311925 0.958633 0.893584
0.77763 0.976669 0.893599
0.991455 0.994537 0.883131
0.989319 0.991058 0.850416
0.477302 0.961639 0.942092
0.479988 0.961715 0.942138
0.483803 0.961822 0.942229
0.493584 0.962158 0.942382
0.523964 0.963546 0.942641
0.617182 0.967803 0.943404
0.789136 0.978912 0.943755
0.968414 0.994705 0.941222
0.992081 0.994949 0.888319
0.0160067 0.424048 0.979187
0.0121004 0.3608 0.984558
0.005066 0.046952 0.999863
0.00840772 0.000122072 0.998428
0.572091 0.00117494 0.999542
0.962875 0.0732891 0.981247
0.961563 0.338231 0.936996
0.957687 0.4551 0.90959
0.955993 0.619837 0.897734
0.0222629 0.497002 0.97351
0.0140383 0.387839 0.981888
0.00627146 0.0992599 0.999496
0.00646983 0.000366217 0.998123
0.542535 0.00262455 0.999634
0.956481 0.104417 0.980407
0.961913 0.355901 0.939895
0.957305 0.465705 0.911131
0.956146 0.623697 0.898344
0.0278782 0.567666 0.968643
0.0138399 0.408087 0.977951
0.00553903 0.162402 0.999527
0.00569162 0.00614939 0.998398
0.508721 0.0156405 0.999207
0.937697 0.142519 0.976822
0.961761 0.375814 0.94345
0.956847 0.477791 0.913024
0.956313 0.628336 0.899001
0.0394141 0.666773 0.96144
0.0193332 0.468284 0.974197
0.00979629 0.32784 0.987243
0.00914015 0.143954 0.999664
0.432258 0.141573 0.990127
0.894545 0.25275 0.97322
0.959213 0.431327 0.949416
0.955825 0.511742 0.91783
0.956786 0.641642 0.900862
0.041001 0.680873 0.960708
0.0345922 0.635462 0.96347
0.0302434 0.590875 0.966247
0.0222019 0.498253 0.971649
0.338949 0.422446 0.970565
0.799054 0.477317 0.967773
0.955871 0.54638 0.960082
0.956527 0.59556 0.928878
0.958358 0.679088 0.908125
0.0614786 0.822553 0.956497
0.0584573 0.815702 0.957137
0.0572061 0.806882 0.956832
0.0540475 0.785122 0.957321
0.140612 0.738369 0.957565
0.675425 0.71284 0.957229
0.959197 0.741436 0.96495
0.961501 0.734173 0.9523
0.962692 0.757916 0.92517
0.0931258 0.942458 0.937316
0.0922713 0.94139 0.937636
0.091371 0.940215 0.937972
0.0908675 0.935607 0.939345
0.088426 0.920745 0.943786
0.390097 0.893797 0.951461
0.86334 0.881971 0.970916
0.976226 0.876158 0.975845
0.97438 0.867582 0.951156
0.0997177 0.957092 0.933379
0.0997787 0.957153 0.93344
0.0998398 0.957214 0.933501
0.0999313 0.957259 0.933776
0.0999313 0.957061 0.934783
0.15227 0.956374 0.936721
0.682078 0.971267 0.958892
0.987549 0.994705 0.994385
0.991684 0.978943 0.9738
0.39678 0.958831 0.942382
0.399985 0.958877 0.942504
0.403677 0.958938 0.942641
0.414878 0.959197 0.943084
0.446082 0.960327 0.94464
0.541176 0.96379 0.949355
0.73344 0.974075 0.962448
0.94049 0.993378 0.988235
0.999863 0.999985 0.999725
0.0738689 0.882887 0.950561
0.0738994 0.882994 0.950545
0.0554665 0.792477 0.957794
0.0372625 0.640787 0.96286
0.176761 0.469688 0.970626
0.698863 0.343832 0.970672
0.961456 0.30988 0.971099
0.961959 0.352773 0.970779
0.957092 0.506172 0.963806
0.0755016 0.889662 0.949355
0.0755169 0.889769 0.949325
0.0551308 0.790326 0.957504
0.0387732 0.652003 0.961761
0.170809 0.486732 0.969482
0.694728 0.363653 0.970459
0.960891 0.32961 0.97023
0.962097 0.361639 0.970764
0.957 0.509972 0.963653
0.0784314 0.895781 0.947601
0.076997 0.885283 0.950088
0.0551003 0.787945 0.956832
0.0394446 0.662562 0.961364
0.162554 0.505638 0.96849
0.689754 0.387533 0.970245
0.960555 0.350973 0.969528
0.962264 0.371923 0.970748
0.956893 0.514672 0.963439
0.0862287 0.912917 0.942794
0.0646525 0.855573 0.955383
0.0555581 0.790509 0.956542
0.0416266 0.693568 0.961425
0.138888 0.55819 0.96585
0.67599 0.451942 0.968765
0.960357 0.40531 0.968383
0.961425 0.400717 0.96936
0.956573 0.527733 0.962875
0.070161 0.865187 0.953811
0.0639963 0.837659 0.956207
0.059678 0.813031 0.956161
0.0514992 0.761669 0.957382
0.0802625 0.67245 0.961425
0.645014 0.594415 0.961852
0.944762 0.542351 0.963424
0.958175 0.482292 0.964492
0.955474 0.566278 0.960876
0.0788128 0.890852 0.948837
0.0765393 0.885496 0.950408
0.0735637 0.878935 0.951568
0.0680705 0.861616 0.95462
0.0607004 0.822568 0.956039
0.555611 0.770306 0.954833
0.893141 0.739925 0.961959
0.957519 0.667765 0.962051
0.957855 0.667124 0.961898
0.0999466 0.955489 0.931105
0.099855 0.955367 0.931151
0.0997635 0.95523 0.931197
0.0991684 0.953841 0.932937
0.0960403 0.947967 0.935424
0.181704 0.919509 0.944991
0.819425 0.899519 0.969558
0.975601 0.868177 0.976638
0.969268 0.822095 0.971206
0.099382 0.956756 0.933043
0.0994278 0.956802 0.933089
0.0994736 0.956847 0.933135
0.0995956 0.95697 0.933257
0.0998703 0.957244 0.933532
0.100114 0.957 0.935332
0.61326 0.967254 0.953246
0.966339 0.995666 0.990723
0.992798 0.976562 0.993729
0.299641 0.957549 0.93901
0.302693 0.95758 0.939055
0.306966 0.95761 0.939116
0.31841 0.957748 0.939345
0.352895 0.958694 0.940597
0.458991 0.961593 0.944457
0.681392 0.971099 0.959381
0.916426 0.990692 0.984497
1 1 1
