packages/webcomponents/examples/FLog2C_to_ACROS_VLog.cube
TITLE "Generated by Resolve"
#LUMIXPHOTOSTYLE VLOG
LUT_3D_SIZE 9
0 0 0
0.00373846 0.00373846 0.00373846
0.0861982 0.0861982 0.0861982
0.312154 0.312154 0.312154
0.558587 0.558587 0.558587
0.558587 0.558587 0.558587
0.56112 0.56112 0.56112
0.621271 0.621271 0.621271
0.691737 0.691737 0.691737
0.00404364 0.00404364 0.00404364
0.00112917 0.00112917 0.00112917
0.0531777 0.0531777 0.0531777
0.216953 0.216953 0.216953
0.47863 0.47863 0.47863
0.558587 0.558587 0.558587
0.574044 0.574044 0.574044
0.626886 0.626886 0.626886
0.693767 0.693767 0.693767
0.0867933 0.0867933 0.0867933
0.0526436 0.0526436 0.0526436
0.0651865 0.0651865 0.0651865
0.168505 0.168505 0.168505
0.412894 0.412894 0.412894
0.571023 0.571023 0.571023
0.591196 0.591196 0.591196
0.633783 0.633783 0.633783
0.696147 0.696147 0.696147
0.276188 0.276188 0.276188
0.201617 0.201617 0.201617
0.193469 0.193469 0.193469
0.249134 0.249134 0.249134
0.42916 0.42916 0.42916
0.625635 0.625635 0.625635
0.628412 0.628412 0.628412
0.652644 0.652644 0.652644
0.702693 0.702693 0.702693
0.441215 0.441215 0.441215
0.433356 0.433356 0.433356
0.437446 0.437446 0.437446
0.465217 0.465217 0.465217
0.551781 0.551781 0.551781
0.683055 0.683055 0.683055
0.697795 0.697795 0.697795
0.696132 0.696132 0.696132
0.721706 0.721706 0.721706
0.679225 0.679225 0.679225
0.682734 0.682734 0.682734
0.687404 0.687404 0.687404
0.70074 0.70074 0.70074
0.737316 0.737316 0.737316
0.802609 0.802609 0.802609
0.785748 0.785748 0.785748
0.766918 0.766918 0.766918
0.76582 0.76582 0.76582
0.775311 0.775311 0.775311
0.777874 0.777874 0.777874
0.780896 0.780896 0.780896
0.789425 0.789425 0.789425
0.813382 0.813382 0.813382
0.863188 0.863188 0.863188
0.872755 0.872755 0.872755
0.85156 0.85156 0.85156
0.834714 0.834714 0.834714
0.806729 0.806729 0.806729
0.807401 0.807401 0.807401
0.808225 0.808225 0.808225
0.810636 0.810636 0.810636
0.818158 0.818158 0.818158
0.842405 0.842405 0.842405
0.884108 0.884108 0.884108
0.884764 0.884764 0.884764
0.884764 0.884764 0.884764
0.851881 0.851881 0.851881
0.852064 0.852064 0.852064
0.852262 0.852262 0.852262
0.852796 0.852796 0.852796
0.854429 0.854429 0.854429
0.860166 0.860166 0.860166
0.877531 0.877531 0.877531
0.884764 0.884764 0.884764
0.884764 0.884764 0.884764
0 0 0
0.00177005 0.00177005 0.00177005
0.0776074 0.0776074 0.0776074
0.295369 0.295369 0.295369
0.558587 0.558587 0.558587
0.558587 0.558587 0.558587
0.561227 0.561227 0.561227
0.621363 0.621363 0.621363
0.691783 0.691783 0.691783
0.00726329 0.00726329 0.00726329
0.000106813 0.000106813 0.000106813
0.0452888 0.0452888 0.0452888
0.200793 0.200793 0.200793
0.464591 0.464591 0.464591
0.558587 0.558587 0.558587
0.575006 0.575006 0.575006
0.626963 0.626963 0.626963
0.693812 0.693812 0.693812
0.105287 0.105287 0.105287
0.0582589 0.0582589 0.0582589
0.0660868 0.0660868 0.0660868
0.161761 0.161761 0.161761
0.400778 0.400778 0.400778
0.574868 0.574868 0.574868
0.591394 0.591394 0.591394
0.633875 0.633875 0.633875
0.696193 0.696193 0.696193
0.303273 0.303273 0.303273
0.215656 0.215656 0.215656
0.199786 0.199786 0.199786
0.248768 0.248768 0.248768
0.421881 0.421881 0.421881
0.624231 0.624231 0.624231
0.628946 0.628946 0.628946
0.652689 0.652689 0.652689
0.702693 0.702693 0.702693
0.454246 0.454246 0.454246
0.441016 0.441016 0.441016
0.443137 0.443137 0.443137
0.468589 0.468589 0.468589
0.552041 0.552041 0.552041
0.683986 0.683986 0.683986
0.698985 0.698985 0.698985
0.696132 0.696132 0.696132
0.721706 0.721706 0.721706
0.682597 0.682597 0.682597
0.686778 0.686778 0.686778
0.691447 0.691447 0.691447
0.703883 0.703883 0.703883
0.738613 0.738613 0.738613
0.804288 0.804288 0.804288
0.787808 0.787808 0.787808
0.766918 0.766918 0.766918
0.76582 0.76582 0.76582
0.767773 0.767773 0.767773
0.770367 0.770367 0.770367
0.773358 0.773358 0.773358
0.781247 0.781247 0.781247
0.804486 0.804486 0.804486
0.855558 0.855558 0.855558
0.876539 0.876539 0.876539
0.85156 0.85156 0.85156
0.834714 0.834714 0.834714
0.802594 0.802594 0.802594
0.80325 0.80325 0.80325
0.804074 0.804074 0.804074
0.80647 0.80647 0.80647
0.813779 0.813779 0.813779
0.835065 0.835065 0.835065
0.87953 0.87953 0.87953
0.884764 0.884764 0.884764
0.884764 0.884764 0.884764
0.860899 0.860899 0.860899
0.861067 0.861067 0.861067
0.861234 0.861234 0.861234
0.861753 0.861753 0.861753
0.863371 0.863371 0.863371
0.86836 0.86836 0.86836
0.880842 0.880842 0.880842
0.884764 0.884764 0.884764
0.884764 0.884764 0.884764
0.00639353 0.00639353 0.00639353
0.00492866 0.00492866 0.00492866
0.0675822 0.0675822 0.0675822
0.271901 0.271901 0.271901
0.555322 0.555322 0.555322
0.558587 0.558587 0.558587
0.567544 0.567544 0.567544
0.626261 0.626261 0.626261
0.691829 0.691829 0.691829
0.0169985 0.0169985 0.0169985
0.00798047 0.00798047 0.00798047
0.0413062 0.0413062 0.0413062
0.182086 0.182086 0.182086
0.440162 0.440162 0.440162
0.558587 0.558587 0.558587
0.584085 0.584085 0.584085
0.632395 0.632395 0.632395
0.693812 0.693812 0.693812
0.144732 0.144732 0.144732
0.0796826 0.0796826 0.0796826
0.0771649 0.0771649 0.0771649
0.163058 0.163058 0.163058
0.384604 0.384604 0.384604
0.582132 0.582132 0.582132
0.600397 0.600397 0.600397
0.639353 0.639353 0.639353
0.696193 0.696193 0.696193
0.370077 0.370077 0.370077
0.265888 0.265888 0.265888
0.238025 0.238025 0.238025
0.273808 0.273808 0.273808
0.427344 0.427344 0.427344
0.62356 0.62356 0.62356
0.639323 0.639323 0.639323
0.657816 0.657816 0.657816
0.702739 0.702739 0.702739
0.517647 0.517647 0.517647
0.495903 0.495903 0.495903
0.494087 0.494087 0.494087
0.508461 0.508461 0.508461
0.573617 0.573617 0.573617
0.701183 0.701183 0.701183
0.713695 0.713695 0.713695
0.701518 0.701518 0.701518
0.721706 0.721706 0.721706
0.710842 0.710842 0.710842
0.713527 0.713527 0.713527
0.717144 0.717144 0.717144
0.728069 0.728069 0.728069
0.755795 0.755795 0.755795
0.816281 0.816281 0.816281
0.809186 0.809186 0.809186
0.773556 0.773556 0.773556
0.76582 0.76582 0.76582
0.764797 0.764797 0.764797
0.767178 0.767178 0.767178
0.76994 0.76994 0.76994
0.777722 0.777722 0.777722
0.799725 0.799725 0.799725
0.849393 0.849393 0.849393
0.882811 0.882811 0.882811
0.857786 0.857786 0.857786
0.834714 0.834714 0.834714
0.799954 0.799954 0.799954
0.80061 0.80061 0.80061
0.801434 0.801434 0.801434
0.803876 0.803876 0.803876
0.811627 0.811627 0.811627
0.831861 0.831861 0.831861
0.876371 0.876371 0.876371
0.884764 0.884764 0.884764
0.884764 0.884764 0.884764
0.871702 0.871702 0.871702
0.871855 0.871855 0.871855
0.872053 0.872053 0.872053
0.872526 0.872526 0.872526
0.874022 0.874022 0.874022
0.878523 0.878523 0.878523
0.890013 0.890013 0.890013
0.887785 0.887785 0.887785
0.884764 0.884764 0.884764
0.0217136 0.0217136 0.0217136
0.016495 0.016495 0.016495
0.067216 0.067216 0.067216
0.25922 0.25922 0.25922
0.549401 0.549401 0.549401
0.560769 0.560769 0.560769
0.57879 0.57879 0.57879
0.644892 0.644892 0.644892
0.703319 0.703319 0.703319
0.0395056 0.0395056 0.0395056
0.0256657 0.0256657 0.0256657
0.0504921 0.0504921 0.0504921
0.173892 0.173892 0.173892
0.420981 0.420981 0.420981
0.56376 0.56376 0.56376
0.596994 0.596994 0.596994
0.651362 0.651362 0.651362
0.705318 0.705318 0.705318
0.19765 0.19765 0.19765
0.11722 0.11722 0.11722
0.101061 0.101061 0.101061
0.179629 0.179629 0.179629
0.384283 0.384283 0.384283
0.595697 0.595697 0.595697
0.615625 0.615625 0.615625
0.659083 0.659083 0.659083
0.707698 0.707698 0.707698
0.43563 0.43563 0.43563
0.330587 0.330587 0.330587
0.293156 0.293156 0.293156
0.31989 0.31989 0.31989
0.452522 0.452522 0.452522
0.633402 0.633402 0.633402
0.658305 0.658305 0.658305
0.680247 0.680247 0.680247
0.714672 0.714672 0.714672
0.575616 0.575616 0.575616
0.552468 0.552468 0.552468
0.550332 0.550332 0.550332
0.563607 0.563607 0.563607
0.616556 0.616556 0.616556
0.727901 0.727901 0.727901
0.737118 0.737118 0.737118
0.728435 0.728435 0.728435
0.733761 0.733761 0.733761
0.748959 0.748959 0.748959
0.752377 0.752377 0.752377
0.756298 0.756298 0.756298
0.768185 0.768185 0.768185
0.796933 0.796933 0.796933
0.848737 0.848737 0.848737
0.836851 0.836851 0.836851
0.807233 0.807233 0.807233
0.779263 0.779263 0.779263
0.799878 0.799878 0.799878
0.802045 0.802045 0.802045
0.804562 0.804562 0.804562
0.811658 0.811658 0.811658
0.832074 0.832074 0.832074
0.877684 0.877684 0.877684
0.915801 0.915801 0.915801
0.886061 0.886061 0.886061
0.846296 0.846296 0.846296
0.822065 0.822065 0.822065
0.822416 0.822416 0.822416
0.822904 0.822904 0.822904
0.824399 0.824399 0.824399
0.829206 0.829206 0.829206
0.842405 0.842405 0.842405
0.88043 0.88043 0.88043
0.892699 0.892699 0.892699
0.884764 0.884764 0.884764
0.88957 0.88957 0.88957
0.889769 0.889769 0.889769
0.889967 0.889967 0.889967
0.890562 0.890562 0.890562
0.892378 0.892378 0.892378
0.897887 0.897887 0.897887
0.910857 0.910857 0.910857
0.911452 0.911452 0.911452
0.884779 0.884779 0.884779
0.0525521 0.0525521 0.0525521
0.0444495 0.0444495 0.0444495
0.0919051 0.0919051 0.0919051
0.257862 0.257862 0.257862
0.526925 0.526925 0.526925
0.56492 0.56492 0.56492
0.591516 0.591516 0.591516
0.663127 0.663127 0.663127
0.739055 0.739055 0.739055
0.0772564 0.0772564 0.0772564
0.0627298 0.0627298 0.0627298
0.078294 0.078294 0.078294
0.180148 0.180148 0.180148
0.38854 0.38854 0.38854
0.572854 0.572854 0.572854
0.610376 0.610376 0.610376
0.670054 0.670054 0.670054
0.741527 0.741527 0.741527
0.253483 0.253483 0.253483
0.165225 0.165225 0.165225
0.136294 0.136294 0.136294
0.208911 0.208911 0.208911
0.389578 0.389578 0.389578
0.599893 0.599893 0.599893
0.629435 0.629435 0.629435
0.678111 0.678111 0.678111
0.744289 0.744289 0.744289
0.482597 0.482597 0.482597
0.392401 0.392401 0.392401
0.352041 0.352041 0.352041
0.375891 0.375891 0.375891
0.48278 0.48278 0.48278
0.641978 0.641978 0.641978
0.672999 0.672999 0.672999
0.699763 0.699763 0.699763
0.751934 0.751934 0.751934
0.619989 0.619989 0.619989
0.596597 0.596597 0.596597
0.593942 0.593942 0.593942
0.609049 0.609049 0.609049
0.656016 0.656016 0.656016
0.749645 0.749645 0.749645
0.754269 0.754269 0.754269
0.749737 0.749737 0.749737
0.773877 0.773877 0.773877
0.765042 0.765042 0.765042
0.768658 0.768658 0.768658
0.773327 0.773327 0.773327
0.785641 0.785641 0.785641
0.816632 0.816632 0.816632
0.866743 0.866743 0.866743
0.856657 0.856657 0.856657
0.830701 0.830701 0.830701
0.822965 0.822965 0.822965
0.821591 0.821591 0.821591
0.823514 0.823514 0.823514
0.825849 0.825849 0.825849
0.832944 0.832944 0.832944
0.853193 0.853193 0.853193
0.899199 0.899199 0.899199
0.945006 0.945006 0.945006
0.913985 0.913985 0.913985
0.891173 0.891173 0.891173
0.854063 0.854063 0.854063
0.854566 0.854566 0.854566
0.855222 0.855222 0.855222
0.857069 0.857069 0.857069
0.862745 0.862745 0.862745
0.878874 0.878874 0.878874
0.913497 0.913497 0.913497
0.931563 0.931563 0.931563
0.920348 0.920348 0.920348
0.907485 0.907485 0.907485
0.907683 0.907683 0.907683
0.907897 0.907897 0.907897
0.908537 0.908537 0.908537
0.910613 0.910613 0.910613
0.917052 0.917052 0.917052
0.933013 0.933013 0.933013
0.943847 0.943847 0.943847
0.924346 0.924346 0.924346
0.0970779 0.0970779 0.0970779
0.0889601 0.0889601 0.0889601
0.120333 0.120333 0.120333
0.23978 0.23978 0.23978
0.415061 0.415061 0.415061
0.55256 0.55256 0.55256
0.602594 0.602594 0.602594
0.673915 0.673915 0.673915
0.756344 0.756344 0.756344
0.124407 0.124407 0.124407
0.112779 0.112779 0.112779
0.115099 0.115099 0.115099
0.209552 0.209552 0.209552
0.370001 0.370001 0.370001
0.576394 0.576394 0.576394
0.62005 0.62005 0.62005
0.680949 0.680949 0.680949
0.758633 0.758633 0.758633
0.272938 0.272938 0.272938
0.208164 0.208164 0.208164
0.171405 0.171405 0.171405
0.24271 0.24271 0.24271
0.393561 0.393561 0.393561
0.590738 0.590738 0.590738
0.638193 0.638193 0.638193
0.689189 0.689189 0.689189
0.761379 0.761379 0.761379
0.477211 0.477211 0.477211
0.423072 0.423072 0.423072
0.386343 0.386343 0.386343
0.416541 0.416541 0.416541
0.506462 0.506462 0.506462
0.64387 0.64387 0.64387
0.680766 0.680766 0.680766
0.710628 0.710628 0.710628
0.769253 0.769253 0.769253
0.615991 0.615991 0.615991
0.602975 0.602975 0.602975
0.601984 0.601984 0.601984
0.627131 0.627131 0.627131
0.677958 0.677958 0.677958
0.756802 0.756802 0.756802
0.761288 0.761288 0.761288
0.761364 0.761364 0.761364
0.791699 0.791699 0.791699
0.75346 0.75346 0.75346
0.757763 0.757763 0.757763
0.762173 0.762173 0.762173
0.775418 0.775418 0.775418
0.809186 0.809186 0.809186
0.863874 0.863874 0.863874
0.865568 0.865568 0.865568
0.842298 0.842298 0.842298
0.840436 0.840436 0.840436
0.831861 0.831861 0.831861
0.833677 0.833677 0.833677
0.835874 0.835874 0.835874
0.842252 0.842252 0.842252
0.861326 0.861326 0.861326
0.906889 0.906889 0.906889
0.957443 0.957443 0.957443
0.929885 0.929885 0.929885
0.911757 0.911757 0.911757
0.870481 0.870481 0.870481
0.871015 0.871015 0.871015
0.871687 0.871687 0.871687
0.873716 0.873716 0.873716
0.880095 0.880095 0.880095
0.8972 0.8972 0.8972
0.935027 0.935027 0.935027
0.96173 0.96173 0.96173
0.95462 0.95462 0.95462
0.919371 0.919371 0.919371
0.9196 0.9196 0.9196
0.919799 0.919799 0.919799
0.920485 0.920485 0.920485
0.922805 0.922805 0.922805
0.929961 0.929961 0.929961
0.948211 0.948211 0.948211
0.971633 0.971633 0.971633
0.960189 0.960189 0.960189
0.135637 0.135637 0.135637
0.134112 0.134112 0.134112
0.12961 0.12961 0.12961
0.230488 0.230488 0.230488
0.349798 0.349798 0.349798
0.53019 0.53019 0.53019
0.611276 0.611276 0.611276
0.675837 0.675837 0.675837
0.758831 0.758831 0.758831
0.145815 0.145815 0.145815
0.140246 0.140246 0.140246
0.133303 0.133303 0.133303
0.222202 0.222202 0.222202
0.355764 0.355764 0.355764
0.54638 0.54638 0.54638
0.625391 0.625391 0.625391
0.682231 0.682231 0.682231
0.761212 0.761212 0.761212
0.232929 0.232929 0.232929
0.209354 0.209354 0.209354
0.18584 0.18584 0.18584
0.251545 0.251545 0.251545
0.388708 0.388708 0.388708
0.567987 0.567987 0.567987
0.640711 0.640711 0.640711
0.689693 0.689693 0.689693
0.76408 0.76408 0.76408
0.403479 0.403479 0.403479
0.377722 0.377722 0.377722
0.359106 0.359106 0.359106
0.39588 0.39588 0.39588
0.496071 0.496071 0.496071
0.629404 0.629404 0.629404
0.677836 0.677836 0.677836
0.709804 0.709804 0.709804
0.772076 0.772076 0.772076
0.553445 0.553445 0.553445
0.546639 0.546639 0.546639
0.54313 0.54313 0.54313
0.572168 0.572168 0.572168
0.637781 0.637781 0.637781
0.727642 0.727642 0.727642
0.751675 0.751675 0.751675
0.758373 0.758373 0.758373
0.794064 0.794064 0.794064
0.698375 0.698375 0.698375
0.701518 0.701518 0.701518
0.706432 0.706432 0.706432
0.719554 0.719554 0.719554
0.755901 0.755901 0.755901
0.823392 0.823392 0.823392
0.856977 0.856977 0.856977
0.838376 0.838376 0.838376
0.842451 0.842451 0.842451
0.825223 0.825223 0.825223
0.826581 0.826581 0.826581
0.82826 0.82826 0.82826
0.833738 0.833738 0.833738
0.848676 0.848676 0.848676
0.888029 0.888029 0.888029
0.94403 0.94403 0.94403
0.932326 0.932326 0.932326
0.917189 0.917189 0.917189
0.871565 0.871565 0.871565
0.87219 0.87219 0.87219
0.872999 0.872999 0.872999
0.87541 0.87541 0.87541
0.883101 0.883101 0.883101
0.902541 0.902541 0.902541
0.944228 0.944228 0.944228
0.984909 0.984909 0.984909
0.978683 0.978683 0.978683
0.918105 0.918105 0.918105
0.918318 0.918318 0.918318
0.918608 0.918608 0.918608
0.919432 0.919432 0.919432
0.922194 0.922194 0.922194
0.930694 0.930694 0.930694
0.952773 0.952773 0.952773
0.989654 0.989654 0.989654
0.985367 0.985367 0.985367
0.459297 0.459297 0.459297
0.429068 0.429068 0.429068
0.246708 0.246708 0.246708
0.170871 0.170871 0.170871
0.297765 0.297765 0.297765
0.480613 0.480613 0.480613
0.612482 0.612482 0.612482
0.664714 0.664714 0.664714
0.743297 0.743297 0.743297
0.494179 0.494179 0.494179
0.441855 0.441855 0.441855
0.288212 0.288212 0.288212
0.181903 0.181903 0.181903
0.311513 0.311513 0.311513
0.493614 0.493614 0.493614
0.621683 0.621683 0.621683
0.670039 0.670039 0.670039
0.745495 0.745495 0.745495
0.528481 0.528481 0.528481
0.451743 0.451743 0.451743
0.330709 0.330709 0.330709
0.213382 0.213382 0.213382
0.334371 0.334371 0.334371
0.510445 0.510445 0.510445
0.63212 0.63212 0.63212
0.676143 0.676143 0.676143
0.748135 0.748135 0.748135
0.582666 0.582666 0.582666
0.480568 0.480568 0.480568
0.413245 0.413245 0.413245
0.328466 0.328466 0.328466
0.40267 0.40267 0.40267
0.554482 0.554482 0.554482
0.658885 0.658885 0.658885
0.692729 0.692729 0.692729
0.755749 0.755749 0.755749
0.590997 0.590997 0.590997
0.564782 0.564782 0.564782
0.541054 0.541054 0.541054
0.514748 0.514748 0.514748
0.526833 0.526833 0.526833
0.634821 0.634821 0.634821
0.71751 0.71751 0.71751
0.734371 0.734371 0.734371
0.77673 0.77673 0.77673
0.693248 0.693248 0.693248
0.691997 0.691997 0.691997
0.690898 0.690898 0.690898
0.68983 0.68983 0.68983
0.694148 0.694148 0.694148
0.733791 0.733791 0.733791
0.813489 0.813489 0.813489
0.814328 0.814328 0.814328
0.825833 0.825833 0.825833
0.819013 0.819013 0.819013
0.819913 0.819913 0.819913
0.821012 0.821012 0.821012
0.823178 0.823178 0.823178
0.831693 0.831693 0.831693
0.852934 0.852934 0.852934
0.893782 0.893782 0.893782
0.914656 0.914656 0.914656
0.905226 0.905226 0.905226
0.864286 0.864286 0.864286
0.864866 0.864866 0.864866
0.865568 0.865568 0.865568
0.867781 0.867781 0.867781
0.874922 0.874922 0.874922
0.89424 0.89424 0.89424
0.937972 0.937972 0.937972
0.996628 0.996628 0.996628
0.988327 0.988327 0.988327
0.911269 0.911269 0.911269
0.911467 0.911467 0.911467
0.911711 0.911711 0.911711
0.91249 0.91249 0.91249
0.915068 0.915068 0.915068
0.922927 0.922927 0.922927
0.944778 0.944778 0.944778
0.987686 0.987686 0.987686
1 1 1
0.739223 0.739223 0.739223
0.739315 0.739315 0.739315
0.665217 0.665217 0.665217
0.567666 0.567666 0.567666
0.535409 0.535409 0.535409
0.546365 0.546365 0.546365
0.59324 0.59324 0.59324
0.637873 0.637873 0.637873
0.705196 0.705196 0.705196
0.744778 0.744778 0.744778
0.744854 0.744854 0.744854
0.663813 0.663813 0.663813
0.573465 0.573465 0.573465
0.543862 0.543862 0.543862
0.555093 0.555093 0.555093
0.601267 0.601267 0.601267
0.641505 0.641505 0.641505
0.706981 0.706981 0.706981
0.750454 0.750454 0.750454
0.742107 0.742107 0.742107
0.66244 0.66244 0.66244
0.579934 0.579934 0.579934
0.553323 0.553323 0.553323
0.565606 0.565606 0.565606
0.610361 0.610361 0.610361
0.645731 0.645731 0.645731
0.709194 0.709194 0.709194
0.765988 0.765988 0.765988
0.715267 0.715267 0.715267
0.663462 0.663462 0.663462
0.598459 0.598459 0.598459
0.579858 0.579858 0.579858
0.59382 0.59382 0.59382
0.634607 0.634607 0.634607
0.65716 0.65716 0.65716
0.715328 0.715328 0.715328
0.724437 0.724437 0.724437
0.701411 0.701411 0.701411
0.681422 0.681422 0.681422
0.644938 0.644938 0.644938
0.640253 0.640253 0.640253
0.659403 0.659403 0.659403
0.693355 0.693355 0.693355
0.689357 0.689357 0.689357
0.734325 0.734325 0.734325
0.746731 0.746731 0.746731
0.742321 0.742321 0.742321
0.738842 0.738842 0.738842
0.736522 0.736522 0.736522
0.738628 0.738628 0.738628
0.75993 0.75993 0.75993
0.794781 0.794781 0.794781
0.775967 0.775967 0.775967
0.782177 0.782177 0.782177
0.820386 0.820386 0.820386
0.821439 0.821439 0.821439
0.822705 0.822705 0.822705
0.826856 0.826856 0.826856
0.838361 0.838361 0.838361
0.861723 0.861723 0.861723
0.900008 0.900008 0.900008
0.908034 0.908034 0.908034
0.87335 0.87335 0.87335
0.857893 0.857893 0.857893
0.858427 0.858427 0.858427
0.859113 0.859113 0.859113
0.861219 0.861219 0.861219
0.868055 0.868055 0.868055
0.886961 0.886961 0.886961
0.929931 0.929931 0.929931
0.993591 0.993591 0.993591
0.988586 0.988586 0.988586
0.904891 0.904891 0.904891
0.905089 0.905089 0.905089
0.905394 0.905394 0.905394
0.906172 0.906172 0.906172
0.90866 0.90866 0.90866
0.916274 0.916274 0.916274
0.93753 0.93753 0.93753
0.98175 0.98175 0.98175
1 1 1
