packages/webcomponents/examples/FLog2C_to_CLASSIC-Neg_VLog.cube
TITLE "Generated by Resolve"
#LUMIXPHOTOSTYLE VLOG
LUT_3D_SIZE 33
0 0 0
0 0 0
0 0 0
0 0 0
0.0109102 0.000900282 0
0.0593576 0.00440986 0.000732433
0.101625 0.00883497 4.57771e-05
0.160708 0.0115969 0
0.257816 0.0204929 0.000244144
0.414252 0.034165 0.000167849
0.633768 0.0553902 0.000396735
0.799298 0.078294 0
0.889998 0.105821 0.0324407
0.938216 0.139971 0.108843
0.944854 0.185489 0.187442
0.94934 0.254475 0.252461
0.951064 0.281895 0.277256
0.951064 0.281895 0.277256
0.951064 0.281895 0.277256
0.951064 0.281895 0.277256
0.951064 0.281895 0.277256
0.951064 0.281895 0.277256
0.951064 0.281895 0.277256
0.951064 0.281895 0.277256
0.951186 0.2851 0.276905
0.952728 0.302052 0.274357
0.951873 0.32755 0.27129
0.952514 0.352651 0.26772
0.953079 0.383886 0.261021
0.954147 0.418387 0.255482
0.954665 0.456886 0.248157
0.955581 0.498207 0.238422
0.955749 0.544137 0.2271
0 0 0
0 0 0
0 0 0
0 0 0
0.0161746 0.00106813 0
0.0668956 0.00502022 0.000701915
0.109117 0.00917067 0
0.168856 0.0121309 0
0.267399 0.0215915 0.000289921
0.426184 0.0351415 0.000122072
0.643854 0.0564736 0.000442512
0.80351 0.0791333 0
0.891768 0.106569 0.0339361
0.938674 0.140642 0.110582
0.944884 0.186435 0.188388
0.949371 0.255192 0.253147
0.951064 0.281895 0.277256
0.951064 0.281895 0.277256
0.951064 0.281895 0.277256
0.951064 0.281895 0.277256
0.951064 0.281895 0.277256
0.951064 0.281895 0.277256
0.951064 0.281895 0.277256
0.951064 0.281895 0.277256
0.951293 0.288151 0.276356
0.952575 0.30724 0.273884
0.95201 0.331289 0.270863
0.952743 0.355962 0.267124
0.953124 0.386816 0.260609
0.954314 0.420813 0.254948
0.954757 0.458991 0.247669
0.955566 0.49984 0.238056
0.955734 0.545571 0.226688
0 0 0
0 0 0
0 0 0
0 0 0
0.0221256 0.00137331 6.10361e-05
0.0738537 0.00572213 0.000671397
0.116869 0.00936904 0
0.1785 0.0128328 0
0.277989 0.0225986 0.000320439
0.434302 0.0357214 0.00015259
0.64065 0.0559091 0.000350958
0.794339 0.0764935 0
0.880507 0.101167 0.0246281
0.934264 0.131746 0.0869154
0.943481 0.164111 0.164294
0.946426 0.212787 0.212009
0.950149 0.267323 0.264012
0.951019 0.281682 0.277089
0.951064 0.281895 0.277256
0.951064 0.281895 0.277256
0.951064 0.281895 0.277256
0.951064 0.281895 0.277256
0.951064 0.281895 0.277256
0.951064 0.281895 0.277256
0.951461 0.292744 0.275135
0.952316 0.312383 0.273396
0.952148 0.33492 0.270436
0.952956 0.359213 0.266545
0.953185 0.389624 0.260212
0.954452 0.423133 0.254444
0.954833 0.460975 0.247196
0.955566 0.501457 0.23769
0.955703 0.546883 0.226307
0 0 0
0 0 0
0 0 0
0 0 0
0.0123293 0.00128176 7.62951e-05
0.0538949 0.00466926 0.000198367
0.0962844 0.00694286 9.15541e-05
0.140505 0.0110628 3.0518e-05
0.212436 0.0166171 0
0.327489 0.025803 0.000457771
0.505318 0.0413214 0.000671397
0.700633 0.0623484 0
0.827497 0.0824292 0.00015259
0.899443 0.110277 0.0400702
0.938216 0.139116 0.10692
0.944228 0.173388 0.175189
0.947646 0.223972 0.222766
0.950637 0.273686 0.270451
0.951064 0.281895 0.277256
0.951064 0.281895 0.277256
0.951064 0.281895 0.277256
0.951064 0.281895 0.277256
0.951064 0.281895 0.277256
0.950942 0.283146 0.276936
0.951614 0.297063 0.273991
0.952056 0.317281 0.272938
0.952285 0.338445 0.270024
0.953155 0.362325 0.265995
0.953231 0.392554 0.2598
0.954604 0.425345 0.253971
0.95491 0.463081 0.246708
0.95555 0.50309 0.237308
0.955688 0.54818 0.22591
0.00047303 0.00500496 0.00047303
0.000411994 0.00549325 0.000411994
0.000350958 0.00517281 0.000518807
0.000198367 0.00209049 0.00030518
0.00271611 0.000640879 4.57771e-05
0.0381781 0.00270085 0.000289921
0.0706951 0.00621042 0.000228885
0.108843 0.00914015 3.0518e-05
0.162676 0.0130312 0.000320439
0.245853 0.0199893 0.000534066
0.380728 0.0306401 0
0.571939 0.0474861 0
0.750622 0.0671702 0
0.854536 0.091249 0.00935378
0.915022 0.119432 0.059205
0.941726 0.14876 0.136919
0.945891 0.190082 0.192325
0.949569 0.247059 0.244373
0.950942 0.280858 0.276249
0.951064 0.281895 0.277256
0.951064 0.281895 0.277256
0.951064 0.281895 0.277256
0.951064 0.281895 0.277256
0.950439 0.288808 0.275486
0.951858 0.302953 0.273335
0.951919 0.321691 0.271916
0.952422 0.34226 0.269459
0.953368 0.365454 0.265446
0.953277 0.395392 0.259388
0.954757 0.427665 0.253468
0.954986 0.465064 0.246235
0.95555 0.504585 0.236973
0.955673 0.549477 0.225528
0.000228885 0.0371557 0.00515755
0.000274662 0.0377508 0.00520333
0.000350958 0.0311437 0.00440986
0 0.0212558 0.00221256
0 0.0128786 0.000808728
0.0180056 0.00906386 0.000198367
0.0538186 0.00791943 0.000244144
0.0868696 0.00836194 7.62951e-05
0.130816 0.0114748 0.000274662
0.195972 0.0162966 0.000503548
0.301472 0.0234684 0.000549325
0.465843 0.0398566 0.000183108
0.667506 0.0565652 0.000274662
0.8103 0.0796216 0
0.889937 0.105425 0.0301061
0.937179 0.135134 0.0973831
0.943496 0.170764 0.171466
0.948165 0.223713 0.222675
0.950912 0.278721 0.274464
0.951064 0.281895 0.277256
0.951064 0.281895 0.277256
0.950988 0.282292 0.277272
0.951171 0.28484 0.27602
0.950179 0.294301 0.274189
0.952087 0.308492 0.272709
0.951827 0.325795 0.270741
0.952575 0.34667 0.268666
0.953353 0.36939 0.264881
0.953353 0.398352 0.2589
0.954894 0.429908 0.252979
0.955062 0.467018 0.245762
0.955535 0.506218 0.236591
0.955642 0.550774 0.225132
0.0015259 0.0686198 0.0110323
0.00149538 0.0691539 0.0111086
0.00105287 0.060914 0.00950637
0.000579843 0.0471504 0.00682078
7.62951e-05 0.0357824 0.00485237
0.00378424 0.0273747 0.00238041
0.0352789 0.0242313 0.000534066
0.0709239 0.0240024 0.000503548
0.111101 0.022385 4.57771e-05
0.167147 0.0246586 6.10361e-05
0.256703 0.0288243 0.000137331
0.395804 0.0370031 0
0.59765 0.0504768 0
0.770169 0.0726024 0
0.866545 0.0962081 0.0150454
0.924422 0.1252 0.0719921
0.943114 0.156069 0.154009
0.947005 0.206165 0.205417
0.950317 0.266529 0.263279
0.951064 0.281895 0.277256
0.951049 0.281971 0.277226
0.9505 0.284901 0.277378
0.951354 0.288716 0.274922
0.950622 0.300267 0.273045
0.952148 0.313909 0.272145
0.951736 0.329793 0.269596
0.952712 0.350973 0.267887
0.953353 0.373312 0.264317
0.953429 0.40148 0.25835
0.954925 0.432456 0.252476
0.955093 0.469062 0.245319
0.955535 0.507713 0.236255
0.955627 0.552087 0.22475
0.00263981 0.101305 0.0166476
0.00263981 0.101732 0.0167086
0.00227359 0.0924849 0.0144045
0.00132753 0.0775158 0.0122377
0.0015259 0.0605783 0.00886549
0.00180056 0.0523537 0.00691234
0.0187686 0.0489357 0.00515755
0.0565347 0.0457465 0.000808728
0.0951095 0.0442206 6.10361e-05
0.144625 0.0441901 4.57771e-05
0.222065 0.0478523 0.000244144
0.342016 0.0545815 3.0518e-05
0.530968 0.0664073 0.000183108
0.722545 0.0838026 0
0.842908 0.101396 0.0024567
0.908812 0.122789 0.0503243
0.941985 0.151217 0.129061
0.945052 0.194491 0.191409
0.949859 0.250874 0.246189
0.951751 0.285542 0.276097
0.950759 0.286641 0.276188
0.951064 0.292088 0.275502
0.951965 0.29688 0.274357
0.951141 0.307408 0.271931
0.951812 0.320439 0.271489
0.951736 0.335027 0.268467
0.95288 0.3561 0.266972
0.953353 0.377997 0.263661
0.953521 0.405188 0.257694
0.954971 0.435538 0.251881
0.955032 0.471641 0.244831
0.955535 0.509667 0.235691
0.955627 0.553765 0.224231
0.00370794 0.138842 0.0216983
0.00375372 0.138766 0.0217441
0.00300603 0.123491 0.0200351
0.00254826 0.107546 0.0162966
0.00238041 0.0923018 0.0143893
0.00132753 0.0828412 0.0132906
0.00521859 0.078294 0.0114137
0.0366979 0.0739605 0.00668345
0.0803998 0.0712596 0.000839246
0.124147 0.0702373 0.000122072
0.190036 0.0719768 1.5259e-05
0.296376 0.0775464 0.000183108
0.463004 0.0896468 6.10361e-05
0.665171 0.106126 1.5259e-05
0.812406 0.124147 0.00015259
0.891585 0.142687 0.030457
0.939101 0.166293 0.0975357
0.945205 0.198184 0.172549
0.948363 0.249027 0.226902
0.952148 0.296818 0.273274
0.951568 0.299046 0.274266
0.952071 0.30341 0.27277
0.9523 0.308888 0.272953
0.951858 0.3187 0.27216
0.951492 0.328725 0.270619
0.952026 0.343343 0.267552
0.953124 0.362707 0.265751
0.953353 0.384054 0.262791
0.953643 0.410056 0.25684
0.955032 0.439567 0.251087
0.954955 0.475059 0.24419
0.955566 0.512535 0.234806
0.955718 0.55584 0.223499
0.00500496 0.191623 0.0309606
0.00573739 0.181704 0.0288853
0.00410468 0.16141 0.0253605
0.0037232 0.140978 0.0231479
0.00289921 0.124636 0.019089
0.00241093 0.115877 0.0181735
0.00225834 0.109773 0.0175631
0.013901 0.104356 0.0154116
0.05832 0.102464 0.00758373
0.103563 0.10042 0.00166323
0.162799 0.100755 9.15541e-05
0.2551 0.103792 4.57771e-05
0.398795 0.113329 1.5259e-05
0.603098 0.129885 9.15541e-05
0.772915 0.147356 0
0.870069 0.165789 0.012604
0.928084 0.187625 0.070222
0.943938 0.213504 0.152346
0.948241 0.255192 0.206058
0.952316 0.309804 0.267445
0.951827 0.317037 0.272374
0.952193 0.318654 0.270558
0.952071 0.323827 0.271122
0.951995 0.330709 0.270191
0.952224 0.340429 0.268666
0.952453 0.353658 0.266361
0.953445 0.371099 0.264103
0.953384 0.391867 0.261357
0.953811 0.416464 0.255695
0.955093 0.444862 0.25005
0.954849 0.479515 0.243351
0.955612 0.516182 0.233692
0.95584 0.558663 0.222507
0.00770581 0.264973 0.0436713
0.00630198 0.234257 0.0386664
0.00549325 0.205722 0.0336156
0.00485237 0.182803 0.0295109
0.00460822 0.166079 0.0257267
0.00367742 0.155047 0.0251316
0.00383001 0.147448 0.0231479
0.00619516 0.140322 0.0224308
0.0354772 0.136324 0.0174411
0.0849775 0.133471 0.00935378
0.139147 0.132342 0.00109865
0.219364 0.133318 0.000122072
0.347723 0.141009 0.000427253
0.534005 0.153506 3.0518e-05
0.724651 0.171435 0.000167849
0.844282 0.191348 0.00183108
0.911894 0.213397 0.0461128
0.943618 0.240375 0.123247
0.947723 0.269703 0.183352
0.950973 0.317143 0.2421
0.952255 0.338308 0.266987
0.952636 0.339208 0.268788
0.952163 0.341619 0.26952
0.952117 0.346197 0.26714
0.953109 0.354589 0.266285
0.953826 0.366354 0.263951
0.953857 0.381765 0.262013
0.953536 0.401297 0.258808
0.95407 0.424689 0.254261
0.9552 0.451865 0.248676
0.954711 0.485512 0.242206
0.955673 0.520943 0.232227
0.955993 0.562417 0.221195
0.0105135 0.340093 0.056199
0.00849927 0.297337 0.0496681
0.00784314 0.261265 0.0423896
0.00642405 0.234699 0.0387732
0.00628672 0.217166 0.0356909
0.00604257 0.204776 0.0334936
0.005066 0.196384 0.0321202
0.00547799 0.187488 0.0307164
0.0135805 0.180926 0.0280461
0.0574807 0.176196 0.0220645
0.117327 0.1729 0.0119326
0.18761 0.173114 0.00317388
0.297658 0.177218 0.000183108
0.468009 0.186938 1.5259e-05
0.669581 0.203479 9.15541e-05
0.813977 0.223468 0
0.894118 0.245747 0.0247959
0.942031 0.27245 0.0896162
0.947143 0.297093 0.160143
0.9505 0.331914 0.216617
0.952834 0.366735 0.263828
0.954055 0.363912 0.26511
0.953582 0.363851 0.265446
0.952956 0.367666 0.264042
0.953841 0.373037 0.263493
0.954192 0.382391 0.260975
0.954055 0.396307 0.25922
0.953765 0.413367 0.255665
0.954467 0.435279 0.252415
0.955245 0.461234 0.246967
0.954543 0.493156 0.240772
0.955734 0.527214 0.230289
0.956191 0.567468 0.219425
0.0127565 0.414435 0.0686656
0.0110781 0.366217 0.0601358
0.00901808 0.328984 0.0544442
0.00846876 0.303944 0.0491646
0.00807202 0.283909 0.0462959
0.00793469 0.270405 0.0440375
0.00807202 0.260136 0.0426337
0.00787366 0.250446 0.040528
0.00701915 0.241749 0.0391394
0.0250095 0.231937 0.0351568
0.0897078 0.227497 0.0252537
0.157671 0.223728 0.0150301
0.255894 0.224247 0.00320439
0.410422 0.231876 1.5259e-05
0.609934 0.246464 4.57771e-05
0.776577 0.265141 0.000106813
0.872068 0.286458 0.00674449
0.930251 0.313954 0.0614023
0.947219 0.341192 0.13817
0.948806 0.361151 0.187655
0.954208 0.395285 0.250675
0.953353 0.396979 0.259968
0.953857 0.394553 0.260212
0.953582 0.393652 0.259983
0.953414 0.397894 0.259968
0.953567 0.404486 0.258137
0.954147 0.414771 0.256046
0.954208 0.429572 0.252659
0.954864 0.44892 0.249912
0.955184 0.474189 0.244816
0.954787 0.503197 0.238285
0.95584 0.535485 0.227756
0.956466 0.573953 0.217151
0.0143435 0.4822 0.0793622
0.0140993 0.442374 0.0725109
0.0125734 0.411765 0.0681468
0.0121767 0.387228 0.0634165
0.0112459 0.367926 0.0601358
0.0106203 0.355123 0.0585946
0.0109865 0.345006 0.0565194
0.0104372 0.334203 0.0541695
0.00941482 0.322057 0.0528573
0.0114443 0.309133 0.0508125
0.052781 0.299275 0.0432898
0.12665 0.292622 0.0321813
0.215396 0.290562 0.0190127
0.353094 0.29398 0.00161746
0.550561 0.304662 0.000595102
0.734691 0.32047 0.000122072
0.848844 0.340856 0.00128176
0.915694 0.366018 0.035523
0.947921 0.394736 0.105272
0.94966 0.403662 0.162631
0.953735 0.427924 0.22298
0.954925 0.434119 0.251957
0.953445 0.429694 0.253498
0.95465 0.426612 0.256153
0.953613 0.427314 0.254414
0.953811 0.431952 0.254368
0.954452 0.438407 0.251987
0.954818 0.450584 0.24889
0.954482 0.467308 0.245441
0.95523 0.490318 0.24184
0.955718 0.516121 0.234348
0.955917 0.546532 0.224781
0.956802 0.582498 0.21416
0.0171969 0.558267 0.0923171
0.0162203 0.528786 0.0875257
0.0160678 0.504982 0.0845197
0.0151217 0.48484 0.0810407
0.0145113 0.468513 0.0780804
0.0148165 0.455879 0.0755016
0.0139162 0.445869 0.0734722
0.0136873 0.434531 0.0713664
0.0132448 0.421683 0.0693828
0.0120241 0.407736 0.0668498
0.0193179 0.394293 0.0633097
0.0921798 0.383291 0.0514687
0.177066 0.377264 0.0381476
0.301213 0.37586 0.0211337
0.488701 0.383642 0.00169375
0.688838 0.396155 1.5259e-05
0.823301 0.411826 0.000366217
0.8972 0.432746 0.00869764
0.942824 0.457755 0.0725719
0.950469 0.466819 0.135317
0.952331 0.472892 0.189807
0.955505 0.481178 0.242679
0.954437 0.472816 0.244022
0.954787 0.467918 0.24593
0.954696 0.463462 0.247288
0.954559 0.46482 0.247471
0.954986 0.468757 0.246006
0.955261 0.477089 0.243839
0.954833 0.490715 0.240055
0.956069 0.509316 0.236652
0.956573 0.532586 0.229419
0.955962 0.561059 0.221225
0.956863 0.593866 0.21062
0.0203708 0.640269 0.106645
0.0192416 0.620615 0.102663
0.0184939 0.603952 0.100572
0.0183566 0.589624 0.0985275
0.0187076 0.577218 0.0955062
0.0178988 0.567788 0.0938582
0.0172732 0.558816 0.0923934
0.0173037 0.548241 0.0909133
0.0166934 0.536034 0.0887465
0.0160372 0.522133 0.086244
0.0171817 0.506889 0.0838026
0.0501411 0.492714 0.0769818
0.135088 0.483284 0.0637675
0.251133 0.477348 0.0462959
0.423896 0.479561 0.0220493
0.635752 0.48896 0.00102235
0.794614 0.499977 7.62951e-05
0.880369 0.51458 0.00244144
0.932448 0.53077 0.0382544
0.951858 0.544762 0.106706
0.954025 0.534371 0.156359
0.954635 0.534813 0.215015
0.956222 0.524361 0.231785
0.955871 0.514107 0.234043
0.955489 0.508125 0.236271
0.956054 0.504906 0.237461
0.955825 0.505714 0.238148
0.955291 0.509972 0.235248
0.955688 0.520104 0.233326
0.955932 0.534081 0.229694
0.956161 0.554711 0.223194
0.956252 0.579339 0.216327
0.956634 0.608652 0.206332
0.0225223 0.716594 0.119753
0.0227817 0.706462 0.118257
0.0220035 0.696895 0.116655
0.0213626 0.688304 0.115175
0.0214237 0.680171 0.113741
0.0214694 0.672496 0.112428
0.0215305 0.665827 0.111452
0.0215152 0.657954 0.110262
0.0208286 0.648447 0.108598
0.0197604 0.63679 0.10631
0.0196231 0.623911 0.103853
0.024155 0.610178 0.101091
0.084123 0.599725 0.0907912
0.194903 0.591577 0.0737316
0.356802 0.588312 0.0497139
0.573587 0.593805 0.0213016
0.760296 0.599847 0.00108339
0.861295 0.607279 0.000427253
0.920317 0.616892 0.0243381
0.952346 0.625162 0.0700084
0.953323 0.609537 0.120165
0.956344 0.596155 0.176013
0.957397 0.583398 0.215427
0.95613 0.570031 0.218906
0.955749 0.560052 0.222324
0.955642 0.55314 0.223224
0.956039 0.549294 0.225528
0.956344 0.550607 0.224414
0.956497 0.555901 0.22356
0.955764 0.565759 0.220127
0.957168 0.581033 0.215015
0.957382 0.601892 0.208774
0.956558 0.62742 0.200168
0.0238651 0.78146 0.130861
0.0233616 0.776104 0.129992
0.0233158 0.770718 0.129229
0.0232853 0.765881 0.128557
0.0237125 0.761135 0.127459
0.024155 0.756832 0.12639
0.0243534 0.752453 0.125368
0.0238804 0.747234 0.124193
0.0233005 0.740902 0.122774
0.0228428 0.732998 0.121309
0.0226596 0.723659 0.120439
0.0228733 0.71339 0.119005
0.0411383 0.703136 0.114778
0.130419 0.695903 0.0998703
0.278492 0.691905 0.0782635
0.493767 0.695125 0.0493019
0.711849 0.699321 0.0198367
0.838895 0.702617 0.00334173
0.905684 0.704952 0.0137789
0.947143 0.706523 0.0509346
0.954284 0.693324 0.0824292
0.95584 0.67068 0.131365
0.957321 0.647272 0.188434
0.956756 0.631647 0.19794
0.957534 0.618799 0.203235
0.957916 0.608728 0.206546
0.957626 0.601114 0.208957
0.957488 0.596704 0.21062
0.957153 0.598352 0.209934
0.956664 0.603586 0.208347
0.957595 0.613138 0.204501
0.957198 0.629938 0.199145
0.956985 0.651102 0.190524
0.0263371 0.83473 0.138659
0.0264591 0.83122 0.138155
0.0267491 0.827695 0.137881
0.0269932 0.824353 0.137621
0.0268254 0.821607 0.137148
0.0263371 0.819013 0.136492
0.025864 0.816495 0.135851
0.0254215 0.813642 0.135241
0.0253605 0.809522 0.134951
0.0252842 0.804517 0.134585
0.0256962 0.798093 0.132952
0.0257267 0.790494 0.131838
0.0283818 0.782422 0.130541
0.0730144 0.776516 0.123674
0.197711 0.774701 0.104341
0.394522 0.775494 0.0768902
0.63537 0.782223 0.0447852
0.805783 0.783825 0.0219425
0.88922 0.783276 0.0108186
0.937118 0.781552 0.0309606
0.955718 0.773083 0.0654765
0.955673 0.746593 0.0814374
0.95729 0.71667 0.140917
0.958083 0.695277 0.169192
0.957549 0.681376 0.176974
0.957671 0.66833 0.183001
0.957412 0.657206 0.186709
0.957076 0.650309 0.191714
0.956893 0.645991 0.192752
0.957687 0.646922 0.193393
0.957351 0.652354 0.189136
0.957168 0.663142 0.185061
0.957321 0.678874 0.17731
0.0280308 0.877379 0.1458
0.0281529 0.875212 0.145464
0.0282597 0.873106 0.145144
0.0283665 0.871199 0.144839
0.0284428 0.869291 0.144549
0.0283055 0.867567 0.144228
0.0281834 0.865888 0.143923
0.0280461 0.864012 0.143572
0.0278325 0.861448 0.143099
0.027512 0.858228 0.142504
0.0271 0.854276 0.141772
0.0265049 0.849256 0.140917
0.0264897 0.842939 0.139834
0.0318608 0.836271 0.138216
0.10576 0.833478 0.127993
0.285054 0.836103 0.102876
0.53254 0.841886 0.0701762
0.749401 0.847593 0.0399786
0.865156 0.846555 0.0249027
0.921996 0.843824 0.0159609
0.954574 0.83798 0.0453956
0.956893 0.816098 0.0561837
0.956786 0.784756 0.0794537
0.958694 0.756664 0.132601
0.958297 0.741604 0.143664
0.958236 0.727703 0.151095
0.958923 0.715099 0.159564
0.95787 0.70576 0.16524
0.958404 0.698528 0.168719
0.957366 0.695201 0.169848
0.958114 0.695308 0.170428
0.957275 0.700648 0.165911
0.958267 0.71075 0.160403
0.0291905 0.910948 0.152697
0.0289921 0.909834 0.152575
0.028809 0.908721 0.152453
0.0286412 0.907668 0.152331
0.0284581 0.90663 0.152224
0.028397 0.905669 0.151995
0.0284123 0.90457 0.151644
0.0284276 0.903304 0.151232
0.0284581 0.90161 0.150698
0.0284886 0.899565 0.150027
0.0285039 0.896895 0.149187
0.0285191 0.893645 0.148196
0.0278477 0.88957 0.148928
0.0281376 0.884596 0.148272
0.0522621 0.880034 0.143145
0.16762 0.880186 0.126711
0.398184 0.887205 0.0962081
0.665415 0.895644 0.0608835
0.825589 0.898451 0.0369268
0.904082 0.89604 0.0268254
0.94696 0.891325 0.019852
0.957107 0.873259 0.0359503
0.956619 0.845487 0.0463111
0.957565 0.815167 0.0742046
0.958602 0.797467 0.0986038
0.957992 0.784451 0.112001
0.958511 0.771908 0.121187
0.958846 0.761227 0.13135
0.958206 0.7514 0.135897
0.958785 0.744793 0.141344
0.958984 0.741024 0.142977
0.958129 0.742031 0.142
0.95874 0.746624 0.138323
0.0300145 0.937453 0.157275
0.029984 0.936812 0.156893
0.0299687 0.936202 0.156542
0.0299535 0.935592 0.156176
0.0299229 0.935012 0.155825
0.0299077 0.934493 0.155489
0.029984 0.933974 0.155642
0.0300755 0.933333 0.15584
0.0301976 0.932494 0.156115
0.0303502 0.931411 0.156451
0.0304417 0.929992 0.15668
0.0299535 0.927596 0.155764
0.0293584 0.924666 0.154635
0.0293126 0.92163 0.153948
0.0325933 0.917784 0.152636
0.0849775 0.915496 0.145388
0.254276 0.919768 0.122698
0.528466 0.930053 0.0856489
0.768368 0.938216 0.0532387
0.876204 0.936706 0.0387732
0.930739 0.931563 0.0301518
0.954223 0.919509 0.0244755
0.955764 0.897414 0.0255131
0.956817 0.868833 0.0363317
0.957061 0.846647 0.0455177
0.957168 0.835065 0.0590524
0.957931 0.823301 0.0701305
0.957839 0.811719 0.083299
0.957885 0.802594 0.0958572
0.957916 0.793622 0.102922
0.958297 0.78703 0.108492
0.958083 0.784695 0.111772
0.958282 0.784314 0.110079
0.0298009 0.944884 0.157595
0.0296941 0.944762 0.157504
0.0296025 0.944671 0.157427
0.0295109 0.944549 0.157336
0.0294194 0.944457 0.157244
0.0293278 0.944335 0.157153
0.0292515 0.944259 0.157076
0.0292668 0.944228 0.157076
0.0292668 0.944183 0.157076
0.0292821 0.944137 0.157076
0.0292973 0.944106 0.157061
0.0292973 0.94403 0.157061
0.0292973 0.943908 0.157031
0.0293126 0.943725 0.157031
0.0295415 0.942351 0.157534
0.0334325 0.940261 0.156344
0.118685 0.941588 0.143709
0.353536 0.951064 0.112612
0.647578 0.963027 0.0741588
0.829816 0.967163 0.0486
0.905608 0.963836 0.0389868
0.946029 0.954406 0.0315862
0.95259 0.938033 0.0281834
0.955535 0.915267 0.0238499
0.956146 0.891829 0.0281529
0.956817 0.879545 0.0330358
0.957076 0.868269 0.0376898
0.957015 0.857755 0.0417639
0.957168 0.847898 0.0471199
0.957031 0.838804 0.0512245
0.957031 0.831189 0.0627146
0.957992 0.825971 0.0661479
0.957305 0.823148 0.0698863
0.0292973 0.944442 0.157092
0.0292973 0.944442 0.157092
0.0292973 0.944442 0.157092
0.0292973 0.944442 0.157092
0.0292973 0.944442 0.157092
0.0292973 0.944442 0.157092
0.0292973 0.944442 0.157092
0.0292973 0.944442 0.157092
0.0292973 0.944442 0.157092
0.0292973 0.944442 0.157092
0.0292973 0.944442 0.157092
0.0292973 0.944442 0.157092
0.0292973 0.944442 0.157092
0.0292973 0.944442 0.157092
0.0293736 0.944381 0.157198
0.0303807 0.943709 0.158312
0.0776074 0.945953 0.151247
0.218555 0.954528 0.132891
0.477317 0.969451 0.0987716
0.736645 0.9832 0.0650034
0.866117 0.986145 0.0467536
0.926375 0.982055 0.037171
0.943404 0.970199 0.0330205
0.947982 0.952972 0.0308843
0.95288 0.928374 0.0242466
0.955093 0.916747 0.0234379
0.954528 0.907881 0.0233921
0.955871 0.898528 0.0255436
0.956115 0.888792 0.0279698
0.956603 0.879927 0.0327611
0.956771 0.872236 0.0359503
0.956893 0.864775 0.0387274
0.957244 0.859709 0.040177
0.0292973 0.944442 0.157092
0.0292973 0.944442 0.157092
0.0292973 0.944442 0.157092
0.0292973 0.944442 0.157092
0.0292973 0.944442 0.157092
0.0292973 0.944442 0.157092
0.0292973 0.944442 0.157092
0.0292973 0.944442 0.157092
0.0292973 0.944442 0.157092
0.0292973 0.944442 0.157092
0.0292973 0.944442 0.157092
0.0292973 0.944442 0.157092
0.0292973 0.944442 0.157092
0.0292973 0.944442 0.157092
0.0292973 0.944442 0.157092
0.0297093 0.944381 0.157031
0.0330663 0.943862 0.156542
0.148821 0.950759 0.142123
0.367453 0.963226 0.113054
0.625666 0.977676 0.0793011
0.811399 0.988998 0.0548867
0.895323 0.994492 0.0437629
0.93228 0.992523 0.0393683
0.939788 0.981109 0.0364691
0.946807 0.963012 0.0332952
0.950347 0.947494 0.0296635
0.951507 0.93933 0.0276341
0.953048 0.932265 0.0267033
0.953857 0.923308 0.0253605
0.954833 0.915221 0.0235904
0.955001 0.907607 0.0234684
0.956115 0.900816 0.0234989
0.956832 0.894926 0.0265965
0.0292973 0.944442 0.157092
0.0292973 0.944442 0.157092
0.0292973 0.944442 0.157092
0.0292973 0.944442 0.157092
0.0292973 0.944442 0.157092
0.0292973 0.944442 0.157092
0.0292973 0.944442 0.157092
0.0292973 0.944442 0.157092
0.0292973 0.944442 0.157092
0.0292973 0.944442 0.157092
0.0292973 0.944442 0.157092
0.0292973 0.944442 0.157092
0.0292973 0.944442 0.157092
0.0292973 0.944442 0.157092
0.0294804 0.944305 0.157321
0.030045 0.943877 0.158038
0.0441901 0.944259 0.156893
0.126131 0.949218 0.145586
0.282277 0.958846 0.124743
0.51162 0.972061 0.0947585
0.731487 0.984924 0.0656748
0.856809 0.991531 0.0483253
0.915694 0.99469 0.0420996
0.933822 0.994476 0.0386053
0.938445 0.986923 0.0364385
0.942473 0.972396 0.0340734
0.944854 0.967193 0.0330053
0.947204 0.959594 0.0317388
0.948669 0.953109 0.0307469
0.949767 0.945418 0.0291142
0.951736 0.939086 0.0274205
0.952651 0.931807 0.0268254
0.952895 0.926177 0.0253452
0.0292973 0.944442 0.157092
0.0292973 0.944442 0.157092
0.0292973 0.944442 0.157092
0.0292973 0.944442 0.157092
0.0292973 0.944442 0.157092
0.0292973 0.944442 0.157092
0.0292973 0.944442 0.157092
0.0292973 0.944442 0.157092
0.0292973 0.944442 0.157092
0.0292973 0.944442 0.157092
0.0292973 0.944442 0.157092
0.0292973 0.944442 0.157092
0.0292973 0.944442 0.157092
0.0292973 0.944442 0.157092
0.0292973 0.944442 0.157092
0.0308995 0.944366 0.156924
0.0364385 0.944289 0.156359
0.0717174 0.946059 0.152148
