packages/webcomponents/examples/FLog2C_to_ETERNA_VLog.cube
TITLE "Generated by Resolve"
#LUMIXPHOTOSTYLE VLOG
LUT_3D_SIZE 5
0.00585946 0.00585946 0.00585946
0.314107 0.0325628 0.047364
0.943984 0.328389 0.270512
0.943481 0.331411 0.267338
0.928145 0.551919 0.0656291
0.00552377 0.2103 3.0518e-05
0.152651 0.125795 0.0056611
0.930236 0.223468 0.104311
0.940841 0.373083 0.239811
0.927916 0.560815 0.0651255
0.00921645 0.725612 0.000198367
0.0182345 0.6645 0.000198367
0.683787 0.599741 0.0119478
0.927626 0.565469 0.0657206
0.926604 0.615976 0.0623941
0.164858 0.999527 0
0.229297 0.999359 0
0.516564 0.999893 0
0.930938 0.951476 0.0545052
0.927779 0.858808 0.053193
0.694209 0.999542 0.000122072
0.697078 0.999527 0.000122072
0.714839 0.999512 0.00285344
0.853468 0.99913 0.0495003
0.932509 0.999634 0.0824445
0.0114595 0.0041352 0.133272
0.269322 0.0221866 0.066743
0.944305 0.324758 0.267262
0.943511 0.33872 0.260624
0.928145 0.552117 0.0656291
0.0221408 0.242481 0.244312
0.13283 0.140536 0.143191
0.883818 0.215503 0.160021
0.940703 0.387167 0.228672
0.927916 0.560922 0.0651102
0.0196841 0.776898 0.0560006
0.0160678 0.716854 0.0181888
0.634989 0.632532 0.00129702
0.926909 0.590204 0.0699626
0.926604 0.615976 0.0623941
0.0240787 0.999817 0.000244144
0.0341039 0.999802 0.000274662
0.384466 0.999542 0.000350958
0.931533 0.979873 0.0548562
0.927779 0.858808 0.053193
0.679118 0.999817 0.000167849
0.682017 0.999847 0.000167849
0.699275 0.999817 0.00250248
0.839628 0.999268 0.044831
0.932509 0.999634 0.0824445
0.0343633 0.00514229 0.532006
0.289174 0 0.390814
0.952056 0.290913 0.424567
0.95285 0.379324 0.483909
0.943267 0.603006 0.393347
0.0544289 0.281117 0.819196
0.143999 0.146715 0.610727
0.864759 0.177722 0.605844
0.951934 0.438926 0.517128
0.94316 0.61149 0.392889
0.0673533 0.788678 0.735729
0.0590677 0.745464 0.691279
0.642496 0.654337 0.667414
0.952697 0.621714 0.579095
0.943069 0.661936 0.385809
0.0635233 0.997925 0.373953
0.0655528 0.998184 0.371862
0.315251 0.997177 0.400702
0.950561 0.980117 0.364889
0.9393 0.884916 0.231189
0.681514 0.999619 0.488975
0.683925 0.999664 0.488106
0.699474 0.99968 0.480812
0.825162 0.999634 0.404654
0.932509 0.999634 0.0824445
0.0768292 0.070222 0.999741
0.0636606 0.0700389 0.999283
0.874983 0.000213626 0.999634
0.969558 0.344518 0.829648
0.964843 0.609735 0.782498
0.13611 0.205341 0.999542
0.0894636 0.157046 0.999573
0.80061 0.15201 0.999496
0.96846 0.392859 0.842969
0.964965 0.618112 0.78439
0.0665141 0.626307 0.922408
0.0665141 0.6112 0.92578
0.562127 0.587976 0.989807
0.970123 0.583535 0.877043
0.966567 0.667491 0.796277
0.100206 0.966293 0.853956
0.100099 0.964874 0.853956
0.120836 0.957626 0.858701
0.913512 0.923247 0.931899
0.976226 0.862348 0.835248
0.585519 0.985138 0.924178
0.589044 0.985199 0.924681
0.611734 0.98584 0.92694
0.786313 0.992065 0.932647
0.98616 0.99971 0.838865
0.0890059 0.891966 0.868269
0.0792096 0.789654 0.886412
0.349432 0.510826 0.981109
0.98027 0.35227 0.99971
0.979263 0.493584 0.999863
0.0908217 0.908415 0.865736
0.0790265 0.785138 0.888747
0.342016 0.538247 0.974334
0.979339 0.381979 0.999725
0.978958 0.500633 0.999863
0.0873426 0.871412 0.870329
0.081178 0.811429 0.883314
0.291615 0.673106 0.938704
0.955108 0.533883 0.999634
0.978271 0.544869 0.999847
0.0997635 0.979355 0.852735
0.0997635 0.979126 0.852842
0.100069 0.971649 0.853834
0.811673 0.893736 0.976593
0.983734 0.790249 0.99942
0.489799 0.983383 0.91017
0.493751 0.983429 0.910765
0.51838 0.983932 0.914855
0.708217 0.988357 0.946136
1 1 1
