packages/webcomponents/examples/L-Log_to_Classic_VLog.cube
TITLE "Generated by Resolve"
#LUMIXPHOTOSTYLE VLOG
LUT_3D_SIZE 9
0.00347906 0.00161746 0.00302129
0.0214694 0.0142672 0.0153506
0.180758 0.057435 0.0240787
0.473503 0 0
0.735088 0 0
0.792966 0 0.0782788
0.798871 0 0.104158
0.799008 0 0.10454
0.799023 0 0.104585
0.0115206 0.00955215 0.0113375
0.0170291 0.0129244 0.0144808
0.156527 0.0549172 0.0256352
0.439109 0.00274662 0
0.731563 0 0
0.792966 0 0.0782788
0.798871 0 0.104158
0.799008 0 0.10454
0.799023 0 0.104585
0 0.130709 0.0518807
0 0.113542 0.0507362
0.119875 0.110887 0.0438849
0.42385 0.074876 0
0.693721 0 0
0.792065 0 0.0721752
0.798871 0 0.104158
0.799008 0 0.10454
0.799023 0 0.104585
0 0.364263 0
0 0.345235 0.000671397
0 0.322667 0.00111391
0.364569 0.332341 0
0.7364 0.246021 0
0.809247 0.0149081 0.10135
0.798749 0 0.10396
0.799008 0 0.10454
0.799023 0 0.104585
0 0.591638 0.00215152
0 0.585962 0.00125124
0 0.564706 0.000427253
0.0542763 0.601495 0
0.678355 0.621805 0
0.946227 0.538323 0
0.898024 0.293919 0.07364
0.798993 0 0.104509
0.799023 0 0.104585
0 0.703059 0.247929
0 0.703059 0.247929
0 0.698161 0.229358
0 0.687968 0.179583
0.554986 0.769116 0.0033875
0.932692 0.841276 0
0.999985 0.80708 4.57771e-05
0.995117 0.647211 0.00172427
0.799023 0 0.104585
0 0.746075 0.501625
0 0.746075 0.501625
0 0.746075 0.501625
0 0.742916 0.477272
0.0329747 0.764736 0.432975
0.833768 0.885237 0.348394
1 0.912428 0.269902
1 0.91751 0.300649
0.999985 0.907881 0.275364
0 0.756939 0.669215
0 0.756939 0.669215
0 0.756939 0.669215
0 0.756939 0.669215
0 0.755673 0.654047
0.469627 0.880385 0.692836
0.968811 0.960052 0.693278
1 0.96527 0.665217
1 0.966644 0.673152
0 0.760098 0.715557
0 0.760098 0.715557
0 0.760098 0.715557
0 0.760098 0.715557
0 0.760098 0.715373
0 0.761074 0.715526
0.924315 0.969879 0.829053
1 0.98114 0.817395
1 0.9823 0.814389
0.00791943 0.00543221 0.00848402
0.0160372 0.0112459 0.0137179
0.163531 0.0552987 0.0263981
0.452583 0.000244144 0
0.72398 0 0
0.792706 0 0.0764477
0.798871 0 0.104158
0.799008 0 0.10454
0.799023 0 0.104585
0.0112459 0.00901808 0.0116274
0.0142977 0.0107881 0.0131533
0.142794 0.052079 0.0268559
0.422538 0.010071 0
0.724422 0 0
0.792798 0 0.0770886
0.798871 0 0.104158
0.799008 0 0.10454
0.799023 0 0.104585
0 0.120546 0.0520027
0 0.104265 0.050248
0.106859 0.098909 0.0445258
0.4 0.0674144 0
0.678614 0 0
0.79234 0 0.0740215
0.798871 0 0.104158
0.799008 0 0.10454
0.799023 0 0.104585
0 0.354696 3.0518e-05
0 0.337911 0.00120546
0 0.309163 0.00271611
0.347845 0.31632 0
0.723537 0.229923 0
0.80734 0.0119173 0.0999924
0.798764 0 0.103975
0.799008 0 0.10454
0.799023 0 0.104585
0 0.590829 0.00189212
0 0.58584 0.00117494
0 0.566155 0.000396735
0.0495003 0.599817 0
0.677836 0.620279 0
0.945983 0.536263 0
0.896254 0.288167 0.0748913
0.798993 0 0.104509
0.799023 0 0.104585
0 0.702907 0.24744
0 0.702907 0.24744
0 0.6981 0.229191
0 0.688136 0.181003
0.553658 0.768887 0.00350958
0.93254 0.841077 0
0.999985 0.806577 4.57771e-05
0.994995 0.645853 0.00177005
0.799023 0 0.104585
0 0.746044 0.501381
0 0.746044 0.501381
0 0.746044 0.501381
0 0.742885 0.477089
0.0317388 0.76434 0.433051
0.833448 0.885191 0.348516
1 0.912383 0.269459
1 0.91751 0.300649
0.999985 0.907881 0.275364
0 0.756939 0.669215
0 0.756939 0.669215
0 0.756939 0.669215
0 0.756924 0.669093
0 0.755673 0.654047
0.467964 0.880156 0.692668
0.968811 0.960052 0.693278
1 0.96527 0.665217
1 0.966644 0.673152
0 0.760098 0.715557
0 0.760098 0.715557
0 0.760098 0.715557
0 0.760098 0.715557
0 0.760098 0.715373
0 0.761074 0.715511
0.924147 0.969848 0.829053
1 0.98114 0.817395
1 0.9823 0.814389
0.0300298 0.0175937 0.1075
0.0307469 0.0179599 0.099733
0.140703 0.0456092 0.0988479
0.424552 0.00962844 0.0907301
0.716487 0 0.0814527
0.793317 0 0.110826
0.798856 0 0.104143
0.799008 0 0.10454
0.799023 0 0.104585
0.0292668 0.0187839 0.10309
0.0289158 0.0189212 0.0922408
0.126192 0.0438544 0.089128
0.40325 0.0153658 0.0781109
0.716289 0 0.0780346
0.793225 0 0.109026
0.798871 0 0.104143
0.799008 0 0.10454
0.799023 0 0.104585
0 0.108476 0.103914
0.000167849 0.0932784 0.0909743
0.085481 0.0846113 0.0818036
0.36965 0.0634012 0.0650797
0.657084 0 0.0571756
0.793088 0 0.10663
0.798871 0 0.104143
0.799008 0 0.10454
0.799023 0 0.104585
0 0.344305 0.0932174
0 0.326665 0.083299
0 0.291447 0.0479896
0.315663 0.293568 0.0283055
0.687892 0.2065 0.0374609
0.799741 0.00254826 0.101503
0.798764 0 0.10399
0.799008 0 0.10454
0.799023 0 0.104585
0 0.586709 0.064683
0 0.582498 0.059144
0 0.560311 0.0475471
0.0225376 0.581811 0
0.655589 0.600992 0
0.938399 0.517128 0
0.894163 0.281315 0.0763561
0.798993 0 0.104509
0.799023 0 0.104585
0 0.70277 0.246937
0 0.70277 0.246937
0 0.698085 0.229175
0 0.688334 0.182528
0.551797 0.768597 0.0037232
0.932387 0.840894 0
0.999985 0.806073 4.57771e-05
0.994904 0.644923 0.00180056
0.799023 0 0.104585
0 0.746044 0.501381
0 0.745998 0.501137
0 0.745998 0.501137
0 0.742901 0.477165
0.0311284 0.763821 0.432853
0.833356 0.8851 0.348013
1 0.912383 0.269459
1 0.917449 0.300282
0.999985 0.907805 0.274952
0 0.756924 0.669093
0 0.756924 0.669093
0 0.756924 0.669093
0 0.756924 0.669093
0 0.755657 0.653925
0.465751 0.87982 0.692287
0.968688 0.960037 0.693309
1 0.965225 0.664897
1 0.966613 0.672877
0 0.760098 0.715557
0 0.760098 0.715557
0 0.760098 0.715557
0 0.760098 0.715557
0 0.760098 0.715373
0 0.761044 0.715511
0.924147 0.969848 0.829053
1 0.98114 0.817411
1 0.9823 0.814389
0 0.0446479 0.297871
0 0.0421302 0.291524
0.0843366 0.0229953 0.294514
0.375616 0 0.284657
0.683177 0 0.28098
0.798489 0 0.290074
0.805447 0 0.230182
0.799008 0 0.10454
0.799023 0 0.104585
0 0.0443427 0.296818
0 0.0419471 0.290639
0.0831922 0.0227817 0.293217
0.375189 0 0.28336
0.683284 0 0.279942
0.798428 0 0.288792
0.805386 0 0.228687
0.799008 0 0.10454
0.799023 0 0.104585
0 0.0787366 0.30602
0 0.0722972 0.294972
0.0200961 0.0580911 0.276173
0.342885 0.0468605 0.264836
0.640681 0 0.24271
0.798352 0 0.286885
0.805295 0 0.22681
0.799008 0 0.10454
0.799023 0 0.104585
0 0.327001 0.331212
0 0.316732 0.321447
0 0.273106 0.270665
0.270604 0.270542 0.261784
0.657649 0.18439 0.240528
0.798505 0 0.225223
0.804944 0 0.219303
0.799008 0 0.10454
0.799023 0 0.104585
0 0.586496 0.334936
0 0.586328 0.334462
0 0.558816 0.300008
0.00202945 0.559106 0.223774
0.618296 0.578042 0.193469
0.919646 0.483803 0.200122
0.874739 0.217945 0.182605
0.798993 0 0.104509
0.799023 0 0.104585
0 0.719768 0.375708
0 0.719692 0.375387
0 0.716426 0.362051
0 0.703761 0.310903
0.460578 0.785702 0.187579
0.909453 0.83711 0.044358
0.999985 0.7897 0.0835279
0.994537 0.641001 0.00192264
0.799023 0 0.104585
0 0.745937 0.500664
0 0.745937 0.500664
0 0.745937 0.500664
0 0.742855 0.476905
0.0280919 0.762509 0.432486
0.832441 0.88481 0.347173
1 0.912245 0.26804
1 0.917342 0.299474
0.999985 0.907591 0.273747
0 0.756924 0.669093
0 0.756924 0.669093
0 0.756924 0.669093
0 0.756909 0.668971
0 0.755673 0.653956
0.460075 0.879026 0.691783
0.968612 0.959991 0.693034
1 0.965225 0.664897
1 0.966567 0.672587
0 0.760098 0.715557
0 0.760098 0.715557
0 0.760098 0.715557
0 0.760098 0.715557
0 0.760098 0.715373
0 0.760998 0.715496
0.923796 0.969787 0.829068
1 0.98114 0.817411
1 0.9823 0.814389
0 0.0934615 0.504814
0 0.093431 0.504646
0 0.0920577 0.503563
0.307225 0.0772259 0.556558
0.652628 0 0.525216
0.806104 0 0.502129
0.82034 0 0.50811
0.817899 0 0.439734
0.813001 0 0.343053
0 0.0934157 0.504479
0 0.0934157 0.504479
0 0.0919966 0.503105
0.306401 0.0771649 0.556085
0.652369 0 0.524742
0.806058 0 0.501808
0.82031 0 0.507698
0.817884 0 0.439307
0.812955 0 0.342107
0 0.0933852 0.504143
0 0.09337 0.503975
0 0.0919356 0.502602
0.305608 0.0771344 0.555611
0.652354 0 0.524254
0.806012 0 0.501396
0.820294 0 0.507301
0.817838 0 0.438651
0.812909 0 0.341161
0 0.265232 0.545892
0 0.263706 0.545525
0 0.244663 0.528481
0.153811 0.233371 0.537758
0.62858 0.129839 0.520012
0.812299 0 0.472251
0.820203 0 0.505882
0.817716 0 0.436728
0.812772 0 0.338079
0 0.572625 0.598352
0 0.572396 0.598291
0 0.548684 0.572854
0.000274662 0.530449 0.520256
0.562814 0.553079 0.532891
0.899779 0.457176 0.492012
0.874205 0.167102 0.4533
0.815396 0 0.401312
0.812329 0 0.32813
0 0.729335 0.611124
0 0.729274 0.611078
0 0.729107 0.610529
0 0.710765 0.552712
0.256153 0.807721 0.524346
0.871748 0.835248 0.486458
0.998993 0.769985 0.466758
0.987198 0.61062 0.432746
0.810742 0 0.29424
0 0.752453 0.642298
0 0.752438 0.642145
0 0.752438 0.642054
0 0.751461 0.627207
0.00146487 0.780514 0.562081
0.779751 0.910887 0.57377
0.997833 0.937163 0.495857
1 0.933852 0.470069
1 0.910964 0.379828
0 0.757061 0.671382
0 0.757061 0.671351
0 0.757061 0.671305
0 0.757046 0.671199
0 0.755749 0.65597
0.41651 0.87396 0.688121
0.968078 0.959701 0.691356
1 0.965087 0.66392
1 0.966491 0.672023
0 0.760098 0.715557
0 0.760098 0.715557
0 0.760098 0.715557
0 0.760098 0.715557
0 0.760098 0.715389
0 0.76083 0.715419
0.923095 0.96968 0.829099
1 0.98114 0.817426
1 0.9823 0.814389
0 0.307607 0.693843
0 0.307607 0.693843
0 0.307607 0.693843
0.00111391 0.316136 0.700404
0.619501 0.286625 0.761791
0.86894 0.0516213 0.744564
0.826398 0.000671397 0.688655
0.815457 0 0.656336
0.822263 0 0.639704
0 0.307607 0.693843
0 0.307607 0.693843
0 0.307607 0.693843
0.00106813 0.315755 0.700191
0.619226 0.286366 0.761685
0.868833 0.0509346 0.744427
0.826398 0.000671397 0.688655
0.815457 0 0.656336
0.822293 0 0.639597
0 0.307332 0.693706
0 0.307332 0.693706
0 0.307332 0.693706
0.00102235 0.315358 0.699977
0.618936 0.286427 0.761669
0.868833 0.0509346 0.744427
0.826261 0.00062562 0.688487
0.815488 0 0.656229
0.822324 0 0.639475
0 0.306767 0.693431
0 0.306767 0.693431
0 0.306767 0.693431
0.000869764 0.314458 0.699443
0.618112 0.286 0.761471
0.86865 0.0496223 0.744183
0.826139 0.00062562 0.68835
0.815564 0 0.656016
0.822385 0 0.639231
0 0.515633 0.737606
0 0.515328 0.737591
0 0.5149 0.73756
0 0.506508 0.7355
0.490654 0.533684 0.782391
0.876982 0.433875 0.770275
0.887083 0.118379 0.7234
0.815885 0 0.655192
0.822629 0 0.638285
0 0.719326 0.763836
0 0.719326 0.763836
0 0.719265 0.763836
0 0.698589 0.74023
0.123308 0.78996 0.752438
0.831403 0.814328 0.784924
0.989441 0.749722 0.759899
0.986221 0.615427 0.739254
0.827314 0 0.606699
0 0.758038 0.762661
0 0.758038 0.762661
0 0.758038 0.762661
0 0.758022 0.7626
0 0.789075 0.730648
0.724407 0.930526 0.786343
0.982727 0.954406 0.768231
1 0.940993 0.766583
1 0.913649 0.76347
0 0.761151 0.756619
0 0.761151 0.756619
0 0.761151 0.756619
0 0.761151 0.756573
0 0.760769 0.748959
0.360418 0.881392 0.792599
0.948196 0.973205 0.831525
1 0.979858 0.810407
1 0.980163 0.806912
0 0.761471 0.749706
0 0.761471 0.749706
0 0.761471 0.749706
0 0.761471 0.74966
0 0.761425 0.74757
0 0.761395 0.746166
0.908125 0.970474 0.864286
1 0.983505 0.855604
1 0.984863 0.845045
0.0514076 0.625071 0.80235
0.0514076 0.625071 0.80235
0.0514076 0.625071 0.80235
0.0510109 0.624781 0.802243
0.4813 0.653223 0.834241
0.88043 0.633906 0.856825
0.9691 0.54699 0.845228
0.940124 0.374777 0.810681
0.871305 0.105669 0.744045
0.0510109 0.624781 0.802243
0.0510109 0.624781 0.802243
0.0510109 0.624781 0.802243
0.0510109 0.624781 0.802243
0.480858 0.653193 0.834211
0.88043 0.633906 0.856825
0.9691 0.54699 0.845228
0.940124 0.374777 0.810681
0.871305 0.105669 0.744045
0.0510109 0.624781 0.802243
0.0510109 0.624781 0.802243
0.0510109 0.624781 0.802243
0.0510109 0.624781 0.802243
0.480247 0.652888 0.834104
0.88043 0.633906 0.856825
0.9691 0.54699 0.845228
0.940124 0.374777 0.810681
0.871305 0.105669 0.744045
0.0510109 0.624781 0.802243
0.0505989 0.624475 0.802136
0.0505989 0.624475 0.802136
0.0505989 0.624475 0.802136
0.478904 0.652811 0.833997
0.880262 0.6336 0.856764
0.969039 0.546609 0.845151
0.939986 0.374075 0.810529
0.870939 0.10428 0.743694
0.0498054 0.623896 0.801907
0.0498054 0.623896 0.801907
0.0498054 0.623896 0.801907
0.0498054 0.623896 0.801907
0.474128 0.651987 0.833524
0.879789 0.633051 0.856641
0.968917 0.545739 0.844984
0.939742 0.372915 0.8103
0.870207 0.101472 0.743008
0 0.746914 0.819608
0 0.746868 0.819608
0 0.746868 0.819608
0 0.746746 0.819608
0.0577096 0.777325 0.834974
0.797208 0.81265 0.881086
0.982361 0.755184 0.880507
0.992554 0.656443 0.864332
0.876402 0.108415 0.748394
0 0.75404 0.811719
0 0.754025 0.811719
0 0.754025 0.811719
0 0.754025 0.811719
0 0.780941 0.815183
0.682063 0.925246 0.882872
0.966171 0.950454 0.903822
1 0.935866 0.902251
1 0.910918 0.899428
0 0.760372 0.808011
0 0.760372 0.808011
0 0.760372 0.808011
0 0.760372 0.808011
0 0.760266 0.805997
0.319997 0.885634 0.863005
0.938598 0.976394 0.907729
1 0.985519 0.911315
1 0.986587 0.91136
0 0.761517 0.803616
0 0.761517 0.803616
0 0.761517 0.803616
0 0.761517 0.803616
0 0.761517 0.803586
0 0.7617 0.800107
0.905745 0.972259 0.906966
1 0.987488 0.916289
1 0.990707 0.917052
0.590707 0.849515 0.875257
0.590707 0.849515 0.875257
0.590707 0.849515 0.875257
0.590707 0.849515 0.875257
0.590707 0.849515 0.875257
0.842786 0.874708 0.893324
0.991333 0.866468 0.898756
1 0.83415 0.895171
1 0.820356 0.893294
0.590707 0.849515 0.875257
0.590707 0.849515 0.875257
0.590707 0.849515 0.875257
0.590707 0.849515 0.875257
0.590707 0.849515 0.875257
0.842786 0.874708 0.893324
0.991333 0.866468 0.898756
1 0.833936 0.89514
1 0.820356 0.893294
0.590707 0.849515 0.875257
0.590707 0.849515 0.875257
0.590707 0.849515 0.875257
0.590707 0.849515 0.875257
0.590295 0.849363 0.875212
0.842664 0.874708 0.893324
0.991333 0.866468 0.898756
1 0.833936 0.89514
1 0.820356 0.893294
0.590707 0.849515 0.875257
0.590295 0.849363 0.875212
0.590295 0.849363 0.875212
0.590295 0.849363 0.875212
0.590295 0.849363 0.875212
0.842573 0.874693 0.893309
0.991272 0.866499 0.898756
1 0.833936 0.89514
1 0.820356 0.893294
0.590295 0.849363 0.875212
0.590295 0.849363 0.875212
0.590295 0.849363 0.875212
0.590295 0.849363 0.875212
0.589883 0.84921 0.875166
0.841917 0.87451 0.893263
0.991226 0.866331 0.898726
1 0.833707 0.895109
1 0.820111 0.893263
0.544137 0.848264 0.872343
0.544182 0.848219 0.872328
0.544259 0.848157 0.872328
0.544488 0.847959 0.872312
0.54522 0.847333 0.872251
0.795651 0.852293 0.887739
0.980941 0.834089 0.893843
1 0.83328 0.895064
1 0.819364 0.893156
0.20621 0.871229 0.863188
0.20621 0.871229 0.863188
0.20621 0.871229 0.863188
0.206653 0.87126 0.863203
0.207523 0.871351 0.863264
0.70016 0.927504 0.892699
0.95874 0.955093 0.909407
1 0.942412 0.909483
1 0.926497 0.907668
0 0.764752 0.821668
0 0.764752 0.821668
0 0.764752 0.821668
0 0.764752 0.821668
0 0.764752 0.821668
0.296849 0.882139 0.868818
0.935347 0.975448 0.912963
1 0.985473 0.917388
1 0.987305 0.918059
0 0.76202 0.820386
0 0.76202 0.820386
0 0.76202 0.820386
0 0.76202 0.820386
0 0.76202 0.820386
0 0.761547 0.819593
0.899779 0.971176 0.910765
1 0.98761 0.918288
1 0.991302 0.919738
0.775448 0.922713 0.896269
0.775448 0.922713 0.896269
0.775448 0.922713 0.896269
0.775448 0.922713 0.896269
0.775448 0.922713 0.896269
0.775448 0.922713 0.896269
0.978103 0.935699 0.907301
1 0.919539 0.906554
1 0.91014 0.905501
0.775448 0.922713 0.896269
0.775448 0.922713 0.896269
0.775448 0.922713 0.896269
0.775448 0.922713 0.896269
0.775448 0.922713 0.896269
0.775448 0.922713 0.896269
0.978103 0.935699 0.907301
1 0.919539 0.906554
1 0.91014 0.905501
0.775448 0.922713 0.896269
0.775448 0.922713 0.896269
0.775448 0.922713 0.896269
0.775448 0.922713 0.896269
0.775448 0.922713 0.896269
0.775448 0.922713 0.896269
0.978042 0.935699 0.907301
1 0.919539 0.906554
1 0.91014 0.905501
0.775448 0.922713 0.896269
0.775448 0.922713 0.896269
0.775448 0.922713 0.896269
0.775448 0.922713 0.896269
0.775448 0.922713 0.896269
0.775448 0.922713 0.896269
0.978042 0.935699 0.907301
1 0.919539 0.906554
1 0.91014 0.905501
0.775448 0.922713 0.896269
0.775448 0.922713 0.896269
0.775448 0.922713 0.896269
0.775448 0.922713 0.896269
0.775448 0.922713 0.896269
0.775448 0.922713 0.896269
0.977981 0.935699 0.907286
1 0.919539 0.906554
1 0.91014 0.905501
0.775448 0.922713 0.896269
0.775448 0.922713 0.896269
0.775448 0.922713 0.896269
0.775448 0.922713 0.896269
0.775448 0.922713 0.896269
0.775448 0.922713 0.896269
0.977752 0.935714 0.907286
1 0.919554 0.906554
1 0.91014 0.905501
0.735164 0.936797 0.896468
0.73521 0.936797 0.896468
0.73521 0.936797 0.896468
0.735302 0.936797 0.896468
0.735485 0.936797 0.896483
0.736248 0.936782 0.896513
0.957732 0.964385 0.910842
1 0.958434 0.911681
1 0.94107 0.909636
0.400107 0.894942 0.876188
0.400107 0.894942 0.876188
0.400107 0.894942 0.876188
0.400107 0.894942 0.876188
0.400854 0.895033 0.876234
0.403067 0.895293 0.876356
0.938369 0.975875 0.913283
0.999969 0.985641 0.917449
1 0.987793 0.918273
0 0.763943 0.822736
0 0.763943 0.822736
0 0.763943 0.822736
0 0.763943 0.822736
0 0.763943 0.822736
0 0.763943 0.822736
0.894621 0.970397 0.910796
0.999374 0.987442 0.918227
1 0.991485 0.919829
