packages/webcomponents/examples/L-Log_to_Natural_VLog.cube
TITLE "Generated by Resolve"
#LUMIXPHOTOSTYLE VLOG
LUT_3D_SIZE 33
0 0 0
0 0 0
0 0 0
0.00535592 0 0
0.0286107 0 0
0.0555886 0 0
0.0831006 0 0
0.113558 0 0
0.149264 0 0
0.19144 0 0
0.243671 0 0
0.307622 0 0
0.378546 0 0
0.452598 0 0
0.527535 0 0
0.601709 0 0.00233463
0.675502 0 0.00852979
0.748425 0 0.016022
0.82005 0 0.0239567
0.88957 0 0.0319524
0.956115 0 0.0404974
0.99733 0 0.050248
1 0 0.0581979
1 0 0.0644694
1 0 0.0693065
1 0 0.0729076
1 0 0.0754864
1 0 0.0772717
1 0 0.0784619
1 0 0.0792401
1 0 0.0797284
1 0 0.0800031
1 0 0.0801404
0 0 0
0 0 0
0 0 0
0.00523384 0 0
0.028275 0 0
0.0552071 0 0
0.0828107 0 0
0.113298 0 0
0.148974 0 0
0.191272 0 0
0.243442 0 0
0.307622 0 0
0.378286 0 0
0.452598 0 0
0.527276 0 0
0.601709 0 0.00233463
0.675502 0 0.00852979
0.748425 0 0.016022
0.82005 0 0.0239567
0.88957 0 0.0319524
0.956115 0 0.0404974
0.99733 0 0.050248
1 0 0.0581979
1 0 0.0644694
1 0 0.0693065
1 0 0.0729076
1 0 0.0754864
1 0 0.0772717
1 0 0.0784619
1 0 0.0792401
1 0 0.0797284
1 0 0.0800031
1 0 0.0801404
0 0 0
0 0 0
0 0 0
0.0040589 0 0
0.0268101 0 0
0.0540627 0 0
0.0818799 0 0
0.112718 0 0
0.148592 0 0
0.190921 0 0
0.243229 0 0
0.307378 0 0
0.378286 0 0
0.452338 0 0
0.527276 0 0
0.601709 0 0.00233463
0.675502 0 0.00852979
0.748425 0 0.016022
0.82005 0 0.0239567
0.88957 0 0.0319524
0.956115 0 0.0404974
0.99733 0 0.050248
1 0 0.0581979
1 0 0.0644694
1 0 0.0693065
1 0 0.0729076
1 0 0.0754864
1 0 0.0772717
1 0 0.0784619
1 0 0.0792401
1 0 0.0797284
1 0 0.0800031
1 0 0.0801404
0 0.000946059 0
0 0.000488289 0
0 3.0518e-05 0
6.10361e-05 0 0
0.0191653 0 0
0.0474556 0 0
0.0762036 0 0
0.107805 0 0
0.144747 0 0
0.187793 0 0
0.241001 0 0
0.305608 0 0
0.377188 0 0
0.451865 0 0
0.527184 0 0
0.60145 0 0.00231937
0.675502 0 0.00852979
0.748425 0 0.016022
0.82005 0 0.0239567
0.88957 0 0.0319524
0.956115 0 0.0404974
0.99733 0 0.050248
1 0 0.0581979
1 0 0.0644694
1 0 0.0693065
1 0 0.0729076
1 0 0.0754864
1 0 0.0772717
1 0 0.0784619
1 0 0.0792401
1 0 0.0797284
1 0 0.0800031
1 0 0.0801404
0 0.0189975 0
0 0.0184634 0
0 0.0177462 0
0 0.0157626 0
0.0106355 0.0137636 0
0.0395972 0.0115816 0
0.0696269 0.00915541 0
0.102464 0.00614939 0
0.140429 0.00323491 0
0.184451 0.00109865 0
0.238163 0 0
0.303212 0 0
0.375402 0 0
0.450401 0 0
0.526162 0 0
0.601312 0 0.00303655
0.675502 0 0.00886549
0.748425 0 0.016022
0.82005 0 0.0239567
0.88957 0 0.0319524
0.956115 0 0.0404974
0.99733 0 0.050248
1 0 0.0581979
1 0 0.0644694
1 0 0.0693065
1 0 0.0729076
1 0 0.0754864
1 0 0.0772717
1 0 0.0784619
1 0 0.0792401
1 0 0.0797284
1 0 0.0800031
1 0 0.0801404
0 0.0411231 0
0 0.0404517 0
0 0.0396429 0
0 0.0375677 0
0.00337224 0.0353704 0
0.0306096 0.0331426 0
0.0621805 0.0306249 0
0.096437 0.0274205 0
0.135607 0.0230259 0
0.180499 0.0167391 0
0.235142 0.00822461 0
0.300984 0.00167849 0
0.373404 0 0
0.449134 0 0
0.525216 0 0
0.600626 0 0.00341802
0.674922 0 0.0099794
0.748165 0 0.0166629
0.82005 0 0.0239567
0.88957 0 0.0319524
0.956115 0 0.0404974
0.99733 0 0.050248
1 0 0.0581979
1 0 0.0644694
1 0 0.0693065
1 0 0.0729076
1 0 0.0754864
1 0 0.0772717
1 0 0.0784619
1 0 0.0792401
1 0 0.0797284
1 0 0.0800031
1 0 0.0801404
0 0.0647288 0
0 0.0640574 0
0 0.0632639 0
0 0.0611734 0
0.00102235 0.0591287 0
0.0189822 0.0569162 0
0.0520638 0.0545663 0
0.0889754 0.0514534 0
0.129793 0.0468452 0
0.176257 0.0403754 0
0.232074 0.0305486 0
0.298207 0.016907 0
0.371481 0.00386053 0
0.447608 0 0
0.523964 0 0
0.599878 0 0.0031281
0.674601 0 0.0106355
0.747967 0 0.0178225
0.819547 0 0.0247196
0.889326 0 0.0319219
0.956115 0 0.0404974
0.99733 0 0.050248
1 0 0.0581979
1 0 0.0644694
1 0 0.0693065
1 0 0.0729076
1 0 0.0754864
1 0 0.0772717
1 0 0.0784619
1 0 0.0792401
1 0 0.0797284
1 0 0.0800031
1 0 0.0801404
0 0.091783 0
0 0.0912337 0
0 0.0906081 0
0 0.0888991 0
0 0.0869154 0
0.00653086 0.085069 0
0.0366979 0.0830701 0
0.0774548 0.0802777 0
0.121248 0.076524 0
0.169635 0.0708782 0
0.22681 0.0623484 0
0.294408 0.0491493 0
0.368475 0.0299382 0
0.445365 0.00720226 0
0.522301 0.000106813 0
0.598474 0 0.00254826
0.673854 0 0.0102235
0.747662 0 0.0191806
0.819455 0 0.0260929
0.889265 0 0.0327306
0.956115 0 0.0404974
0.99733 0 0.050248
1 0 0.0581979
1 0 0.0644694
1 0 0.0693065
1 0 0.0729076
1 0 0.0754864
1 0 0.0772717
1 0 0.0784619
1 0 0.0792401
1 0 0.0797284
1 0 0.0800031
1 0 0.0801404
0 0.12372 0
0 0.123201 0
0 0.122652 0
0 0.121065 0
0 0.119509 0
0 0.117876 0
0.0147707 0.116243 0
0.0585489 0.11397 0
0.107698 0.110872 0
0.159564 0.106218 0
0.219165 0.0993515 0
0.28838 0.0890516 0
0.364004 0.0734875 0
0.442023 0.0497902 0
0.520043 0.0186007 0
0.596872 0.00149538 0.00115969
0.672847 0 0.00924697
0.747005 0 0.0188907
0.819089 0 0.0279393
0.889067 0 0.0343938
0.956115 0 0.0410773
0.99733 0 0.050248
1 0 0.0581979
1 0 0.0644694
1 0 0.0693065
1 0 0.0729076
1 0 0.0754864
1 0 0.0772717
1 0 0.0784619
1 0 0.0792401
1 0 0.0797284
1 0 0.0800031
1 0 0.0801404
0 0.161532 0
0 0.161089 0
0 0.160616 0
0 0.159152 0
0 0.157885 0
0 0.156512 0
0 0.155047 0
0.027985 0.153109 0
0.0848707 0.150378 0
0.143572 0.146654 0
0.207065 0.140948 0
0.27924 0.132677 0
0.357259 0.120485 0
0.437232 0.103029 0
0.516258 0.0773938 0
0.593988 0.0384527 6.10361e-05
0.670466 0.00169375 0.00605783
0.745724 0 0.0172885
0.818463 0 0.0283207
0.888808 0 0.0366979
0.955947 0 0.0424964
0.99733 0 0.0502327
1 0 0.0581979
1 0 0.0644694
1 0 0.0693065
1 0 0.0729076
1 0 0.0754864
1 0 0.0772717
1 0 0.0784619
1 0 0.0792401
1 0 0.0797284
1 0 0.0800031
1 0 0.0801404
0 0.207492 0
0 0.206958 0
0 0.206592 0
0 0.205509 0
0 0.20441 0
0 0.20296 0
0 0.201678 0
0.00408942 0.199924 0
0.0435492 0.197864 0
0.115221 0.194476 0
0.187671 0.189548 0
0.265248 0.18265 0
0.346853 0.17261 0
0.429358 0.159045 0
0.510445 0.139986 0
0.589837 0.11194 0
0.667414 0.0679637 0.000366217
0.743145 0.0141299 0.0116426
0.817014 0 0.0256352
0.888075 0 0.0377661
0.955459 0 0.0450752
0.997177 0 0.0503853
1 0 0.0581826
1 0 0.0644694
1 0 0.0693065
1 0 0.0729076
1 0 0.0754864
1 0 0.0772717
1 0 0.0784619
1 0 0.0792401
1 0 0.0797284
1 0 0.0800031
1 0 0.0801404
0 0.263401 0
0 0.263188 0
0 0.26276 0
0 0.261891 0
0 0.260746 0
0 0.259617 0
0 0.258549 0
0 0.257008 0
0.00726329 0.255344 0
0.0604868 0.252369 0
0.152529 0.248356 0
0.241825 0.242496 0
0.330358 0.234302 0
0.417395 0.223178 0
0.501442 0.207874 0
0.582864 0.186847 0
0.662013 0.156069 0
0.739376 0.108614 0.00125124
0.813947 0.0383459 0.0167544
0.886351 0 0.0335393
0.954894 0 0.0469062
0.997024 0 0.0524453
1 0 0.0581674
1 0 0.0644541
1 0 0.0693065
1 0 0.0729076
1 0 0.0754864
1 0 0.0772717
1 0 0.0784619
1 0 0.0792401
1 0 0.0797284
1 0 0.0800031
1 0 0.0801404
0 0.32813 0
0 0.327886 0
0 0.327413 0
0 0.326802 0
0 0.325795 0
0 0.325185 0
0 0.324269 0
0 0.323278 0
0 0.321431 0
0.0116884 0.31899 0
0.0823529 0.316075 0
0.201526 0.311559 0
0.303868 0.304845 0
0.398047 0.296162 0
0.486961 0.284291 0
0.572015 0.267811 0
0.653437 0.244587 0
0.732448 0.211124 0
0.809033 0.159091 0.00169375
0.882536 0.0746471 0.0199435
0.95259 0.00735485 0.0401923
0.996536 0 0.0548409
1 0 0.0590524
1 0 0.0644388
1 0 0.0692912
1 0 0.0729076
1 0 0.0754864
1 0 0.0772717
1 0 0.0784619
1 0 0.0792401
1 0 0.0797284
1 0 0.0800031
1 0 0.0801404
0 0.397391 0
0 0.397147 0
0 0.397147 0
0 0.396567 0
0 0.395834 0
0 0.395377 0
0 0.39469 0
0 0.393805 0
0 0.392401 0
0.000274662 0.390845 0
0.0186465 0.388312 0
0.12047 0.384894 0
0.260914 0.379919 0
0.369192 0.373159 0
0.465965 0.364248 0
0.555657 0.35172 0
0.640742 0.334661 0
0.722072 0.310994 0
0.800381 0.275975 0
0.876173 0.222293 0.00213626
0.947875 0.130129 0.0192569
0.9944 0.026688 0.0443275
1 0 0.0605478
1 0 0.064622
1 0 0.0692912
1 0 0.0729076
1 0 0.0754864
1 0 0.0772717
1 0 0.0784619
1 0 0.0792401
1 0 0.0797284
1 0 0.0800031
1 0 0.0801404
0 0.468132 0
0 0.467872 0
0 0.467628 0
0 0.467628 0
0 0.466957 0
0 0.466545 0
0 0.465904 0
0 0.465522 0
0 0.464317 0
0 0.463386 0
0.00047303 0.461479 0
0.0385443 0.458778 0
0.18587 0.455116 0
0.326467 0.450034 0
0.436622 0.442939 0
0.533455 0.434272 0
0.623178 0.421897 0
0.707897 0.405158 0
0.788342 0.381323 0
0.865843 0.346517 0
0.939239 0.293843 0.000671397
0.990387 0.204501 0.0122377
1 0.0554818 0.043595
1 0 0.0637675
1 0 0.069276
1 0 0.0728923
1 0 0.0754864
1 0 0.0772717
1 0 0.0784619
1 0 0.0792401
1 0 0.0797284
1 0 0.0800031
1 0 0.0801404
0 0.538186 0
0 0.538186 0
0 0.537942 0
0 0.537926 0
0 0.537423 0
0 0.537209 0
0 0.536767 0
0 0.536049 0
0 0.53576 0
0 0.534783 0
0 0.533608 0
0 0.53167 0
0.0719463 0.528908 0
0.259281 0.524956 0
0.395041 0.520211 0
0.503838 0.513191 0
0.600092 0.504326 0
0.689372 0.49247 0
0.772976 0.475517 0
0.852323 0.452583 0
0.927321 0.419501 0
0.983703 0.369009 0
1 0.285283 0.00575265
1 0.120653 0.0359197
1 0.0110323 0.0649119
1 0 0.0728618
1 0 0.0754711
1 0 0.0772564
1 0 0.0784619
1 0 0.0792401
1 0 0.0797284
1 0 0.0800031
1 0 0.0801404
0 0.608057 0
0 0.607813 0
0 0.607813 0
0 0.607736 0
0 0.607324 0
0 0.607095 0
0 0.606806 0
0 0.6065 0
0 0.605875 0
0 0.605173 0
0 0.604425 0
0 0.603143 0
0.0112154 0.601038 0
0.136812 0.598138 0
0.330785 0.594415 0
0.46247 0.589441 0
0.569802 0.582773 0
0.665995 0.57348 0
0.753628 0.561852 0
0.835889 0.545693 0
0.912825 0.523659 0
0.975525 0.492302 0
1 0.44538 0
1 0.368948 0
1 0.217838 0.0205844
1 0.0349432 0.0612802
1 0 0.0754559
1 0 0.0772564
1 0 0.0784619
1 0 0.0792401
1 0 0.0797284
1 0 0.0800031
1 0 0.0801404
0 0.676478 0
0 0.676478 0
0 0.676249 0
0 0.676249 0
0 0.676158 0
0 0.67599 0
0 0.675639 0
0 0.675563 0
0 0.675059 0
0 0.674693 0
0 0.674174 0
0 0.673167 0
0 0.671473 0
0.0478218 0.669383 0
0.222065 0.666285 0
0.401297 0.662257 0
0.529671 0.657008 0
0.63563 0.650507 0
0.729213 0.642084 0
0.815381 0.630564 0
0.895384 0.615351 0
0.965759 0.594522 0
0.999802 0.565148 0
1 0.521691 0
1 0.452216 0
1 0.319661 0.00526436
1 0.0739757 0.049134
1 0 0.0768292
1 0 0.0784619
1 0 0.0792248
1 0 0.0797284
1 0 0.0800031
1 0 0.0801404
0 0.743557 0
0 0.743313 0
0 0.743313 0
0 0.743313 0
0 0.743313 0
0 0.743252 0
0 0.742931 0
0 0.74287 0
0 0.742672 0
0 0.742321 0
0 0.742046 0
0 0.741146 0
0 0.740246 0
0.000656138 0.738491 0
0.087953 0.735927 0
0.300282 0.732921 0
0.472694 0.728969 0
0.59585 0.723796 0
0.698665 0.717327 0
0.790433 0.709224 0
0.874037 0.697932 0
0.947509 0.683513 0
0.991867 0.664622 0
1 0.63743 0
1 0.597681 0
1 0.534981 0
1 0.42063 0
1 0.141054 0.0336919
1 0 0.0740826
1 0 0.0792248
1 0 0.0797284
1 0 0.0800031
1 0 0.0801404
0 0.808408 0
0 0.808408 0
0 0.808408 0
0 0.808408 0
0 0.808408 0
0 0.808103 0
0 0.808057 0
0 0.808072 0
0 0.807935 0
0 0.807568 0
0 0.807324 0
0 0.806821 0
0 0.806058 0
0 0.80499 0
0.0151827 0.803037 0
0.158602 0.800778 0
0.384222 0.797406 0
0.542443 0.793835 0
0.660075 0.788647 0
0.760174 0.782315 0
0.849012 0.774304 0
0.926268 0.763867 0
0.981186 0.750668 0
1 0.732799 0
1 0.708537 0
1 0.672465 0
1 0.6168 0
1 0.520012 0
1 0.278889 0.0167697
1 0.0176242 0.0637827
1 0 0.0797284
1 0 0.0800031
1 0 0.0801404
0 0.870359 0.0111238
0 0.870359 0.0111238
0 0.870359 0.0111238
0 0.870359 0.0111238
0 0.870359 0.0111238
0 0.870359 0.0111238
0 0.870253 0.0111238
0 0.870039 0.0110475
0 0.869902 0.0112764
0 0.869825 0.0110933
0 0.869734 0.0110475
0 0.869276 0.0109712
0 0.868849 0.0111391
0 0.868147 0.0114595
0 0.866529 0.0125124
0.0361181 0.86482 0.0140078
0.246265 0.862272 0.0157473
0.467536 0.859205 0.0174868
0.610788 0.85536 0.0195773
0.722988 0.850431 0.0216983
0.819257 0.844495 0.0222477
0.901289 0.837034 0.0210117
0.965957 0.827588 0.0169223
0.997375 0.81532 0.0101778
1 0.799405 0.00277714
1 0.777279 6.10361e-05
1 0.746563 0
1 0.69839 0
1 0.620249 0
1 0.464805 0.00456245
1 0.145678 0.0334936
1 0.0228122 0.0726024
1 0 0.0801404
0 0.926665 0.099321
0 0.926665 0.099321
0 0.926665 0.099321
0 0.926665 0.099321
0 0.926665 0.099321
0 0.926665 0.099321
0 0.926665 0.099321
0 0.926665 0.099321
0 0.926467 0.0982834
0 0.92639 0.0983749
0 0.926268 0.0983902
0 0.926192 0.0979324
0 0.925841 0.0972305
0 0.925414 0.0962387
0 0.92459 0.09691
0 0.922942 0.0971542
0.0709544 0.92105 0.0982071
0.351843 0.918593 0.0989853
0.546151 0.915724 0.0992294
0.677501 0.911879 0.100084
0.784146 0.907591 0.0988632
0.873014 0.902083 0.095552
0.942687 0.895644 0.0874037
0.987091 0.887602 0.0733043
1 0.876951 0.0510719
1 0.862684 0.0308537
1 0.843107 0.0167391
1 0.816587 0.00480659
1 0.778134 0
1 0.718441 0
1 0.626169 0
1 0.401083 0
1 0.210437 0.0122072
0 0.973449 0.216373
0 0.973449 0.216373
0 0.973449 0.216373
0 0.973449 0.216373
0 0.973449 0.216373
0 0.973449 0.216373
0 0.973449 0.216373
0 0.973465 0.216068
0 0.97348 0.215976
0 0.973358 0.215793
0 0.973175 0.215274
0 0.973144 0.214847
0 0.973007 0.214588
0 0.972747 0.213382
0 0.972519 0.212909
0 0.971435 0.213107
0.00367742 0.969894 0.214008
0.183673 0.967712 0.214405
0.461936 0.965545 0.21413
0.622507 0.962539 0.213596
0.744472 0.959457 0.211475
0.842176 0.955703 0.207965
0.917754 0.951308 0.201251
0.972366 0.946181 0.191073
0.997116 0.939712 0.17641
1 0.930694 0.154986
1 0.919097 0.128801
1 0.903471 0.0907607
1 0.882673 0.0435798
1 0.854536 0.00466926
1 0.813016 0
1 0.745617 0
1 0.687327 0
0 0.99675 0.316396
0 0.99675 0.316396
0 0.996689 0.316045
0 0.996689 0.316045
0 0.996689 0.316045
0 0.996689 0.316045
0 0.996689 0.316045
0 0.996689 0.316045
0 0.996704 0.315938
0 0.996689 0.315587
0 0.996658 0.315602
0 0.996658 0.315373
0 0.996567 0.314824
0 0.996551 0.314458
0 0.996536 0.313878
0 0.996323 0.313649
0 0.995956 0.314107
0.0292515 0.995468 0.315221
0.310826 0.994888 0.315602
0.555505 0.994141 0.315663
0.699382 0.993317 0.315068
0.809674 0.992187 0.313039
0.892897 0.990814 0.309468
0.952911 0.988952 0.303853
0.989624 0.985428 0.294987
1 0.980209 0.282185
1 0.973831 0.2654
1 0.965408 0.23798
1 0.954421 0.194614
1 0.940398 0.138796
1 0.922545 0.0766003
1 0.895048 0.0193179
1 0.869703 0
0 1 0.402747
0 1 0.402747
0 1 0.402747
0 1 0.402747
0 1 0.402747
0 1 0.402747
0 1 0.402747
0 1 0.402747
0 1 0.402747
0 1 0.402426
0 1 0.402365
0 1 0.402365
0 1 0.401984
0 1 0.401892
0 1 0.401251
0 1 0.400916
0 1 0.400534
0 1 0.401144
0.0492561 1 0.401968
0.456168 1 0.402457
0.645045 1 0.402243
0.773968 1 0.401129
0.867597 1 0.398978
0.93315 0.999939 0.395209
0.978637 0.999496 0.389624
0.997986 0.998535 0.381201
1 0.997162 0.369955
1 0.995148 0.355062
1 0.992035 0.333501
1 0.987579 0.304295
1 0.981445 0.268223
1 0.971862 0.214023
1 0.963836 0.17528
0 1 0.481285
0 1 0.481285
0 1 0.481285
0 1 0.481285
0 1 0.481285
0 1 0.481285
0 1 0.48098
0 1 0.48098
0 1 0.48098
0 1 0.48098
0 1 0.480766
0 1 0.480705
0 1 0.480674
0 1 0.480446
0 1 0.480018
0 1 0.479728
0 1 0.479377
0 1 0.479316
0 1 0.480064
0.285313 1 0.481239
0.570108 1 0.480964
0.730617 1 0.480568
0.840375 1 0.479393
0.913634 1 0.476768
0.964279 1 0.472938
0.992538 1 0.467384
1 1 0.459373
1 1 0.449226
1 1 0.43592
1 1 0.418631
1 1 0.397086
1 1 0.369848
1 1 0.350759
0 1 0.553017
0 1 0.553017
0 1 0.553017
0 1 0.553017
0 1 0.553017
0 1 0.553017
0 1 0.553017
0 1 0.553017
0 1 0.553017
0 1 0.553017
0 1 0.553017
0 1 0.552956
0 1 0.552697
0 1 0.552422
0 1 0.552361
0 1 0.552071
0 1 0.551751
0 1 0.551385
0 1 0.551308
0.0468757 1 0.552331
0.453422 1 0.552941
0.673121 1 0.552819
0.80679 1 0.5523
0.893141 1 0.55082
0.949523 1 0.54815
0.986114 1 0.544106
0.999664 1 0.538689
1 1 0.531411
1 1 0.522347
1 1 0.510979
1 1 0.496834
1 1 0.479225
1 1 0.467338
0 1 0.618814
0 1 0.618814
0 1 0.618814
0 1 0.618814
0 1 0.618814
0 1 0.618814
0 1 0.618814
0 1 0.618814
0 1 0.618814
