packages/webcomponents/examples/L-Log_to_Natural_VLog.cube
TITLE "Generated by Resolve"
#LUMIXPHOTOSTYLE VLOG
LUT_3D_SIZE 9
0 0 0
0.0286107 0 0
0.149264 0 0
0.378546 0 0
0.675502 0 0.00852979
0.956115 0 0.0404974
1 0 0.0693065
1 0 0.0784619
1 0 0.0801404
0 0.0189975 0
0.0106355 0.0137636 0
0.140429 0.00323491 0
0.375402 0 0
0.675502 0 0.00886549
0.956115 0 0.0404974
1 0 0.0693065
1 0 0.0784619
1 0 0.0801404
0 0.12372 0
0 0.119509 0
0.107698 0.110872 0
0.364004 0.0734875 0
0.672847 0 0.00924697
0.956115 0 0.0410773
1 0 0.0693065
1 0 0.0784619
1 0 0.0801404
0 0.32813 0
0 0.325795 0
0 0.321431 0
0.303868 0.304845 0
0.653437 0.244587 0
0.95259 0.00735485 0.0401923
1 0 0.0692912
1 0 0.0784619
1 0 0.0801404
0 0.608057 0
0 0.607324 0
0 0.605875 0
0.0112154 0.601038 0
0.569802 0.582773 0
0.912825 0.523659 0
1 0.217838 0.0205844
1 0 0.0784619
1 0 0.0801404
0 0.870359 0.0111238
0 0.870359 0.0111238
0 0.869902 0.0112764
0 0.868849 0.0111391
0.246265 0.862272 0.0157473
0.819257 0.844495 0.0222477
1 0.799405 0.00277714
1 0.620249 0
1 0 0.0801404
0 1 0.402747
0 1 0.402747
0 1 0.402747
0 1 0.401984
0 1 0.400534
0.645045 1 0.402243
0.978637 0.999496 0.389624
1 0.992035 0.333501
1 0.963836 0.17528
0 1 0.678691
0 1 0.678691
0 1 0.678691
0 1 0.678691
0 1 0.67805
0.0438087 1 0.677989
0.915816 1 0.677623
1 1 0.66421
1 1 0.636973
0 1 0.823728
0 1 0.823728
0 1 0.823728
0 1 0.823728
0 1 0.823728
0 1 0.823087
0.827176 1 0.8262
1 1 0.823926
1 1 0.816571
0 0 0.00921645
0.0213016 0 0.00895705
0.145159 0 0.00972
0.376379 0 0.0157168
0.674983 0 0.0303502
0.955932 0 0.0436866
1 0 0.0693065
1 0 0.0784619
1 0 0.0801404
0 0.0112612 0.00662242
0.00717174 0.00679026 0.00660716
0.137774 4.57771e-05 0.0074464
0.373953 0 0.0133516
0.674678 0 0.0283818
0.955917 0 0.0424964
1 0 0.0693065
1 0 0.0784619
1 0 0.0801404
0 0.119081 0.000259403
0 0.115038 0.000488289
0.104967 0.106157 0.00138857
0.362387 0.0678111 0.00579843
0.672435 0 0.0273747
0.955886 0 0.0413367
1 0 0.0693065
1 0 0.0784619
1 0 0.0801404
0 0.325505 0
0 0.323537 0
0 0.318547 0
0.301839 0.302083 0
0.653086 0.240055 0
0.95259 0.00588998 0.0409705
1 0 0.069276
1 0 0.0784619
1 0 0.0801404
0 0.606607 0
0 0.605875 0
0 0.6047 0
0.0100404 0.599603 0
0.569451 0.581277 0
0.912856 0.521813 0
1 0.211994 0.0217441
1 0 0.0784619
1 0 0.0801404
0 0.869932 0.0109712
0 0.869932 0.0109712
0 0.86949 0.0110933
0 0.868635 0.0110475
0.244526 0.86186 0.0155032
0.819181 0.844038 0.0218814
1 0.798871 0.00268559
1 0.618631 0
1 0 0.0801404
0 1 0.402426
0 1 0.402426
0 1 0.402426
0 1 0.401663
0 1 0.400519
0.644556 1 0.402243
0.978668 0.999496 0.389288
1 0.992035 0.333501
1 0.963836 0.17528
0 1 0.678691
0 1 0.678691
0 1 0.678691
0 1 0.678431
0 1 0.67805
0.0438087 1 0.677974
0.915816 1 0.677623
1 1 0.664225
1 1 0.636973
0 1 0.823728
0 1 0.823728
0 1 0.823728
0 1 0.823728
0 1 0.823728
0 1 0.823087
0.82678 1 0.8262
1 1 0.823926
1 1 0.816571
0 0 0.104601
0.00782788 0 0.104189
0.139528 0 0.104128
0.37438 0 0.105638
0.674495 0 0.109163
0.955657 0 0.0996719
1 0 0.0692912
1 0 0.0784619
1 0 0.0801404
0 0.000289921 0.102968
0.00195315 1.5259e-05 0.102556
0.133883 0 0.102449
0.372671 0 0.103899
0.67422 0 0.107118
0.955657 0 0.0979934
1 0 0.0692912
1 0 0.0784619
1 0 0.0801404
0 0.11223 0.0995651
0 0.108431 0.0991531
0.0979629 0.0989242 0.0993057
0.360647 0.0582284 0.101625
0.671778 0 0.107195
0.955444 0 0.0957961
1 0 0.0692912
1 0 0.0784619
1 0 0.0801404
0 0.324712 0.0666361
0 0.322515 0.0664378
0 0.318013 0.0671702
0.297902 0.301808 0.0719463
0.652201 0.239307 0.0858625
0.952316 0.00540169 0.0986343
1 0 0.0692912
1 0 0.0784619
1 0 0.0801404
0 0.604944 0
0 0.604456 0
0 0.60325 0
0.00581369 0.598062 1.5259e-05
0.568475 0.579644 0
0.91249 0.519875 0.000137331
1 0.205127 0.0230716
1 0 0.0784619
1 0 0.0801404
0 0.86949 0.0108339
0 0.86949 0.0108339
0 0.869093 0.0108797
0 0.868208 0.0108797
0.241871 0.861433 0.015259
0.819089 0.84358 0.0215152
1 0.798337 0.00259403
1 0.617487 0
1 0 0.0801404
0 1 0.402426
0 1 0.402121
0 1 0.402121
0 1 0.401663
0 1 0.400198
0.644343 1 0.401923
0.978668 0.999496 0.389288
1 0.991943 0.333074
1 0.963668 0.17464
0 1 0.678431
0 1 0.678431
0 1 0.678431
0 1 0.678431
0 1 0.677791
0.0438087 1 0.677714
0.915587 1 0.677623
1 1 0.663966
1 1 0.636667
0 1 0.823728
0 1 0.823728
0 1 0.823728
0 1 0.823728
0 1 0.823728
0 1 0.823087
0.82678 1 0.8262
1 1 0.823926
1 1 0.816571
0 0 0.297902
0 0 0.297627
0.104936 0 0.297368
0.363668 0 0.297185
0.670573 0 0.296086
0.953872 0 0.283375
1 0 0.224002
1 0 0.0784772
1 0 0.0801404
0 0 0.296529
0 0 0.296269
0.103822 0 0.29601
0.363165 0 0.295811
0.670329 0 0.294728
0.953887 0 0.282032
1 0 0.222385
1 0 0.0784619
1 0 0.0801404
0 0.0446326 0.295918
0 0.0406958 0.295476
0.0562448 0.025864 0.295354
0.351446 0.00129702 0.29514
0.667903 0 0.294377
0.953902 0 0.280003
1 0 0.220371
1 0 0.0784619
1 0 0.0801404
0 0.311055 0.288304
0 0.309453 0.288151
0 0.304601 0.287968
0.285023 0.28716 0.288334
0.647303 0.220005 0.289326
0.949813 0 0.283833
1 0 0.214267
1 0 0.0784619
1 0 0.0801404
0 0.596628 0.265888
0 0.596399 0.265415
0 0.595056 0.265003
0 0.589944 0.264561
0.562417 0.57142 0.264546
0.909392 0.511864 0.257694
1 0.198032 0.222797
1 0 0.0784466
1 0 0.0801404
0 0.86302 0.26569
0 0.862806 0.265248
0 0.862898 0.264759
0 0.861326 0.262379
0.226139 0.855024 0.261082
0.816083 0.837644 0.248859
1 0.793194 0.172305
1 0.612848 0
1 0 0.0801404
0 1 0.40148
0 1 0.40148
0 1 0.40148
0 1 0.401022
0 1 0.399542
0.642802 1 0.401297
0.978515 0.999466 0.388327
1 0.991836 0.332372
1 0.96318 0.172747
0 1 0.678431
0 1 0.678431
0 1 0.678431
0 1 0.678172
0 1 0.677791
0.0427863 1 0.677699
0.91545 1 0.677363
1 1 0.663966
1 1 0.636362
0 1 0.823728
0 1 0.823728
0 1 0.823728
0 1 0.823728
0 1 0.823728
0 1 0.823087
0.825986 1 0.8262
1 1 0.823926
1 1 0.816571
0 0 0.562936
0 0 0.562692
0 0 0.562829
0.315831 0 0.563088
0.651926 0 0.563973
0.945907 0 0.562997
1 0 0.545281
1 0 0.478981
1 0 0.282383
0 0 0.562463
0 0 0.562463
0 0 0.562356
0.315068 0 0.562615
0.651698 0 0.563516
0.945922 0 0.562539
1 0 0.544793
1 0 0.478416
1 0 0.280735
0 0 0.562005
0 0 0.561776
0 0 0.561898
0.314336 0 0.562158
0.651713 0 0.563043
0.945708 0 0.561837
1 0 0.544305
1 0 0.477531
1 0 0.279103
0 0.262547 0.557382
0 0.260822 0.557183
0 0.256031 0.557351
0.230274 0.233204 0.557702
0.630716 0.138674 0.55906
0.941146 0 0.560113
1 0 0.542596
1 0 0.474937
1 0 0.273762
0 0.572137 0.545083
0 0.571908 0.545098
0 0.570932 0.544945
0 0.565362 0.545083
0.543069 0.545769 0.546197
0.900023 0.483589 0.546395
1 0.126024 0.540642
1 0 0.471
1 0 0.256519
0 0.846006 0.534752
0 0.845777 0.534722
0 0.845579 0.534493
0 0.844678 0.533974
0.194827 0.837446 0.534524
0.80763 0.819303 0.532876
1 0.773098 0.518471
1 0.587442 0.468864
1 0 0.299016
0 1 0.57171
0 1 0.57145
0 1 0.571328
0 1 0.571069
0 0.999985 0.56939
0.635248 0.998764 0.568383
0.974578 0.995773 0.554101
1 0.986236 0.499199
1 0.956741 0.344121
0 1 0.685985
0 1 0.685939
0 1 0.685878
0 1 0.685725
0 1 0.684565
0.0414282 1 0.682948
0.9149 1 0.676768
1 1 0.663172
1 1 0.635767
0 1 0.823728
0 1 0.823728
0 1 0.823728
0 1 0.823728
0 1 0.823728
0 1 0.823087
0.824414 1 0.8262
1 1 0.823941
1 1 0.816571
0 0.256748 0.810971
0 0.256748 0.810971
0 0.256748 0.810971
0.0377966 0.248341 0.811292
0.587716 0.190692 0.812436
0.911788 0.0224002 0.814649
1 0 0.816754
1 0 0.803677
1 0 0.772931
0 0.256748 0.810971
0 0.256748 0.810971
0 0.256748 0.810971
0.0367742 0.248035 0.811093
0.587488 0.190372 0.812222
0.911833 0.0219577 0.81445
1 0 0.816754
1 0 0.803677
1 0 0.772686
0 0.256413 0.810773
0 0.256413 0.810773
0 0.256413 0.810773
0.0356298 0.247745 0.810895
0.587228 0.190433 0.812222
0.911833 0.0219577 0.81445
1 0 0.816556
1 0 0.803449
1 0 0.772442
0 0.255756 0.810361
0 0.255756 0.810361
0 0.255756 0.810361
0.0322881 0.247227 0.810483
0.586511 0.189883 0.811826
0.911665 0.021088 0.814038
1 0 0.816342
1 0 0.802976
1 0 0.771939
0 0.543374 0.802304
0 0.543023 0.802319
0 0.542519 0.802335
0 0.538338 0.802365
0.506081 0.517983 0.803723
0.879286 0.455634 0.806012
1 0.100053 0.809354
1 0 0.801144
1 0 0.76997
0 0.81854 0.78938
0 0.81854 0.78938
0 0.818326 0.78938
0 0.817563 0.789441
0.103807 0.810285 0.790311
0.791211 0.791821 0.791684
1 0.742245 0.790692
1 0.55555 0.785275
1 0 0.773007
0 0.993774 0.791012
0 0.993774 0.791012
0 0.993774 0.791012
0 0.993698 0.790799
0 0.993271 0.790478
0.617304 0.987869 0.791745
0.964294 0.978042 0.78851
1 0.960342 0.77409
1 0.921523 0.744839
0 1 0.831052
0 1 0.831052
0 1 0.831052
0 1 0.830976
0 1 0.830442
0.0355077 1 0.830213
0.906859 1 0.829801
1 1 0.818921
1 1 0.794293
0 1 0.867414
0 1 0.867414
0 1 0.867414
0 1 0.867338
0 1 0.867185
0 1 0.866407
0.819059 1 0.867796
1 1 0.861799
1 1 0.848264
0.0657206 0.590906 0.972519
0.0657206 0.590906 0.972519
0.0657206 0.590906 0.972519
0.065156 0.590616 0.972427
0.443153 0.583886 0.973007
0.842084 0.553246 0.975097
1 0.466773 0.978439
1 0.0802319 0.985855
1 0 0.988006
0.065156 0.590616 0.972427
0.065156 0.590616 0.972427
0.065156 0.590616 0.972427
0.065156 0.590616 0.972427
0.442756 0.583902 0.973007
0.842084 0.553246 0.975097
1 0.466773 0.978439
1 0.0802319 0.985855
1 0 0.988006
0.065156 0.590616 0.972427
0.065156 0.590616 0.972427
0.065156 0.590616 0.972427
0.065156 0.590616 0.972427
0.442267 0.583612 0.972915
0.842084 0.553246 0.975097
1 0.466773 0.978439
1 0.0802319 0.985855
1 0 0.988006
0.065156 0.590616 0.972427
0.0645914 0.590326 0.972335
0.0645914 0.590326 0.972335
0.0645914 0.590326 0.972335
0.441093 0.583658 0.972915
0.841871 0.552941 0.975021
1 0.466438 0.978363
1 0.0790112 0.985779
1 0 0.987945
0.0634775 0.589746 0.972168
0.0634775 0.589746 0.972168
0.0634775 0.589746 0.972168
0.0634775 0.589746 0.972168
0.436988 0.5832 0.972732
0.841215 0.552377 0.974838
1 0.465446 0.978195
1 0.0778058 0.985611
1 0 0.987823
0 0.812009 0.959991
0 0.811856 0.960006
0 0.811856 0.960006
0 0.811444 0.960021
0.0679484 0.806867 0.960616
0.765545 0.789319 0.962798
0.999374 0.745876 0.965835
1 0.591959 0.971893
1 0 0.987716
0 0.97377 0.949477
0 0.973693 0.949477
0 0.973693 0.949477
0 0.973693 0.949477
0 0.972869 0.949569
0.601022 0.964187 0.95169
0.952407 0.953323 0.953079
1 0.935439 0.952636
1 0.893248 0.951812
0 1 0.952392
0 1 0.952392
0 1 0.952392
0 1 0.952392
0 1 0.952377
0.0115816 1 0.953109
0.899702 1 0.955535
1 1 0.954482
1 1 0.950774
0 1 0.959213
0 1 0.959213
0 1 0.959213
0 1 0.959213
0 1 0.959167
0 1 0.958999
0.815671 1 0.962005
0.999298 1 0.961761
1 1 0.959228
0.487678 0.844739 1
0.487678 0.844739 1
0.487678 0.844739 1
0.487678 0.844739 1
0.487678 0.844739 1
0.75758 0.837491 1
0.991821 0.819165 1
1 0.770977 1
1 0.652537 1
0.487678 0.844739 1
0.487678 0.844739 1
0.487678 0.844739 1
0.487678 0.844739 1
0.487678 0.844739 1
0.75758 0.837491 1
0.991821 0.819165 1
1 0.770672 1
1 0.652537 1
0.487678 0.844739 1
0.487678 0.844739 1
0.487678 0.844739 1
0.487678 0.844739 1
0.487327 0.844541 1
0.757412 0.837507 1
0.991821 0.819165 1
1 0.770672 1
1 0.652537 1
0.487678 0.844739 1
0.487327 0.844541 1
0.487327 0.844541 1
0.487327 0.844541 1
0.487327 0.844541 1
0.757259 0.837507 1
0.991699 0.819196 1
1 0.770672 1
1 0.652537 1
0.487327 0.844541 1
0.487327 0.844541 1
0.487327 0.844541 1
0.487327 0.844541 1
0.486961 0.844358 1
0.756374 0.837339 1
0.991623 0.818982 1
1 0.770367 1
1 0.652003 1
0.466651 0.857694 1
0.466743 0.857633 1
0.46685 0.857557 1
0.467201 0.857328 1
0.46836 0.856565 1
0.747189 0.847745 1
0.990387 0.822156 1
1 0.769802 1
1 0.650355 1
0.0553292 0.969879 1
0.0553292 0.969879 1
0.0553292 0.969879 1
0.055436 0.969818 1
0.0556649 0.969696 1
0.610101 0.964981 1
0.94641 0.955627 1
1 0.941238 1
1 0.909819 1
0 1 1
0 1 1
0 1 1
0 1 1
0 1 1
0.0178531 1 1
0.897261 1 1
1 1 1
1 0.999863 1
0 1 0.999969
0 1 0.999969
0 1 0.999969
0 1 0.999969
0 1 0.999969
0 1 0.999954
0.80531 1 0.999985
0.998276 1 1
1 1 1
0.719783 0.949966 1
0.719783 0.949966 1
0.719783 0.949966 1
0.719783 0.949966 1
0.719783 0.949966 1
0.719783 0.949966 1
0.955383 0.943145 1
1 0.932128 1
1 0.912016 1
0.719783 0.949966 1
0.719783 0.949966 1
0.719783 0.949966 1
0.719783 0.949966 1
0.719783 0.949966 1
0.719783 0.949966 1
0.955383 0.943145 1
1 0.932128 1
1 0.912016 1
0.719783 0.949966 1
0.719783 0.949966 1
0.719783 0.949966 1
0.719783 0.949966 1
0.719783 0.949966 1
0.719783 0.949966 1
0.955291 0.94316 1
1 0.932128 1
1 0.912016 1
0.719783 0.949966 1
0.719783 0.949966 1
0.719783 0.949966 1
0.719783 0.949966 1
0.719783 0.949966 1
0.719783 0.949966 1
0.955291 0.94316 1
1 0.932128 1
1 0.912016 1
0.719783 0.949966 1
0.719783 0.949966 1
0.719783 0.949966 1
0.719783 0.949966 1
0.719783 0.949966 1
0.719783 0.949966 1
0.9552 0.94316 1
1 0.932128 1
1 0.912016 1
0.719783 0.949966 1
0.719783 0.949966 1
0.719783 0.949966 1
0.719783 0.949966 1
0.719783 0.949966 1
0.719783 0.949966 1
0.954849 0.943175 1
1 0.932143 1
1 0.912016 1
0.673945 0.97763 1
0.674006 0.977615 1
0.674006 0.977615 1
0.674098 0.977569 1
0.674296 0.977493 1
0.67509 0.977172 1
0.941848 0.970169 1
1 0.960067 1
1 0.941131 1
0.297429 1 1
0.297429 1 1
0.297429 1 1
0.297429 1 1
0.298238 1 1
0.300649 1 1
0.899855 1 1
0.99942 1 1
1 1 1
0 1 1
0 1 1
0 1 1
0 1 1
0 1 1
0 1 1
0.80531 1 1
0.996857 1 1
1 1 1
