packages/webcomponents/examples/L-Log_to_Classic_VLog.cube
TITLE "Generated by Resolve"
#LUMIXPHOTOSTYLE VLOG
LUT_3D_SIZE 33
0.00347906 0.00161746 0.00302129
0.00347906 0.00161746 0.00302129
0.00448615 0.00244144 0.00393683
0.00991836 0.00679026 0.00863661
0.0214694 0.0142672 0.0153506
0.0529488 0.0289311 0.0254215
0.0911879 0.0406043 0.0293126
0.130983 0.0495003 0.0274205
0.180758 0.057435 0.0240787
0.244038 0.0591287 0.0135653
0.317861 0.0453956 0.000442512
0.395987 0.0158999 0
0.473503 0 0
0.544472 0 0
0.610544 0 0
0.680552 0 0
0.735088 0 0
0.766247 0 0
0.780774 0 0.00418097
0.788235 0 0.039704
0.792966 0 0.0782788
0.796002 0 0.0957504
0.797787 0 0.102266
0.798566 0 0.103609
0.798871 0 0.104158
0.798947 0 0.104372
0.798978 0 0.104448
0.799008 0 0.104509
0.799008 0 0.10454
0.799008 0 0.10457
0.799023 0 0.104585
0.799023 0 0.104585
0.799023 0 0.104585
0.00347906 0.00161746 0.00302129
0.00347906 0.00161746 0.00302129
0.00440986 0.00239567 0.00387579
0.00985733 0.00674449 0.00859083
0.0211795 0.0140993 0.0152285
0.05243 0.0287022 0.0252842
0.0907912 0.0404974 0.0292821
0.130632 0.0494392 0.027451
0.180316 0.0574044 0.0241398
0.243778 0.059144 0.0136416
0.317586 0.0455024 0.000442512
0.395987 0.0158999 0
0.473243 0 0
0.544472 0 0
0.610315 0 0
0.680552 0 0
0.735088 0 0
0.766247 0 0
0.780774 0 0.00418097
0.788235 0 0.039704
0.792966 0 0.0782788
0.796002 0 0.0957504
0.797787 0 0.102266
0.798566 0 0.103609
0.798871 0 0.104158
0.798947 0 0.104372
0.798978 0 0.104448
0.799008 0 0.104509
0.799008 0 0.10454
0.799008 0 0.10457
0.799023 0 0.104585
0.799023 0 0.104585
0.799023 0 0.104585
0.0043183 0.00236515 0.00387579
0.00422675 0.00227359 0.00378424
0.00488289 0.00280766 0.00436408
0.00973526 0.00668345 0.00854505
0.020264 0.0135805 0.0148013
0.0505684 0.0280156 0.0249027
0.0888838 0.0400244 0.0292515
0.129198 0.0491493 0.0275425
0.179355 0.0573129 0.0242313
0.243259 0.059205 0.0137636
0.317311 0.0456092 0.000442512
0.395712 0.0160067 0
0.473243 0 0
0.544228 0 0
0.610315 0 0
0.680552 0 0
0.735088 0 0
0.766247 0 0
0.780774 0 0.00418097
0.788235 0 0.039704
0.792966 0 0.0782788
0.796002 0 0.0957504
0.797787 0 0.102266
0.798566 0 0.103609
0.798871 0 0.104158
0.798947 0 0.104372
0.798978 0 0.104448
0.799008 0 0.104509
0.799008 0 0.10454
0.799008 0 0.10457
0.799023 0 0.104585
0.799023 0 0.104585
0.799023 0 0.104585
0.00704967 0.00480659 0.00660716
0.00695811 0.00471504 0.0065156
0.00714122 0.00485237 0.00666819
0.00979629 0.00695811 0.00886549
0.0172885 0.0120699 0.0135958
0.0423438 0.0250248 0.0233158
0.0787518 0.037705 0.0293431
0.117098 0.0465705 0.0283818
0.163104 0.0555276 0.0251316
0.222675 0.060029 0.0180667
0.29485 0.0518807 0.00267033
0.374609 0.0224613 0
0.45597 0.0010071 0
0.535332 0 0
0.607858 0 0
0.680293 0 0
0.735088 0 0
0.766247 0 0
0.780774 0 0.00418097
0.788235 0 0.039704
0.792966 0 0.0782788
0.796002 0 0.0957504
0.797787 0 0.102266
0.798566 0 0.103609
0.798871 0 0.104158
0.798947 0 0.104372
0.798978 0 0.104448
0.799008 0 0.104509
0.799008 0 0.10454
0.799008 0 0.10457
0.799023 0 0.104585
0.799023 0 0.104585
0.799023 0 0.104585
0.0115206 0.00955215 0.0113375
0.011368 0.0093843 0.0111696
0.0112001 0.00917067 0.0109712
0.0119173 0.00946059 0.0112917
0.0170291 0.0129244 0.0144808
0.0374914 0.0237278 0.0227665
0.0735332 0.0366217 0.0294347
0.111955 0.0456245 0.0289616
0.156527 0.0549172 0.0256352
0.214115 0.0601968 0.0192721
0.282506 0.0552834 0.00296025
0.359411 0.0278935 0
0.439109 0.00274662 0
0.517815 0 0
0.59266 0 0
0.66772 0 0
0.731563 0 0
0.766247 0 0
0.780774 0 0.00418097
0.788235 0 0.039704
0.792966 0 0.0782788
0.796002 0 0.0957504
0.797787 0 0.102266
0.798566 0 0.103609
0.798871 0 0.104158
0.798947 0 0.104372
0.798978 0 0.104448
0.799008 0 0.104509
0.799008 0 0.10454
0.799008 0 0.10457
0.799023 0 0.104585
0.799023 0 0.104585
0.799023 0 0.104585
0.0193332 0.0295415 0.0256352
0.0193637 0.0285954 0.0251316
0.0193484 0.0272068 0.0243381
0.0191043 0.0231937 0.0218814
0.0214084 0.0234836 0.0223697
0.0335393 0.0285191 0.0261997
0.0654765 0.036759 0.0302586
0.105684 0.045304 0.0300603
0.151064 0.0547951 0.0272831
0.208972 0.0601816 0.0216983
0.277241 0.057023 0.00573739
0.352911 0.0351873 0.000320439
0.429236 0.00798047 0
0.505028 0 0
0.579202 0 0
0.658137 0 0
0.723018 0 0
0.762051 0 0
0.780774 0 0.00418097
0.788235 0 0.039704
0.792966 0 0.0782788
0.796002 0 0.0957504
0.797787 0 0.102266
0.798566 0 0.103609
0.798871 0 0.104158
0.798947 0 0.104372
0.798978 0 0.104448
0.799008 0 0.104509
0.799008 0 0.10454
0.799008 0 0.10457
0.799023 0 0.104585
0.799023 0 0.104585
0.799023 0 0.104585
0.0123903 0.0609445 0.0399939
0.0128481 0.0601053 0.0397345
0.0135653 0.0586099 0.0392309
0.0167086 0.0513771 0.0365759
0.0187991 0.049012 0.0357671
0.025452 0.0489815 0.0360876
0.0509041 0.0482185 0.035523
0.0948653 0.053666 0.0341192
0.143801 0.0597238 0.0309453
0.203479 0.062501 0.0250248
0.27335 0.0598001 0.0104067
0.349355 0.0443275 0.00128176
0.426719 0.0173342 0
0.499809 0.00105287 0
0.567941 0 0
0.644175 0 0
0.718395 0 0
0.759197 0 0
0.778897 0 0.00244144
0.788205 0 0.0395361
0.792966 0 0.0782788
0.796002 0 0.0957504
0.797787 0 0.102266
0.798566 0 0.103609
0.798871 0 0.104158
0.798947 0 0.104372
0.798978 0 0.104448
0.799008 0 0.104509
0.799008 0 0.10454
0.799008 0 0.10457
0.799023 0 0.104585
0.799023 0 0.104585
0.799023 0 0.104585
0.00111391 0.0928664 0.0480964
0.00115969 0.0922408 0.0479896
0.00131228 0.0910353 0.047776
0.00299077 0.0827649 0.0461738
0.00415045 0.0790875 0.0453803
0.00741588 0.0771954 0.0449378
0.0317845 0.0747387 0.043595
0.0808118 0.0764172 0.0412604
0.134844 0.0776379 0.0374304
0.197055 0.0766766 0.0293126
0.268605 0.0717632 0.0129854
0.346136 0.0587778 0.00134279
0.426032 0.0337377 0
0.500984 0.00614939 0
0.56643 4.57771e-05 0
0.631098 0 0
0.705608 0 0
0.757 0 0
0.777539 0 0.00128176
0.786999 0 0.0284886
0.792966 0 0.0782788
0.796002 0 0.0957504
0.797787 0 0.102266
0.798566 0 0.103609
0.798871 0 0.104158
0.798947 0 0.104372
0.798978 0 0.104448
0.799008 0 0.104509
0.799008 0 0.10454
0.799008 0 0.10457
0.799023 0 0.104585
0.799023 0 0.104585
0.799023 0 0.104585
0 0.130709 0.0518807
0 0.130053 0.0518654
0 0.128923 0.0518044
0 0.118318 0.0511635
0 0.113542 0.0507362
0 0.110796 0.0504158
0.00987259 0.109804 0.0500496
0.0587472 0.110979 0.0480507
0.119875 0.110887 0.0438849
0.186633 0.108812 0.0361639
0.261341 0.103395 0.0220798
0.34136 0.0943008 0.00471504
0.42385 0.074876 0
0.502983 0.0314946 0
0.572625 0.00329595 0
0.634195 0 0
0.693721 0 0
0.749081 0 0
0.776516 0 0.00047303
0.785977 0 0.0194095
0.792065 0 0.0721752
0.796002 0 0.0957504
0.797787 0 0.102266
0.798566 0 0.103609
0.798871 0 0.104158
0.798947 0 0.104372
0.798978 0 0.104448
0.799008 0 0.104509
0.799008 0 0.10454
0.799008 0 0.10457
0.799023 0 0.104585
0.799023 0 0.104585
0.799023 0 0.104585
0 0.179675 0.049134
0 0.17908 0.0492103
0 0.178241 0.0493172
0 0.164813 0.0508431
0 0.157122 0.0514992
0 0.153063 0.0516823
0.000244144 0.151659 0.0517281
0.0268864 0.153246 0.0504005
0.0926986 0.154192 0.0460822
0.167498 0.153079 0.0373236
0.247333 0.149706 0.023621
0.332006 0.14316 0.005066
0.41767 0.128923 0
0.501671 0.0971084 0
0.579614 0.0383612 0
0.646662 0.00331121 0
0.702602 0 0
0.744274 0 0
0.772229 0 0.000122072
0.785367 0 0.0143893
0.791287 0 0.0665141
0.795316 0 0.0922866
0.797787 0 0.102266
0.798566 0 0.103609
0.798871 0 0.104158
0.798947 0 0.104372
0.798978 0 0.104448
0.799008 0 0.104509
0.799008 0 0.10454
0.799008 0 0.10457
0.799023 0 0.104585
0.799023 0 0.104585
0.799023 0 0.104585
0 0.237598 0.0268559
0 0.236942 0.0272221
0 0.2365 0.0274662
0 0.222599 0.0346838
0 0.211429 0.0396429
0 0.205234 0.0416419
0 0.202548 0.0424811
0.0043946 0.202792 0.0421607
0.0489509 0.205249 0.0379187
0.134981 0.205936 0.0261234
0.225055 0.204715 0.0105592
0.316869 0.200427 0.00181582
0.407538 0.190036 0
0.49575 0.169787 0
0.580011 0.130983 0
0.657649 0.0651255 0
0.719768 0.00851453 0
0.757107 0 7.62951e-05
0.775036 0 0.00265507
0.783307 0 0.0113375
0.790784 0 0.0624094
0.794736 0 0.0892195
0.797345 0 0.100908
0.798566 0 0.103609
0.798871 0 0.104158
0.798947 0 0.104372
0.798978 0 0.104448
0.799008 0 0.104509
0.799008 0 0.10454
0.799008 0 0.10457
0.799023 0 0.104585
0.799023 0 0.104585
0.799023 0 0.104585
0 0.300145 0.00444038
0 0.299916 0.00450141
0 0.299458 0.00460822
0 0.288563 0.00810254
0 0.275166 0.0125277
0 0.265782 0.015259
0 0.261128 0.0167239
0 0.259556 0.0172427
0.00939956 0.262104 0.0141146
0.0789349 0.265965 0.00697337
0.188098 0.267338 0.00077821
0.292531 0.2654 0
0.391363 0.258915 0
0.48574 0.244617 0
0.575662 0.2206 0
0.659602 0.181521 0
0.734646 0.115053 0
0.787121 0.0288243 0.00125124
0.798306 0.0062562 0.0246281
0.79556 0.00163272 0.0631266
0.78996 0 0.0531777
0.79443 0 0.0873274
0.796994 0 0.0996872
0.798306 0 0.103227
0.798871 0 0.104158
0.798947 0 0.104372
0.798978 0 0.104448
0.799008 0 0.104509
0.799008 0 0.10454
0.799008 0 0.10457
0.799023 0 0.104585
0.799023 0 0.104585
0.799023 0 0.104585
0 0.364263 0
0 0.364034 0
0 0.363577 0
0 0.356893 6.10361e-05
0 0.345235 0.000671397
0 0.332494 0.0012665
0 0.324559 0.00161746
0 0.321645 0.00175479
0 0.322667 0.00111391
0.0239719 0.328359 0
0.125521 0.334234 0
0.251194 0.335378 0
0.364569 0.332341 0
0.468254 0.323461 4.57771e-05
0.565789 0.307668 0.00062562
0.655665 0.283116 0.000183108
0.7364 0.246021 0
0.804929 0.18996 0.00102235
0.838666 0.133898 0.0290074
0.827375 0.0758831 0.0901808
0.809247 0.0149081 0.10135
0.795453 0 0.0880751
0.796841 0 0.0991073
0.798169 0 0.102998
0.798749 0 0.10396
0.798947 0 0.104372
0.798978 0 0.104448
0.799008 0 0.104509
0.799008 0 0.10454
0.799008 0 0.10457
0.799023 0 0.104585
0.799023 0 0.104585
0.799023 0 0.104585
0 0.426154 0
0 0.425925 0
0 0.425925 0
0 0.421134 0
0 0.415442 0
0 0.402975 0
0 0.39089 0
0 0.385214 0
0 0.385016 0
0.00216678 0.3906 0
0.0453651 0.400092 0
0.17734 0.406577 0
0.321798 0.407202 0
0.440452 0.403006 1.5259e-05
0.547738 0.393194 0.000274662
0.645075 0.376394 0.000122072
0.731517 0.352117 0
0.805951 0.317449 1.5259e-05
0.86276 0.271595 0.00523384
0.870207 0.229038 0.0514229
0.850904 0.15874 0.0929274
0.823651 0.0517586 0.109712
0.800961 0.0011902 0.103304
0.798108 0 0.102876
0.798703 0 0.103868
0.798932 0 0.10428
0.798978 0 0.104448
0.799008 0 0.104509
0.799008 0 0.10454
0.799008 0 0.10457
0.799023 0 0.104585
0.799023 0 0.104585
0.799023 0 0.104585
0 0.485481 0
0 0.485267 0
0 0.485069 0
0 0.481224 0
0 0.477577 0
0 0.472984 0
0 0.460044 0
0 0.448173 0
0 0.445243 0
0 0.450736 0
0.00567636 0.461799 0
0.0804303 0.4748 0
0.250828 0.481315 0
0.397101 0.481376 0
0.519081 0.47538 0
0.626062 0.464881 0
0.719753 0.448341 0
0.799222 0.424949 0
0.866911 0.391058 0.000823987
0.902388 0.350896 0.0122072
0.899626 0.30602 0.0412604
0.877363 0.239643 0.080293
0.842329 0.116915 0.108507
0.808377 0.0118257 0.109682
0.798795 0 0.103929
0.798917 0 0.104265
0.798978 0 0.104402
0.799008 0 0.104509
0.799008 0 0.10454
0.799008 0 0.10457
0.799023 0 0.104585
0.799023 0 0.104585
0.799023 0 0.104585
0 0.541161 0
0 0.541161 0
0 0.540963 0
0 0.538186 0
0 0.53431 0
0 0.532128 0
0 0.528222 0
0 0.514595 0
0 0.503258 0
0 0.505882 0
0.000335698 0.517235 0
0.02121 0.532692 0
0.144747 0.548806 0
0.330983 0.55552 0
0.478294 0.555184 0
0.599771 0.549538 0
0.702556 0.538445 0
0.788006 0.521782 0
0.860059 0.497704 0
0.913466 0.464027 0.00015259
0.932799 0.425803 0.00344854
0.926574 0.379934 0.0201877
0.905333 0.315557 0.0553445
0.867308 0.203464 0.0965286
0.82002 0.0456092 0.111925
0.79942 0 0.104738
0.798962 0 0.104402
0.798993 0 0.104479
0.799008 0 0.10454
0.799008 0 0.10457
0.799023 0 0.104585
0.799023 0 0.104585
0.799023 0 0.104585
0 0.591638 0.00215152
0 0.591501 0.00210575
0 0.591501 0.00210575
0 0.590021 0.00187686
0 0.585962 0.00125124
0 0.583688 0.000961318
0 0.581933 0.000747692
0 0.578729 0.00062562
0 0.564706 0.000427253
0 0.55613 6.10361e-05
0 0.563775 0
0.00187686 0.577966 0
0.0542763 0.601495 0
0.22977 0.620325 0
0.417304 0.62768 0
0.561395 0.627375 0
0.678355 0.621805 0
0.773266 0.61207 0
0.851423 0.594995 0
0.911559 0.57023 0
0.946227 0.538323 0
0.955825 0.500343 0.000640879
0.950301 0.453681 0.00764477
0.932876 0.391562 0.0321965
0.898024 0.293919 0.07364
0.839017 0.10753 0.10779
0.800519 0 0.105867
0.798993 0 0.104463
0.798993 0 0.104509
0.799008 0 0.104555
0.799023 0 0.104585
0.799023 0 0.104585
0.799023 0 0.104585
0 0.628824 0.0358129
0 0.628824 0.0358129
0 0.628702 0.0354925
0 0.628702 0.0354925
0 0.625132 0.0295109
0 0.623102 0.026154
0 0.621683 0.0237888
0 0.620691 0.0222171
0 0.617411 0.0205081
0 0.605188 0.015259
0 0.602136 0.00355535
0 0.613581 0.00030518
0.0170291 0.633112 0
0.145998 0.660029 0
0.349096 0.680003 0
0.509453 0.692149 0
0.643046 0.694987 0
0.750027 0.691188 0
0.837278 0.680323 0
0.904448 0.663523 0
0.950896 0.641138 0
0.972412 0.612131 0
0.976715 0.57557 0.000137331
0.97142 0.529381 0.00364691
0.957626 0.468818 0.0195926
0.929015 0.378851 0.0483406
0.867735 0.200244 0.09337
0.804501 0.00630198 0.107698
0.798993 0 0.104509
0.799008 0 0.10454
0.799008 0 0.10457
0.799023 0 0.104585
0.799023 0 0.104585
0 0.660685 0.119265
0 0.660594 0.119036
0 0.660594 0.119036
0 0.660594 0.119036
0 0.65832 0.112428
0 0.656092 0.105898
0 0.654459 0.101091
0 0.65333 0.0977798
0 0.652476 0.0951858
0 0.649897 0.0880751
0 0.640497 0.0599374
0 0.640024 0.0267033
0.00747692 0.653819 0.00154116
0.1066 0.678065 0
0.306691 0.70602 0
0.470207 0.72929 0
0.606363 0.74786 0
0.721538 0.755398 0
0.817746 0.753445 0
0.892348 0.743938 0
0.946944 0.729 0
0.978775 0.708156 0
0.991958 0.682307 0
0.993759 0.648753 6.10361e-05
0.989624 0.605356 0.00187686
0.979324 0.547692 0.00906386
0.957336 0.465446 0.0270695
0.906676 0.314687 0.0673075
0.825559 0.0690623 0.103899
0.799008 0 0.10454
0.799008 0 0.10457
0.799023 0 0.104585
0.799023 0 0.104585
0 0.682811 0.183368
0 0.682811 0.183368
0 0.682811 0.183368
0 0.682811 0.183368
0 0.682628 0.182803
0 0.680171 0.175647
0 0.678798 0.171633
0 0.677684 0.168368
0 0.676921 0.16614
0 0.67631 0.164279
0 0.674067 0.158541
0 0.666285 0.122393
0.0024567 0.669886 0.0581979
0.0693065 0.686809 0.0312352
0.265141 0.713985 0.00720226
0.442267 0.741894 0.000167849
0.581476 0.767895 0
0.701732 0.788464 0
0.801663 0.800244 0
0.879652 0.803159 0
0.938994 0.799451 0
0.977508 0.788312 0
0.995819 0.771435 0
0.999985 0.748135 0
0.999985 0.71928 0
0.998917 0.68098 0
0.994675 0.629236 0.00184634
0.981064 0.555123 0.0111696
0.94876 0.438651 0.0370489
0.867811 0.198688 0.0851606
0.799405 0.000991836 0.104707
0.799023 0 0.104585
0.799023 0 0.104585
0 0.703059 0.247929
0 0.703059 0.247929
0 0.703059 0.247929
0 0.703059 0.247929
0 0.703059 0.247929
0 0.702159 0.244465
0 0.70045 0.237903
0 0.699153 0.232959
0 0.698161 0.229358
0 0.69752 0.227283
0 0.697063 0.225772
0 0.694804 0.219089
0 0.687968 0.179583
0.0290074 0.694118 0.123552
0.194644 0.714443 0.0648508
0.397208 0.743679 0.0227207
0.554986 0.769116 0.0033875
0.688701 0.792752 0
0.795666 0.813184 0
0.874357 0.829313 0
0.932692 0.841276 0
0.975402 0.844602 0
0.997299 0.839384 0
0.999985 0.826566 0
0.999985 0.80708 4.57771e-05
0.999985 0.781689 0.000442512
0.999985 0.750683 0
0.99942 0.708156 0
0.995117 0.647211 0.00172427
0.979995 0.554879 0.0120546
0.935668 0.397879 0.0451667
0.84976 0.152514 0.0931868
0.799023 0 0.104585
0 0.719707 0.318212
0 0.719707 0.318212
0 0.719707 0.318212
0 0.719707 0.318212
0 0.719707 0.318212
0 0.719707 0.318212
0 0.71899 0.314153
0 0.717769 0.307439
0 0.71667 0.3019
0 0.715938 0.298695
0 0.715434 0.29659
0 0.715023 0.29485
0 0.712612 0.285924
0.00328069 0.706508 0.238178
0.0875105 0.715724 0.174304
0.296925 0.741024 0.113741
0.491066 0.768978 0.0646372
0.649317 0.792325 0.0254063
0.781582 0.81442 0
0.869688 0.833021 0
0.932326 0.851102 0
0.975982 0.865461 0
0.997269 0.87361 0
0.999985 0.874113 0.000411994
0.999985 0.867124 0.00215152
0.999985 0.854154 0.00433356
0.999985 0.835889 0.0111238
0.999985 0.812665 0.0199435
0.999985 0.780743 0.0206302
0.999664 0.73463 0.0140078
0.997635 0.670466 0.00468452
0.986984 0.585672 0.0074464
0.963134 0.488777 0.0252079
0 0.728679 0.378866
0 0.728679 0.378866
0 0.728679 0.378866
0 0.728679 0.378866
0 0.728679 0.378866
0 0.728679 0.378866
0 0.728679 0.378866
0 0.728206 0.375082
0 0.727337 0.367926
0 0.726802 0.363531
0 0.726467 0.360845
0 0.726253 0.359152
0 0.726116 0.358114
0 0.724132 0.348196
0.0128176 0.723278 0.296651
0.128634 0.740169 0.251316
0.360357 0.770871 0.216098
0.561807 0.798413 0.153262
0.728511 0.822599 0.0872663
0.838697 0.838941 0.0560159
0.919554 0.854749 0.0333104
0.970687 0.870192 0.0273899
0.995056 0.882475 0.0252995
0.999985 0.888579 0.0249943
0.999985 0.889311 0.0324559
0.999985 0.886687 0.0394141
0.999985 0.881468 0.0449989
0.999985 0.873121 0.0521706
0.999985 0.860822 0.0595865
0.999985 0.843809 0.061387
0.999985 0.815534 0.0574502
0.999969 0.776776 0.040528
0.999939 0.74255 0.0251926
0 0.737423 0.438849
0 0.737423 0.438849
0 0.737392 0.438621
0 0.737392 0.438621
0 0.737392 0.438621
0 0.737392 0.438621
0 0.737392 0.438621
0 0.737392 0.438621
0 0.736721 0.433997
0 0.735241 0.424765
0 0.734493 0.420172
0 0.734127 0.417853
0 0.733867 0.416251
0 0.733654 0.414969
0.000122072 0.732799 0.404852
0.0182803 0.74255 0.364324
0.174166 0.769345 0.346654
0.430503 0.803906 0.32752
0.634821 0.834653 0.283818
0.778912 0.855711 0.232044
0.880659 0.870863 0.171145
0.946136 0.883024 0.144289
0.985412 0.8925 0.137514
0.999527 0.898238 0.133471
0.999985 0.900984 0.138384
0.999985 0.902296 0.149874
0.999985 0.90248 0.163134
0.999985 0.901213 0.171572
0.999985 0.897734 0.172381
0.999985 0.891646 0.170596
0.999985 0.883589 0.166155
0.999985 0.873381 0.146319
0.999985 0.860716 0.130297
0 0.746075 0.501625
0 0.746075 0.501625
0 0.746075 0.501625
0 0.746075 0.501625
0 0.746075 0.501625
0 0.746075 0.501625
0 0.746075 0.501625
0 0.746075 0.501625
0 0.746075 0.501625
0 0.745174 0.495018
0 0.74374 0.483787
0 0.743191 0.479423
0 0.742916 0.477272
0 0.742718 0.4757
0 0.742535 0.474311
0.000427253 0.744503 0.46247
0.0329747 0.764736 0.432975
0.251545 0.800229 0.43212
0.521614 0.8383 0.425528
0.710964 0.867033 0.391928
0.833768 0.885237 0.348394
0.915541 0.897093 0.313832
0.970169 0.905074 0.291768
0.996368 0.909911 0.277058
1 0.912428 0.269902
1 0.914458 0.274067
1 0.916243 0.284718
1 0.917357 0.294667
1 0.91751 0.300649
0.999985 0.916426 0.301366
0.999985 0.91397 0.29691
0.999985 0.91075 0.286778
0.999985 0.907881 0.275364
0 0.751186 0.557458
0 0.751186 0.557458
0 0.751186 0.557458
0 0.751186 0.557458
0 0.751186 0.557458
0 0.751186 0.557458
0 0.751171 0.557244
0 0.751171 0.557244
0 0.751171 0.557244
0 0.751171 0.557244
0 0.750912 0.550332
0 0.750576 0.541482
0 0.750454 0.538598
0 0.750408 0.537118
0 0.750317 0.53576
0 0.75024 0.534798
0.0016022 0.75642 0.518822
0.0574655 0.788495 0.499687
0.357168 0.832776 0.512032
0.622431 0.871504 0.510689
0.778271 0.895613 0.484428
0.880491 0.910597 0.455848
0.947814 0.91928 0.430365
0.98677 0.923995 0.411383
0.999237 0.92604 0.396078
1 0.927443 0.389395
1 0.928985 0.392233
1 0.930343 0.39881
1 0.931258 0.404776
1 0.931563 0.407858
1 0.931228 0.407675
1 0.930236 0.403372
1 0.929046 0.396506
0 0.752819 0.602701
0 0.752819 0.602701
0 0.752819 0.602701
0 0.752819 0.602701
0 0.752819 0.602701
0 0.752819 0.602701
0 0.752819 0.602701
0 0.752819 0.602701
0 0.752819 0.602701
0 0.752819 0.602701
0 0.752819 0.602701
0 0.752499 0.594461
0 0.752255 0.587869
0 0.752178 0.585794
0 0.752117 0.584573
0 0.752087 0.583703
0 0.752255 0.582467
0.00415045 0.768124 0.564446
0.133364 0.81593 0.56614
0.49044 0.86537 0.587243
0.713298 0.901137 0.5879
0.838529 0.920851 0.567681
0.918547 0.931975 0.547372
0.967529 0.93756 0.529458
0.993088 0.940078 0.514275
0.999985 0.941176 0.501839
1 0.942031 0.495949
1 0.942992 0.497078
1 0.943984 0.501961
1 0.944701 0.506432
1 0.944991 0.508721
1 0.944808 0.507927
1 0.94432 0.504631
0 0.754437 0.63949
0 0.754437 0.63949
0 0.754437 0.63949
0 0.754437 0.63949
0 0.754437 0.63949
0 0.754437 0.63949
0 0.754437 0.63949
0 0.754437 0.63949
0 0.754437 0.63949
