packages/webcomponents/examples/L-Log_to_Classic_VLog.cube
TITLE "Generated by Resolve"
#LUMIXPHOTOSTYLE VLOG
LUT_3D_SIZE 5
0.00347906 0.00161746 0.00302129
0.180758 0.057435 0.0240787
0.735088 0 0
0.798871 0 0.104158
0.799023 0 0.104585
0 0.130709 0.0518807
0.119875 0.110887 0.0438849
0.693721 0 0
0.798871 0 0.104158
0.799023 0 0.104585
0 0.591638 0.00215152
0 0.564706 0.000427253
0.678355 0.621805 0
0.898024 0.293919 0.07364
0.799023 0 0.104585
0 0.746075 0.501625
0 0.746075 0.501625
0.0329747 0.764736 0.432975
1 0.912428 0.269902
0.999985 0.907881 0.275364
0 0.760098 0.715557
0 0.760098 0.715557
0 0.760098 0.715373
0.924315 0.969879 0.829053
1 0.9823 0.814389
0.0300298 0.0175937 0.1075
0.140703 0.0456092 0.0988479
0.716487 0 0.0814527
0.798856 0 0.104143
0.799023 0 0.104585
0 0.108476 0.103914
0.085481 0.0846113 0.0818036
0.657084 0 0.0571756
0.798871 0 0.104143
0.799023 0 0.104585
0 0.586709 0.064683
0 0.560311 0.0475471
0.655589 0.600992 0
0.894163 0.281315 0.0763561
0.799023 0 0.104585
0 0.746044 0.501381
0 0.745998 0.501137
0.0311284 0.763821 0.432853
1 0.912383 0.269459
0.999985 0.907805 0.274952
0 0.760098 0.715557
0 0.760098 0.715557
0 0.760098 0.715373
0.924147 0.969848 0.829053
1 0.9823 0.814389
0 0.0934615 0.504814
0 0.0920577 0.503563
0.652628 0 0.525216
0.82034 0 0.50811
0.813001 0 0.343053
0 0.0933852 0.504143
0 0.0919356 0.502602
0.652354 0 0.524254
0.820294 0 0.507301
0.812909 0 0.341161
0 0.572625 0.598352
0 0.548684 0.572854
0.562814 0.553079 0.532891
0.874205 0.167102 0.4533
0.812329 0 0.32813
0 0.752453 0.642298
0 0.752438 0.642054
0.00146487 0.780514 0.562081
0.997833 0.937163 0.495857
1 0.910964 0.379828
0 0.760098 0.715557
0 0.760098 0.715557
0 0.760098 0.715389
0.923095 0.96968 0.829099
1 0.9823 0.814389
0.0514076 0.625071 0.80235
0.0514076 0.625071 0.80235
0.4813 0.653223 0.834241
0.9691 0.54699 0.845228
0.871305 0.105669 0.744045
0.0510109 0.624781 0.802243
0.0510109 0.624781 0.802243
0.480247 0.652888 0.834104
0.9691 0.54699 0.845228
0.871305 0.105669 0.744045
0.0498054 0.623896 0.801907
0.0498054 0.623896 0.801907
0.474128 0.651987 0.833524
0.968917 0.545739 0.844984
0.870207 0.101472 0.743008
0 0.75404 0.811719
0 0.754025 0.811719
0 0.780941 0.815183
0.966171 0.950454 0.903822
1 0.910918 0.899428
0 0.761517 0.803616
0 0.761517 0.803616
0 0.761517 0.803586
0.905745 0.972259 0.906966
1 0.990707 0.917052
0.775448 0.922713 0.896269
0.775448 0.922713 0.896269
0.775448 0.922713 0.896269
0.978103 0.935699 0.907301
1 0.91014 0.905501
0.775448 0.922713 0.896269
0.775448 0.922713 0.896269
0.775448 0.922713 0.896269
0.978042 0.935699 0.907301
1 0.91014 0.905501
0.775448 0.922713 0.896269
0.775448 0.922713 0.896269
0.775448 0.922713 0.896269
0.977981 0.935699 0.907286
1 0.91014 0.905501
0.735164 0.936797 0.896468
0.73521 0.936797 0.896468
0.735485 0.936797 0.896483
0.957732 0.964385 0.910842
1 0.94107 0.909636
0 0.763943 0.822736
0 0.763943 0.822736
0 0.763943 0.822736
0.894621 0.970397 0.910796
1 0.991485 0.919829
