packages/webcomponents/examples/L-Log_to_Natural_VLog.cube
TITLE "Generated by Resolve"
#LUMIXPHOTOSTYLE VLOG
LUT_3D_SIZE 5
0 0 0
0.149264 0 0
0.675502 0 0.00852979
1 0 0.0693065
1 0 0.0801404
0 0.12372 0
0.107698 0.110872 0
0.672847 0 0.00924697
1 0 0.0693065
1 0 0.0801404
0 0.608057 0
0 0.605875 0
0.569802 0.582773 0
1 0.217838 0.0205844
1 0 0.0801404
0 1 0.402747
0 1 0.402747
0 1 0.400534
0.978637 0.999496 0.389624
1 0.963836 0.17528
0 1 0.823728
0 1 0.823728
0 1 0.823728
0.827176 1 0.8262
1 1 0.816571
0 0 0.104601
0.139528 0 0.104128
0.674495 0 0.109163
1 0 0.0692912
1 0 0.0801404
0 0.11223 0.0995651
0.0979629 0.0989242 0.0993057
0.671778 0 0.107195
1 0 0.0692912
1 0 0.0801404
0 0.604944 0
0 0.60325 0
0.568475 0.579644 0
1 0.205127 0.0230716
1 0 0.0801404
0 1 0.402426
0 1 0.402121
0 1 0.400198
0.978668 0.999496 0.389288
1 0.963668 0.17464
0 1 0.823728
0 1 0.823728
0 1 0.823728
0.82678 1 0.8262
1 1 0.816571
0 0 0.562936
0 0 0.562829
0.651926 0 0.563973
1 0 0.545281
1 0 0.282383
0 0 0.562005
0 0 0.561898
0.651713 0 0.563043
1 0 0.544305
1 0 0.279103
0 0.572137 0.545083
0 0.570932 0.544945
0.543069 0.545769 0.546197
1 0.126024 0.540642
1 0 0.256519
0 1 0.57171
0 1 0.571328
0 0.999985 0.56939
0.974578 0.995773 0.554101
1 0.956741 0.344121
0 1 0.823728
0 1 0.823728
0 1 0.823728
0.824414 1 0.8262
1 1 0.816571
0.0657206 0.590906 0.972519
0.0657206 0.590906 0.972519
0.443153 0.583886 0.973007
1 0.466773 0.978439
1 0 0.988006
0.065156 0.590616 0.972427
0.065156 0.590616 0.972427
0.442267 0.583612 0.972915
1 0.466773 0.978439
1 0 0.988006
0.0634775 0.589746 0.972168
0.0634775 0.589746 0.972168
0.436988 0.5832 0.972732
1 0.465446 0.978195
1 0 0.987823
0 0.97377 0.949477
0 0.973693 0.949477
0 0.972869 0.949569
0.952407 0.953323 0.953079
1 0.893248 0.951812
0 1 0.959213
0 1 0.959213
0 1 0.959167
0.815671 1 0.962005
1 1 0.959228
0.719783 0.949966 1
0.719783 0.949966 1
0.719783 0.949966 1
0.955383 0.943145 1
1 0.912016 1
0.719783 0.949966 1
0.719783 0.949966 1
0.719783 0.949966 1
0.955291 0.94316 1
1 0.912016 1
0.719783 0.949966 1
0.719783 0.949966 1
0.719783 0.949966 1
0.9552 0.94316 1
1 0.912016 1
0.673945 0.97763 1
0.674006 0.977615 1
0.674296 0.977493 1
0.941848 0.970169 1
1 0.941131 1
0 1 1
0 1 1
0 1 1
0.80531 1 1
1 1 1
