packages/app/public/luts/Ricoh_GR2_POSI_33_Rec709.cube
TITLE "Ricoh_GR2_POSI_33_Rec709"
DOMAIN_MIN 0.000000 0.000000 0.000000
DOMAIN_MAX 1.000000 1.000000 1.000000
LUT_3D_SIZE 33
0.000000 0.000000 0.000000
0.028896 0.000000 0.000000
0.057791 0.000000 0.000000
0.086687 0.000000 0.000000
0.115583 0.000000 0.000000
0.144479 0.000000 0.000000
0.173374 0.000000 0.000000
0.202270 0.000000 0.000000
0.231166 0.000000 0.000000
0.260062 0.000000 0.000000
0.288957 0.000000 0.000000
0.317853 0.000000 0.000000
0.346749 0.000000 0.000000
0.375645 0.000000 0.000000
0.404540 0.000000 0.000000
0.433436 0.000000 0.000000
0.462332 0.000000 0.000000
0.491228 0.000000 0.000000
0.520123 0.000000 0.000000
0.549019 0.000000 0.000000
0.577915 0.000000 0.000000
0.606811 0.000000 0.000000
0.635706 0.000000 0.000000
0.664602 0.000000 0.000000
0.693498 0.000000 0.000000
0.722394 0.000000 0.000000
0.751289 0.000000 0.000000
0.780219 0.000000 0.000000
0.809478 0.000000 0.000000
0.839134 0.000000 0.000000
0.869187 0.000000 0.000000
0.899636 0.000000 0.000000
0.930483 0.000000 0.000000
0.001085 0.022707 0.004048
0.024907 0.023352 0.000088
0.051955 0.021681 0.002258
0.081320 0.021123 0.000000
0.110216 0.019158 0.000000
0.139111 0.017193 0.000000
0.168007 0.015228 0.000000
0.196903 0.013263 0.000000
0.225799 0.011298 0.000000
0.254694 0.009333 0.000000
0.283590 0.007368 0.000000
0.312486 0.005403 0.000000
0.341382 0.003437 0.000000
0.370277 0.001472 0.000000
0.399173 0.000000 0.000000
0.428069 0.000000 0.000000
0.456965 0.000000 0.000000
0.485860 0.000000 0.000000
0.514756 0.000000 0.000000
0.543652 0.000000 0.000000
0.572548 0.000000 0.000000
0.601443 0.000000 0.000000
0.630339 0.000000 0.000000
0.659235 0.000000 0.000000
0.688131 0.000000 0.000000
0.717050 0.000000 0.000000
0.746263 0.000000 0.000000
0.775844 0.000000 0.000000
0.805798 0.000000 0.000000
0.836127 0.000000 0.000000
0.866832 0.000000 0.000000
0.897915 0.000000 0.000000
0.929378 0.000000 0.000000
0.002170 0.045414 0.008095
0.025405 0.046353 0.001496
0.049814 0.046705 0.000176
0.072462 0.048377 0.000000
0.103910 0.043361 0.004517
0.133744 0.044212 0.000000
0.162640 0.042247 0.000000
0.191535 0.040282 0.000000
0.220431 0.038316 0.000000
0.249327 0.036351 0.000000
0.278223 0.034386 0.000000
0.307118 0.032421 0.000000
0.336014 0.030456 0.000000
0.364910 0.028491 0.000000
0.393806 0.026526 0.000000
0.422701 0.024561 0.000000
0.451597 0.022596 0.000000
0.480493 0.020631 0.000000
0.509389 0.018666 0.000000
0.538284 0.016700 0.000000
0.567180 0.014735 0.000000
0.596076 0.012770 0.000000
0.624972 0.010805 0.000000
0.653884 0.008840 0.000000
0.683052 0.006878 0.000000
0.712563 0.004916 0.000000
0.742420 0.002952 0.000000
0.772629 0.000984 0.000000
0.803195 0.000000 0.000000
0.834120 0.000000 0.000000
0.865409 0.000000 0.000000
0.897064 0.000000 0.000000
0.929087 0.000000 0.000000
0.003256 0.068121 0.012143
0.026432 0.069940 0.004722
0.050312 0.069705 0.001584
0.074721 0.070057 0.000264
0.094260 0.073782 0.000000
0.127086 0.067359 0.007068
0.155865 0.065042 0.006775
0.186168 0.067300 0.000000
0.215064 0.065335 0.000000
0.243960 0.063370 0.000000
0.272855 0.061405 0.000000
0.301751 0.059440 0.000000
0.330647 0.057475 0.000000
0.359543 0.055510 0.000000
0.388438 0.053545 0.000000
0.417334 0.051579 0.000000
0.446230 0.049614 0.000000
0.475126 0.047649 0.000000
0.504021 0.045684 0.000000
0.532917 0.043719 0.000000
0.561813 0.041754 0.000000
0.590719 0.039790 0.000000
0.619847 0.037839 0.000000
0.649288 0.035902 0.000000
0.679052 0.033976 0.000000
0.709144 0.032057 0.000000
0.739573 0.030142 0.000000
0.770342 0.028228 0.000000
0.801458 0.026312 0.000000
0.832923 0.024392 0.000000
0.864744 0.022466 0.000000
0.896922 0.020533 0.000000
0.929461 0.018591 0.000000
0.004341 0.090829 0.016190
0.027224 0.093263 0.006277
0.050811 0.092706 0.002992
0.075219 0.093058 0.001672
0.099628 0.093410 0.000352
0.116058 0.099188 0.000000
0.144925 0.096753 0.000000
0.179041 0.089039 0.009327
0.207819 0.086722 0.009034
0.236598 0.084405 0.008740
0.267488 0.088424 0.000000
0.296384 0.086458 0.000000
0.325280 0.084493 0.000000
0.354175 0.082528 0.000000
0.383071 0.080563 0.000000
0.411967 0.078598 0.000000
0.440862 0.076633 0.000000
0.469758 0.074668 0.000000
0.498654 0.072703 0.000000
0.527556 0.070738 0.000000
0.556646 0.068797 0.000000
0.586022 0.066885 0.000000
0.615694 0.064996 0.000000
0.645672 0.063126 0.000000
0.675965 0.061269 0.000000
0.706580 0.059423 0.000000
0.737524 0.057583 0.000000
0.768803 0.055748 0.000000
0.800421 0.053915 0.000000
0.832385 0.052080 0.000000
0.864696 0.050243 0.000000
0.897361 0.048400 0.000000
0.930381 0.046552 0.000000
0.005426 0.113536 0.020238
0.028016 0.116586 0.007831
0.051310 0.115706 0.004399
0.075718 0.116058 0.003080
0.100126 0.116410 0.001760
0.124534 0.116762 0.000440
0.137856 0.124593 0.000000
0.166722 0.122159 0.000000
0.202217 0.113037 0.011879
0.230996 0.110720 0.011585
0.259774 0.108403 0.011292
0.288553 0.106086 0.010999
0.319912 0.111512 0.000000
0.348808 0.109547 0.000000
0.377704 0.107582 0.000000
0.406599 0.105617 0.000000
0.435495 0.103652 0.000000
0.464394 0.101687 0.000000
0.493450 0.099754 0.000000
0.522762 0.097865 0.000000
0.552345 0.096011 0.000000
0.582211 0.094188 0.000000
0.612371 0.092389 0.000000
0.642834 0.090610 0.000000
0.673608 0.088847 0.000000
0.704701 0.087096 0.000000
0.736120 0.085353 0.000000
0.767869 0.083617 0.000000
0.799955 0.081883 0.000000
0.832383 0.080151 0.000000
0.865155 0.078417 0.000000
0.898277 0.076680 0.000000
0.931751 0.074938 0.000000
0.006511 0.136243 0.024285
0.028808 0.139909 0.009386
0.052864 0.139880 0.009444
0.076216 0.139059 0.004487
0.100625 0.139411 0.003168
0.125033 0.139762 0.001848
0.149441 0.140114 0.000528
0.159654 0.149999 0.000000
0.188520 0.147564 0.000000
0.217387 0.145130 0.000000
0.254172 0.134718 0.014137
0.282951 0.132401 0.013844
0.311729 0.130084 0.013550
0.340508 0.127767 0.013257
0.372336 0.134600 0.000000
0.401233 0.132636 0.000000
0.430258 0.130710 0.000000
0.459510 0.128841 0.000000
0.489006 0.127022 0.000000
0.518762 0.125245 0.000000
0.548791 0.123503 0.000000
0.579103 0.121790 0.000000
0.609710 0.120102 0.000000
0.640619 0.118434 0.000000
0.671838 0.116782 0.000000
0.703376 0.115143 0.000000
0.735238 0.113513 0.000000
0.767429 0.111890 0.000000
0.799955 0.110270 0.000000
0.832820 0.108653 0.000000
0.866029 0.107035 0.000000
0.899585 0.105415 0.000000
0.933492 0.103791 0.000000
0.007596 0.158950 0.028333
0.029600 0.163232 0.010940
0.053656 0.163203 0.010999
0.076715 0.162059 0.005895
0.101123 0.162411 0.004575
0.125532 0.162763 0.003256
0.149940 0.163115 0.001936
0.174348 0.163467 0.000616
0.181452 0.175404 0.000000
0.210318 0.172970 0.000000
0.239185 0.170535 0.000000
0.277349 0.158715 0.016689
0.306127 0.156398 0.016395
0.334906 0.154081 0.016102
0.363784 0.151806 0.015813
0.392859 0.149598 0.015531
0.425677 0.158029 0.000000
0.455325 0.156297 0.000000
0.485225 0.154610 0.000000
0.515389 0.152963 0.000000
0.545829 0.151349 0.000000
0.576555 0.149764 0.000000
0.607578 0.148202 0.000000
0.638904 0.146659 0.000000
0.670543 0.145132 0.000000
0.702499 0.143617 0.000000
0.734780 0.142111 0.000000
0.767390 0.140613 0.000000
0.800334 0.139118 0.000000
0.833617 0.137626 0.000000
0.867243 0.136133 0.000000
0.901215 0.134639 0.000000
0.935537 0.133142 0.000000
0.008682 0.181657 0.032380
0.031946 0.183270 0.025898
0.054448 0.186526 0.012553
0.078504 0.186497 0.012612
0.101622 0.185411 0.005983
0.126030 0.185763 0.004663
0.150439 0.186115 0.003344
0.174847 0.186467 0.002024
0.199255 0.186819 0.000704
0.203250 0.200810 0.000000
0.232116 0.198375 0.000000
0.260983 0.195941 0.000000
0.289921 0.193555 0.000000
0.329620 0.180569 0.018965
0.358830 0.178451 0.018693
0.388250 0.176393 0.018426
0.417898 0.174387 0.018165
0.447789 0.172426 0.017909
0.477936 0.170502 0.017656
0.512511 0.181084 0.000000
0.543337 0.179611 0.000000
0.574454 0.178164 0.000000
0.605871 0.176739 0.000000
0.637593 0.175332 0.000000
0.669629 0.173940 0.000000
0.701985 0.172560 0.000000
0.734666 0.171188 0.000000
0.767677 0.169823 0.000000
0.801023 0.168462 0.000000
0.834707 0.167103 0.000000
0.868735 0.165744 0.000000
0.903109 0.164383 0.000000
0.937832 0.163019 0.000000
0.009767 0.204364 0.036428
0.033031 0.205978 0.029946
0.055240 0.209849 0.014108
0.079296 0.209820 0.014166
0.102121 0.208412 0.007391
0.126529 0.208764 0.006071
0.150937 0.209116 0.004751
0.175345 0.209468 0.003432
0.199754 0.209820 0.002112
0.224162 0.210172 0.000792
0.248626 0.210571 0.000000
0.254146 0.223985 0.000000
0.283352 0.221794 0.000000
0.312739 0.219679 0.000000
0.354359 0.205483 0.021613
0.384105 0.203586 0.021364
0.414090 0.201734 0.021119
0.444327 0.199922 0.020878
0.474828 0.198144 0.020640
0.505605 0.196395 0.020405
0.536665 0.194668 0.020172
0.572711 0.207037 0.000000
0.604504 0.205757 0.000000
0.636607 0.204495 0.000000
0.669025 0.203246 0.000000
0.701765 0.202007 0.000000
0.734831 0.200777 0.000000
0.768229 0.199552 0.000000
0.801963 0.198331 0.000000
0.836036 0.197112 0.000000
0.870453 0.195892 0.000000
0.905217 0.194670 0.000000
0.940330 0.193445 0.000000
0.010852 0.227072 0.040475
0.034116 0.228685 0.033993
0.056032 0.233172 0.015662
0.080088 0.233143 0.015721
0.102619 0.231412 0.008799
0.127027 0.231764 0.007479
0.151436 0.232116 0.006159
0.175844 0.232468 0.004839
0.200293 0.232867 0.003520
0.224855 0.233374 0.002202
0.249555 0.233980 0.000882
0.274412 0.234676 0.000000
0.277154 0.250489 0.000000
0.306817 0.248565 0.000000
0.336697 0.246700 0.000000
0.366810 0.244886 0.000000
0.410629 0.229537 0.024121
0.441198 0.227882 0.023896
0.472040 0.226256 0.023675
0.503163 0.224656 0.023455
0.534575 0.223077 0.023237
0.566286 0.221514 0.023021
0.598302 0.219965 0.022805
0.635880 0.234178 0.000000
0.668668 0.233078 0.000000
0.701780 0.231988 0.000000
0.735221 0.230904 0.000000
0.768995 0.229825 0.000000
0.803106 0.228750 0.000000
0.837558 0.227675 0.000000
0.872354 0.226599 0.000000
0.907498 0.225522 0.000000
0.942992 0.224440 0.000000
0.011937 0.249779 0.044523
0.035202 0.251392 0.038041
0.056824 0.256495 0.017217
0.080880 0.256466 0.017275
0.104936 0.256437 0.017334
0.127526 0.254765 0.008887
0.151961 0.255162 0.007568
0.176487 0.255679 0.006252
0.201130 0.256303 0.004937
0.225910 0.257027 0.003620
0.250847 0.257840 0.002299
0.275957 0.258734 0.000975
0.301255 0.259703 0.000000
0.301161 0.277961 0.000000
0.331324 0.276283 0.000000
0.361731 0.274650 0.000000
0.392395 0.273055 0.000000
0.438329 0.256340 0.026968
0.469501 0.254872 0.026763
0.500960 0.253427 0.026560
0.532715 0.251999 0.026358
0.564773 0.250586 0.026157
0.597139 0.249185 0.025957
0.629821 0.247791 0.025757
0.662822 0.246404 0.025558
0.701984 0.262525 0.000000
0.735790 0.261592 0.000000
0.769931 0.260664 0.000000
0.804411 0.259738 0.000000
0.839233 0.258812 0.000000
0.874401 0.257885 0.000000
0.909917 0.256955 0.000000
0.945780 0.256020 0.000000
0.013022 0.272486 0.048570
0.036287 0.274099 0.042088
0.057616 0.279818 0.018771
0.081672 0.279789 0.018830
0.105745 0.279804 0.018891
0.128124 0.277981 0.010303
0.152711 0.278624 0.008991
0.177416 0.279374 0.007680
0.202261 0.280222 0.006367
0.227263 0.281159 0.005051
0.252439 0.282178 0.003731
0.277803 0.283271 0.002405
0.303367 0.284433 0.001072
0.329142 0.285659 0.000000
0.326140 0.306416 0.000000
0.356837 0.304966 0.000000
0.387799 0.303550 0.000000
0.419037 0.302162 0.000000
0.450560 0.300799 0.000000
0.498945 0.282734 0.029722
0.531034 0.281462 0.029536
0.563431 0.280202 0.029351
0.596141 0.278951 0.029167
0.629169 0.277707 0.028983
0.662520 0.276468 0.028799
0.696199 0.275230 0.028614
0.730210 0.273992 0.028429
0.764556 0.272752 0.028244
0.805843 0.291314 0.000000
0.841029 0.290541 0.000000
0.876559 0.289764 0.000000
0.912362 0.288960 0.000000
0.948400 0.288118 0.000000
0.014108 0.295193 0.052618
0.037372 0.296806 0.046136
0.058415 0.303183 0.020328
0.082524 0.303335 0.020399
0.106707 0.303616 0.020479
0.128930 0.301718 0.011740
0.153685 0.302601 0.010434
0.178581 0.303580 0.009126
0.203637 0.304647 0.007816
0.228867 0.305795 0.006500
0.254285 0.307017 0.005179
0.279904 0.308309 0.003851
0.305734 0.309664 0.002516
0.331785 0.311078 0.001172
0.358066 0.312547 0.000000
0.352071 0.335863 0.000000
0.383328 0.334628 0.000000
0.414869 0.333417 0.000000
0.446700 0.332227 0.000000
0.478830 0.331054 0.000000
0.529489 0.311485 0.032775
0.562220 0.310381 0.032606
0.595267 0.309285 0.032438
0.628637 0.308193 0.032270
0.662332 0.307104 0.032101
0.696358 0.306016 0.031933
0.730718 0.304926 0.031763
0.765415 0.303834 0.031593
0.800453 0.302736 0.031422
0.835768 0.301609 0.031247
0.878563 0.322162 0.000000
0.914514 0.321438 0.000000
0.950698 0.320676 0.000000
0.015195 0.317938 0.056672
0.038484 0.319734 0.050218
0.059300 0.327018 0.021917
0.083513 0.327442 0.022006
0.107830 0.327981 0.022104
0.132273 0.328623 0.022208
0.154847 0.327110 0.011899
0.179944 0.328312 0.010595
0.205219 0.329595 0.009285
0.230682 0.330951 0.007970
0.256347 0.332376 0.006648
0.282223 0.333865 0.005319
0.308320 0.335412 0.003981
0.334647 0.337014 0.002633
0.361212 0.338668 0.001276
0.388020 0.340369 0.000000
0.378940 0.366310 0.000000
0.410780 0.365278 0.000000
0.442917 0.364263 0.000000
0.475357 0.363263 0.000000
0.508108 0.362274 0.000000
0.541173 0.361293 0.000000
0.594486 0.340201 0.035772
0.628192 0.339264 0.035620
0.662228 0.338328 0.035467
0.696596 0.337391 0.035314
0.731300 0.336452 0.035161
0.766288 0.335484 0.035003
0.801519 0.334471 0.034841
0.836988 0.333415 0.034673
0.872695 0.332317 0.034501
0.908634 0.331178 0.034324
0.952699 0.353682 0.000000
0.016305 0.341164 0.060812
0.039661 0.343249 0.054394
0.060275 0.351441 0.023545
0.084617 0.352126 0.023652
0.109088 0.352912 0.023766
0.133707 0.353791 0.023887
0.156167 0.352166 0.013390
0.181476 0.353587 0.012088
0.206977 0.355081 0.010779
0.232679 0.356644 0.009464
0.258594 0.358269 0.008140
0.284731 0.359953 0.006809
0.311097 0.361692 0.005468
0.337701 0.363482 0.004117
0.364548 0.365320 0.002756
0.391646 0.367203 0.001384
0.419001 0.369129 0.000000
0.406737 0.397763 0.000000
0.439177 0.396924 0.000000
0.471926 0.396098 0.000000
0.504989 0.395280 0.000000
0.538371 0.394468 0.000000
0.572077 0.393661 0.000000
0.627810 0.370932 0.039034
0.662181 0.370151 0.038898
0.696841 0.369343 0.038758
0.731748 0.368488 0.038613
0.766899 0.367587 0.038463
0.802291 0.366643 0.038307
0.837919 0.365655 0.038147
0.873782 0.364627 0.037982
0.909877 0.363559 0.037812
0.946202 0.362452 0.037638
0.017444 0.364996 0.065060
0.040898 0.367357 0.058666
0.064466 0.369830 0.052261
0.085820 0.377394 0.025337
0.110462 0.378419 0.025468
0.135271 0.379528 0.025604
0.160258 0.380712 0.025746
0.183153 0.379414 0.013607
0.208886 0.381117 0.012299
0.234833 0.382883 0.010983
0.261002 0.384707 0.009658
0.287402 0.386585 0.008324
0.314039 0.388514 0.006980
0.340921 0.390492 0.005625
0.368053 0.392514 0.004260
0.395441 0.394579 0.002883
0.423090 0.396684 0.001495
0.451004 0.398827 0.000094
0.435453 0.430225 0.000000
0.468508 0.429573 0.000000
0.501882 0.428927 0.000000
0.535579 0.428286 0.000000
0.569603 0.427647 0.000000
0.603921 0.426982 0.000000
0.638493 0.426265 0.000000
0.696842 0.401744 0.042251
0.731918 0.400953 0.042112
0.767235 0.400117 0.041969
0.802791 0.399239 0.041820
0.838582 0.398319 0.041667
0.874605 0.397358 0.041509
0.910859 0.396359 0.041346
0.942171 0.395322 0.041179
0.018612 0.389437 0.069417
0.042189 0.392061 0.063038
0.065902 0.394789 0.056639
0.087111 0.403252 0.027062
0.111939 0.404509 0.027208
0.136948 0.405841 0.027360
0.162151 0.407242 0.027516
0.184955 0.405804 0.015155
0.210928 0.407712 0.013846
0.237124 0.409679 0.012529
0.263552 0.411699 0.011202
0.290218 0.413770 0.009865
0.317128 0.415889 0.008518
0.344289 0.418053 0.007160
0.371706 0.420259 0.005790
0.399384 0.422506 0.004409
0.427328 0.424790 0.003016
0.455541 0.427110 0.001609
0.484028 0.429464 0.000190
0.465082 0.463700 0.000000
0.498765 0.463227 0.000000
0.532746 0.462732 0.000000
0.566985 0.462182 0.000000
0.601480 0.461579 0.000000
0.636225 0.460926 0.000000
0.671218 0.460224 0.000000
0.731831 0.433835 0.045657
0.767317 0.433063 0.045520
0.803039 0.432250 0.045378
0.838994 0.431396 0.045232
0.875181 0.430503 0.045081
0.911596 0.429571 0.044925
0.933119 0.428603 0.044765
0.019809 0.414485 0.073881
0.043530 0.417363 0.067509
0.067407 0.420337 0.061110
0.088478 0.429706 0.028826
0.113504 0.431188 0.028988
0.138726 0.432738 0.029154
0.164152 0.434352 0.029326
0.186867 0.432763 0.016732
0.213086 0.434874 0.015422
0.239536 0.437039 0.014103
0.266226 0.439254 0.012774
0.293161 0.441517 0.011435
0.320347 0.443824 0.010084
0.347789 0.446174 0.008722
0.375492 0.448563 0.007349
0.403461 0.450991 0.005962
0.431700 0.453454 0.004564
0.460212 0.455952 0.003152
0.489001 0.458481 0.001728
0.518045 0.461020 0.000289
0.547303 0.463532 0.000000
0.529677 0.497644 0.000000
0.564098 0.497153 0.000000
0.598771 0.496612 0.000000
0.633691 0.496021 0.000000
0.668856 0.495383 0.000000
0.704262 0.494699 0.000000
0.739907 0.493970 0.000000
0.803051 0.465668 0.048980
0.839174 0.464879 0.048841
0.875526 0.464051 0.048696
0.912105 0.463186 0.048548
0.924009 0.462285 0.048395
0.021035 0.440140 0.078454
0.044919 0.443265 0.072082
0.068973 0.446479 0.065677
0.089914 0.456760 0.030630
0.115150 0.458462 0.030807
0.140592 0.460225 0.030989
0.166251 0.462047 0.031175
0.192133 0.463922 0.031365
0.215346 0.462608 0.017029
0.242055 0.464970 0.015708
0.269010 0.467378 0.014376
0.296217 0.469831 0.013034
0.323681 0.472326 0.011680
0.351406 0.474860 0.010314
0.379397 0.477432 0.008935
0.407658 0.480041 0.007545
0.436192 0.482683 0.006141
0.464983 0.485336 0.004724
0.493993 0.487963 0.003293
0.523218 0.490563 0.001848
0.552654 0.493138 0.000391
0.582298 0.495689 0.000000
0.560959 0.532552 0.000000
0.595811 0.532071 0.000000
0.630907 0.531542 0.000000
0.666246 0.530967 0.000000
0.701824 0.530348 0.000000
0.737638 0.529685 0.000000
0.773686 0.528980 0.000000
0.839136 0.498760 0.052493
0.875655 0.497997 0.052355
0.912400 0.497198 0.052214
0.914839 0.496362 0.052068
0.022290 0.466403 0.083136
0.046351 0.469768 0.076758
0.070597 0.473215 0.070342
0.091412 0.484417 0.032475
0.116867 0.486333 0.032667
0.142539 0.488306 0.032863
0.168436 0.490332 0.033063
0.194566 0.492408 0.033267
0.217698 0.490921 0.018666
0.244670 0.493477 0.017343
0.271894 0.496077 0.016009
0.299376 0.498718 0.014663
0.327120 0.501399 0.013305
0.355129 0.504118 0.011935
0.383409 0.506872 0.010552
0.411947 0.509641 0.009156
0.440708 0.512382 0.007746
0.469687 0.515094 0.006322
0.498880 0.517780 0.004885
0.528285 0.520442 0.003434
0.557898 0.523079 0.001971
0.587718 0.525694 0.000495
0.617740 0.528288 0.000000
0.592616 0.567949 0.000000
0.627890 0.567481 0.000000
0.663403 0.566969 0.000000
0.699153 0.566414 0.000000
0.735138 0.565816 0.000000
0.771354 0.565177 0.000000
0.807801 0.564498 0.000000
0.844475 0.563781 0.000000
0.912492 0.531599 0.055922
0.905608 0.530830 0.055783
0.023574 0.493273 0.087925
0.047826 0.496872 0.081537
0.072274 0.500548 0.075106
0.092967 0.512680 0.034360
0.118649 0.514806 0.034567
0.144558 0.516985 0.034777
0.170701 0.519213 0.034991
0.197083 0.521486 0.035209
0.220132 0.519817 0.020335
0.247370 0.522565 0.019010
0.274867 0.525355 0.017672
0.302626 0.528184 0.016323
0.330652 0.531050 0.014961
0.358937 0.533934 0.013586
0.387448 0.536789 0.012197
0.416180 0.539615 0.010793
0.445131 0.542412 0.009377
0.474296 0.545183 0.007946
0.503672 0.547929 0.006503
0.533257 0.550651 0.005046
0.563048 0.553351 0.003577
0.593042 0.556029 0.002095
0.623238 0.558688 0.000601
0.653632 0.561328 0.000000
0.624651 0.603832 0.000000
0.660341 0.603382 0.000000
0.696264 0.602890 0.000000
0.732420 0.602356 0.000000
0.768806 0.601783 0.000000
0.805421 0.601170 0.000000
0.842261 0.600520 0.000000
0.879325 0.599833 0.000000
0.909018 0.565681 0.059539
0.024887 0.520750 0.092823
0.049341 0.524579 0.086420
0.074001 0.528480 0.079970
0.094573 0.541551 0.036286
0.120491 0.543884 0.036507
0.146644 0.546265 0.036731
0.173037 0.548691 0.036959
0.199676 0.551159 0.037191
0.226566 0.553668 0.037425
0.250149 0.552238 0.020708
0.277921 0.555216 0.019368
0.305952 0.558215 0.018014
0.334213 0.561185 0.016645
0.362699 0.564123 0.015263
0.391406 0.567032 0.013866
0.420331 0.569913 0.012456
0.449470 0.572767 0.011032
0.478820 0.575597 0.009595
0.508379 0.578403 0.008145
0.538144 0.581187 0.006683
0.568112 0.583949 0.005208
0.598281 0.586691 0.003720
0.628650 0.589415 0.002221
0.659215 0.592120 0.000709
0.689975 0.594808 0.000000
0.657069 0.640199 0.000000
0.693167 0.639770 0.000000
0.729496 0.639301 0.000000
0.766052 0.638792 0.000000
0.802835 0.638246 0.000000
0.839843 0.637662 0.000000
0.877073 0.637042 0.000000
0.914525 0.636387 0.000000
0.026230 0.548835 0.097829
0.050895 0.552889 0.091407
0.075776 0.557010 0.084935
0.096229 0.571032 0.038253
0.122389 0.573568 0.038488
0.148790 0.576148 0.038726
0.175439 0.578771 0.038968
0.202340 0.581432 0.039212
0.229497 0.584131 0.039461
0.252992 0.582484 0.022440
0.281003 0.585569 0.021092
0.309242 0.588620 0.019730
0.337706 0.591641 0.018354
0.366390 0.594632 0.016964
0.395291 0.597595 0.015560
0.424407 0.600532 0.014143
0.453734 0.603444 0.012712
0.483269 0.606333 0.011269
0.513010 0.609199 0.009813
0.542954 0.612044 0.008344
0.573099 0.614869 0.006863
0.603443 0.617676 0.005370
0.633984 0.620463 0.003865
0.664720 0.623234 0.002348
0.695650 0.625988 0.000820
0.726771 0.628727 0.000000
0.689873 0.677050 0.000000
0.726374 0.676644 0.000000
0.763102 0.676200 0.000000
0.800054 0.675719 0.000000
0.837230 0.675202 0.000000
0.874627 0.674649 0.000000
0.915730 0.674061 0.000000
0.027601 0.577528 0.102943
0.052486 0.581802 0.096500
0.077597 0.586141 0.090003
0.102938 0.590541 0.083450
0.124337 0.603861 0.040509
0.150993 0.606638 0.040761
0.177903 0.609454 0.041016
0.205065 0.612294 0.041274
0.232462 0.615100 0.041529
0.260086 0.617867 0.041783
0.284030 0.616238 0.022840
0.312473 0.619339 0.021469
0.341137 0.622411 0.020085
0.370017 0.625456 0.018688
0.399112 0.628475 0.017277
0.428417 0.631468 0.015853
0.457930 0.634439 0.014415
0.487649 0.637387 0.012966
0.517571 0.640314 0.011503
0.547694 0.643221 0.010029
0.578016 0.646109 0.008542
0.608535 0.648979 0.007043
0.639249 0.651831 0.005533
0.670156 0.654667 0.004011
0.701255 0.657488 0.002477
0.732543 0.660294 0.000932
0.764021 0.663086 0.000000
0.723064 0.714382 0.000000
0.759963 0.714003 0.000000
0.797086 0.713587 0.000000
0.834430 0.713135 0.000000
0.871995 0.712649 0.000000
0.926583 0.712128 0.000000
0.029001 0.606828 0.108166
0.054115 0.611320 0.101698
0.079461 0.615872 0.095173
0.105044 0.620484 0.088591
0.126333 0.634764 0.042571
0.153246 0.637725 0.042836
0.180397 0.640651 0.043099
0.207779 0.643538 0.043360
0.235388 0.646386 0.043619
0.263220 0.649197 0.043877
0.287007 0.647217 0.024609
0.315652 0.650369 0.023231
0.344513 0.653494 0.021839
0.373588 0.656593 0.020434
0.402873 0.659668 0.019016
0.432367 0.662719 0.017585
0.462065 0.665748 0.016142
0.491967 0.668756 0.014686
0.522070 0.671744 0.013217
0.552371 0.674713 0.011737
0.582870 0.677664 0.010244
0.613563 0.680598 0.008740
0.644449 0.683515 0.007224
0.675527 0.686417 0.005697
0.706795 0.689304 0.004158
0.738252 0.692177 0.002608
0.769896 0.695036 0.001047
0.801726 0.697882 0.000000
0.756644 0.752196 0.000000
0.793938 0.751845 0.000000
0.831451 0.751459 0.000000
0.869184 0.751038 0.000000
0.933654 0.750573 0.000000
0.030430 0.636735 0.113497
0.055779 0.641441 0.107001
0.081366 0.646206 0.100447
0.107195 0.651017 0.093831
0.128358 0.666191 0.044668
0.155497 0.669196 0.044936
0.182866 0.672162 0.045203
0.210462 0.675090 0.045467
0.238280 0.677981 0.045730
0.266317 0.680839 0.045991
0.289938 0.678503 0.026400
0.318782 0.681707 0.025014
0.347840 0.684886 0.023615
0.377107 0.688040 0.022203
0.406582 0.691171 0.020778
0.436263 0.694281 0.019341
0.466146 0.697369 0.017891
0.496230 0.700437 0.016428
0.526512 0.703487 0.014954
0.556991 0.706518 0.013467
0.587665 0.709532 0.011969
0.618533 0.712530 0.010459
0.649591 0.715512 0.008938
0.680840 0.718480 0.007406
0.712278 0.721433 0.005862
0.743903 0.724373 0.004306
