packages/app/public/luts/Ricoh_GR2_POSI_33_Rec709.cube
TITLE "Ricoh_GR2_POSI_33_Rec709"
DOMAIN_MIN 0.000000 0.000000 0.000000
DOMAIN_MAX 1.000000 1.000000 1.000000
LUT_3D_SIZE 5
0.000000 0.000000 0.000000
0.231166 0.000000 0.000000
0.462332 0.000000 0.000000
0.693498 0.000000 0.000000
0.930483 0.000000 0.000000
0.008682 0.181657 0.032380
0.199255 0.186819 0.000704
0.417898 0.174387 0.018165
0.669629 0.173940 0.000000
0.937832 0.163019 0.000000
0.017444 0.364996 0.065060
0.208886 0.381117 0.012299
0.423090 0.396684 0.001495
0.638493 0.426265 0.000000
0.942171 0.395322 0.041179
0.027601 0.577528 0.102943
0.232462 0.615100 0.041529
0.457930 0.634439 0.014415
0.701255 0.657488 0.002477
0.926583 0.712128 0.000000
0.039443 0.825309 0.147110
0.255109 0.873945 0.058816
0.489729 0.893520 0.028834
0.743663 0.920024 0.016528
0.976293 0.944218 0.003558
0.006335 0.000000 0.184004
0.215445 0.000000 0.180249
0.485327 0.000000 0.227881
0.697519 0.000000 0.163598
0.941590 0.000000 0.146123
0.019475 0.173914 0.236797
0.192216 0.192216 0.192216
0.428777 0.178744 0.174942
0.681601 0.167419 0.159601
0.955019 0.156404 0.144260
0.011156 0.369426 0.267789
0.208853 0.388678 0.233490
0.421297 0.407914 0.216961
0.678504 0.408161 0.235771
0.971883 0.416537 0.142381
0.022431 0.586134 0.322404
0.233517 0.618982 0.286328
0.455310 0.648251 0.268853
0.700537 0.671042 0.250208
0.940604 0.705810 0.216781
0.035333 0.834711 0.385745
0.258453 0.872938 0.342640
0.491230 0.914788 0.279879
0.741379 0.934782 0.302799
0.981952 0.958366 0.280596
0.012670 0.000000 0.368007
0.215680 0.000000 0.352990
0.430890 0.000000 0.360499
0.647851 0.000000 0.369004
0.993597 0.000000 0.466535
0.019944 0.171568 0.438164
0.198973 0.190978 0.377018
0.416709 0.186888 0.380732
0.714464 0.141329 0.442989
0.972919 0.149640 0.389086
0.039759 0.355057 0.483437
0.222830 0.385395 0.451587
0.419569 0.419569 0.419569
0.695939 0.416831 0.412587
0.987677 0.411733 0.402975
0.013290 0.598985 0.538105
0.229375 0.629072 0.515682
0.457824 0.659273 0.485423
0.699491 0.684588 0.471951
0.965652 0.686223 0.496253
0.025647 0.849289 0.615631
0.255013 0.883027 0.589209
0.493607 0.918609 0.551834
0.738691 0.949333 0.535128
0.987796 0.972368 0.517184
0.019006 0.000000 0.552011
0.215914 0.000000 0.525731
0.431125 0.000000 0.533240
0.651931 0.000000 0.545430
0.891662 0.000000 0.567421
0.026280 0.169925 0.622168
0.206459 0.190381 0.564523
0.421484 0.192800 0.563368
0.665844 0.185341 0.590624
0.929392 0.177721 0.621086
0.076012 0.336823 0.706278
0.226289 0.388010 0.672360
0.432420 0.423592 0.629026
0.686465 0.429182 0.646189
1.000000 0.384744 0.722115
0.064532 0.576282 0.784652
0.264098 0.616979 0.760662
0.475624 0.657486 0.731534
0.698138 0.698138 0.698138
1.000000 0.696160 0.691501
0.015725 0.863743 0.850446
0.247141 0.897218 0.829646
0.490210 0.929230 0.804685
0.741578 0.960728 0.771603
0.993816 0.986241 0.757034
0.025341 0.000000 0.736014
0.216149 0.000000 0.698472
0.431587 0.000000 0.706353
0.657608 0.000000 0.725669
0.902764 0.000000 0.755285
0.032624 0.168329 0.806393
0.214556 0.190245 0.755976
0.426803 0.199047 0.750795
0.675360 0.191987 0.785996
0.941846 0.184269 0.823252
0.041642 0.358222 0.914858
0.236273 0.391605 0.880643
0.445234 0.427345 0.843640
0.694803 0.438571 0.853780
0.971832 0.435853 0.887928
0.132619 0.542978 1.000000
0.307360 0.599585 1.000000
0.481302 0.661769 0.979080
0.712737 0.702984 0.929949
0.991434 0.710021 0.947380
0.092584 0.826788 1.000000
0.306023 0.871717 1.000000
0.529325 0.915493 1.000000
0.760987 0.958139 1.000000
1.000000 1.000000 1.000000
