packages/app/public/luts/Ricoh_GR2_POSI_33_Rec709.cube
TITLE "Ricoh_GR2_POSI_33_Rec709"
DOMAIN_MIN 0.000000 0.000000 0.000000
DOMAIN_MAX 1.000000 1.000000 1.000000
LUT_3D_SIZE 9
0.000000 0.000000 0.000000
0.115583 0.000000 0.000000
0.231166 0.000000 0.000000
0.346749 0.000000 0.000000
0.462332 0.000000 0.000000
0.577915 0.000000 0.000000
0.693498 0.000000 0.000000
0.809478 0.000000 0.000000
0.930483 0.000000 0.000000
0.004341 0.090829 0.016190
0.099628 0.093410 0.000352
0.207819 0.086722 0.009034
0.325280 0.084493 0.000000
0.440862 0.076633 0.000000
0.556646 0.068797 0.000000
0.675965 0.061269 0.000000
0.800421 0.053915 0.000000
0.930381 0.046552 0.000000
0.008682 0.181657 0.032380
0.101622 0.185411 0.005983
0.199255 0.186819 0.000704
0.289921 0.193555 0.000000
0.417898 0.174387 0.018165
0.543337 0.179611 0.000000
0.669629 0.173940 0.000000
0.801023 0.168462 0.000000
0.937832 0.163019 0.000000
0.013022 0.272486 0.048570
0.105745 0.279804 0.018891
0.202261 0.280222 0.006367
0.303367 0.284433 0.001072
0.387799 0.303550 0.000000
0.531034 0.281462 0.029536
0.662520 0.276468 0.028799
0.805843 0.291314 0.000000
0.948400 0.288118 0.000000
0.017444 0.364996 0.065060
0.110462 0.378419 0.025468
0.208886 0.381117 0.012299
0.314039 0.388514 0.006980
0.423090 0.396684 0.001495
0.501882 0.428927 0.000000
0.638493 0.426265 0.000000
0.802791 0.399239 0.041820
0.942171 0.395322 0.041179
0.022290 0.466403 0.083136
0.116867 0.486333 0.032667
0.217698 0.490921 0.018666
0.327120 0.501399 0.013305
0.440708 0.512382 0.007746
0.557898 0.523079 0.001971
0.627890 0.567481 0.000000
0.771354 0.565177 0.000000
0.905608 0.530830 0.055783
0.027601 0.577528 0.102943
0.124337 0.603861 0.040509
0.232462 0.615100 0.041529
0.341137 0.622411 0.020085
0.457930 0.634439 0.014415
0.578016 0.646109 0.008542
0.701255 0.657488 0.002477
0.759963 0.714003 0.000000
0.926583 0.712128 0.000000
0.033372 0.698292 0.124469
0.132367 0.729959 0.048923
0.243976 0.742092 0.050012
0.354364 0.748587 0.027232
0.474162 0.761536 0.021454
0.597104 0.774198 0.015486
0.723086 0.786622 0.009335
0.851912 0.798743 0.003010
0.950764 0.867607 0.000000
0.039443 0.825309 0.147110
0.147448 0.845892 0.119534
0.255109 0.873945 0.058816
0.373141 0.886443 0.059946
0.489729 0.893520 0.028834
0.615412 0.907091 0.022772
0.743663 0.920024 0.016528
0.874269 0.932374 0.010119
0.976293 0.944218 0.003558
0.003168 0.000000 0.092002
0.107723 0.000000 0.090125
0.242663 0.000000 0.113941
0.348743 0.000000 0.081795
0.464326 0.000000 0.072058
0.579909 0.000000 0.062320
0.695492 0.000000 0.052583
0.812687 0.000000 0.042930
0.935757 0.000000 0.033433
0.009738 0.086957 0.118399
0.096108 0.096108 0.096108
0.211691 0.088248 0.086370
0.327274 0.080387 0.076633
0.442857 0.072527 0.066895
0.559404 0.064778 0.057257
0.680288 0.057334 0.047861
0.806292 0.049980 0.038479
0.937772 0.042564 0.028951
0.005514 0.182596 0.132360
0.100449 0.186937 0.112298
0.195736 0.189518 0.100801
0.304378 0.183102 0.105767
0.425089 0.182188 0.062276
0.547943 0.176271 0.053058
0.675499 0.170678 0.043744
0.808196 0.165209 0.034217
0.946329 0.159727 0.024398
0.010441 0.272838 0.150075
0.104921 0.278114 0.128650
0.199368 0.283852 0.117723
0.301195 0.288514 0.107576
0.399210 0.299559 0.092006
0.537960 0.283360 0.121010
0.675160 0.292019 0.039687
0.813715 0.288899 0.029816
0.957024 0.285508 0.019558
0.015489 0.365910 0.169098
0.111211 0.375620 0.147436
0.208601 0.388465 0.118851
0.312314 0.393788 0.127558
0.422181 0.402243 0.117771
0.515132 0.425952 0.093012
0.670275 0.405350 0.139358
0.811729 0.401907 0.140578
0.963916 0.418810 0.014284
0.020960 0.468146 0.191572
0.119074 0.482109 0.168812
0.218911 0.500987 0.129437
0.325596 0.507867 0.149451
0.439809 0.518860 0.139749
0.557487 0.529454 0.129481
0.641880 0.564578 0.093832
0.786133 0.561991 0.095148
0.928933 0.533865 0.159564
0.026910 0.579897 0.216804
0.128016 0.597909 0.192394
0.230414 0.622550 0.141048
0.339355 0.629430 0.172703
0.456663 0.641354 0.162641
0.577236 0.652946 0.152075
0.700939 0.664267 0.141040
0.774617 0.711154 0.093778
0.929894 0.709039 0.094914
0.032174 0.701784 0.242369
0.137440 0.721310 0.217433
0.241695 0.749934 0.152847
0.357217 0.761470 0.155499
0.472613 0.768891 0.186291
0.596036 0.781495 0.175473
0.722482 0.793875 0.164222
0.851610 0.805821 0.152513
0.954942 0.864571 0.092994
0.038207 0.828975 0.268952
0.146799 0.849400 0.243059
0.252642 0.882201 0.164734
0.371183 0.894617 0.167359
0.487951 0.901321 0.210705
0.614008 0.914695 0.199614
0.742573 0.927430 0.188032
0.873462 0.939612 0.176006
0.979098 0.951311 0.163577
0.006335 0.000000 0.184004
0.107840 0.000000 0.176495
0.215445 0.000000 0.180249
0.323050 0.000000 0.184004
0.485327 0.000000 0.227881
0.612759 0.000000 0.246183
0.697519 0.000000 0.163598
0.816600 0.000000 0.154521
0.941590 0.000000 0.146123
0.009972 0.085784 0.219082
0.099276 0.095287 0.188110
0.203831 0.091415 0.186233
0.338771 0.067013 0.210048
0.444857 0.068421 0.177905
0.562660 0.060801 0.168833
0.685030 0.053402 0.160540
0.812518 0.046024 0.152620
0.945470 0.038540 0.144817
0.019475 0.173914 0.236797
0.105845 0.183065 0.214507
0.192216 0.192216 0.192216
0.308911 0.185022 0.183138
0.428777 0.178744 0.174942
0.552801 0.172964 0.167188
0.681601 0.167419 0.159601
0.815581 0.161938 0.151999
0.955019 0.156404 0.144260
0.006101 0.274950 0.247004
0.101954 0.279616 0.229215
0.198948 0.286487 0.210941
0.299118 0.292745 0.201817
0.416222 0.290225 0.209881
0.547539 0.292774 0.167005
0.681963 0.289609 0.159540
0.821656 0.286435 0.151857
0.965558 0.282802 0.143708
0.011156 0.369426 0.267789
0.109126 0.377869 0.252137
0.208853 0.388678 0.233490
0.310616 0.399190 0.225019
0.421297 0.407914 0.216961
0.528558 0.422924 0.202908
0.678504 0.408161 0.235771
0.825427 0.418919 0.151199
0.971883 0.416537 0.142381
0.016574 0.473078 0.293377
0.117736 0.484970 0.278715
0.220665 0.499631 0.258885
0.326365 0.516997 0.231241
0.438802 0.525312 0.242625
0.556968 0.535813 0.233964
0.655937 0.561552 0.209183
0.819502 0.540031 0.259434
0.952549 0.536871 0.261948
0.022431 0.586134 0.322404
0.127385 0.601257 0.308178
0.233517 0.618982 0.286328
0.341209 0.640542 0.246262
0.455310 0.648251 0.268853
0.576369 0.659773 0.259784
0.700537 0.671042 0.250208
0.789345 0.708201 0.214060
0.940604 0.705810 0.216781
0.028732 0.707910 0.353850
0.137372 0.724237 0.338900
0.246097 0.743582 0.314255
0.355394 0.769190 0.261092
0.470991 0.776236 0.295624
0.594896 0.788787 0.286227
0.721767 0.801084 0.276352
0.851178 0.812846 0.265924
0.959034 0.861398 0.217662
0.035333 0.834711 0.385745
0.146123 0.852832 0.367964
0.258453 0.872938 0.342640
0.369166 0.902784 0.275881
0.491230 0.914788 0.279879
0.612499 0.922233 0.313174
0.741379 0.934782 0.302799
0.872551 0.946804 0.291925
0.981952 0.958366 0.280596
0.009503 0.000000 0.276005
0.107957 0.000000 0.262866
0.215562 0.000000 0.266620
0.323168 0.000000 0.270374
0.430773 0.000000 0.274128
0.538378 0.000000 0.277883
0.728646 0.000000 0.342130
0.861784 0.000000 0.362802
1.000000 0.000000 0.385448
0.013140 0.084963 0.311084
0.102443 0.094466 0.280112
0.203948 0.093292 0.272603
0.311553 0.086722 0.276357
0.419462 0.080211 0.280314
0.585487 0.038182 0.326247
0.721549 0.018773 0.348415
0.819066 0.042041 0.268033
0.953449 0.034474 0.262132
0.036838 0.163238 0.342291
0.106080 0.181892 0.315190
0.195494 0.191503 0.284378
0.301893 0.188745 0.284180
0.442374 0.165932 0.311433
0.557887 0.169677 0.282586
0.687914 0.164154 0.276901
0.823162 0.158644 0.271360
0.963890 0.153043 0.265807
0.029225 0.260982 0.355346
0.116285 0.271662 0.334927
0.205303 0.283803 0.315766
0.297117 0.297117 0.297117
0.422841 0.293611 0.291646
0.553314 0.290352 0.286354
0.688905 0.287184 0.281075
0.829512 0.283868 0.275570
0.974010 0.280003 0.269450
0.006794 0.373160 0.367415
0.105245 0.382080 0.353305
0.206821 0.392044 0.339498
0.311432 0.403465 0.324041
0.420429 0.413690 0.317546
0.547751 0.414057 0.328806
0.689340 0.418834 0.285294
0.832722 0.416776 0.278887
0.979801 0.414176 0.271954
0.012138 0.478172 0.396466
0.113901 0.490427 0.383611
0.219410 0.503498 0.370587
0.327592 0.518381 0.353731
0.437692 0.531741 0.346804
0.556348 0.542158 0.339699
0.670063 0.558409 0.325854
0.828024 0.543148 0.361491
0.982228 0.554967 0.273578
0.017892 0.592499 0.429489
0.123488 0.607768 0.417132
0.232797 0.622739 0.403730
0.343563 0.639376 0.384091
0.456320 0.657851 0.355758
0.575419 0.666592 0.368665
0.700054 0.677815 0.360517
0.804147 0.705149 0.335560
0.941369 0.682901 0.389211
0.024056 0.714889 0.464762
0.133269 0.731084 0.451395
0.245898 0.746954 0.437062
0.359017 0.765323 0.414683
0.473213 0.787906 0.373394
0.593685 0.796076 0.398095
0.720928 0.808234 0.389532
0.850623 0.819820 0.380328
0.963044 0.858093 0.343361
0.030520 0.842017 0.500061
0.143080 0.859084 0.485827
0.258851 0.875908 0.470747
0.374171 0.896079 0.445675
0.489581 0.922785 0.390856
0.610890 0.929709 0.427725
0.740083 0.942082 0.418507
0.871539 0.953952 0.408739
0.984851 0.965384 0.398472
0.012670 0.000000 0.368007
0.108075 0.000000 0.349236
0.215680 0.000000 0.352990
0.323285 0.000000 0.356745
0.430890 0.000000 0.360499
0.538496 0.000000 0.364253
0.647851 0.000000 0.369004
0.852643 0.000000 0.442349
0.993597 0.000000 0.466535
0.016307 0.084141 0.403086
0.105611 0.093644 0.372113
0.204065 0.095169 0.358974
0.311670 0.088600 0.362728
0.420285 0.082227 0.367365
0.532479 0.076261 0.374170
0.649024 0.070468 0.382559
0.855498 0.009159 0.454616
1.000000 0.000000 0.481523
0.019944 0.171568 0.438164
0.109248 0.181071 0.407192
0.198973 0.190978 0.377018
0.303082 0.191310 0.372429
0.416709 0.186888 0.380732
0.534463 0.182827 0.390236
0.714464 0.141329 0.442989
0.864043 0.122956 0.470568
0.972919 0.149640 0.389086
0.059356 0.243019 0.467186
0.134217 0.261824 0.442588
0.206532 0.283972 0.420134
0.302106 0.297972 0.394175
0.417256 0.298820 0.398716
0.569412 0.277988 0.431374
0.695975 0.284737 0.404343
0.837287 0.281201 0.400907
0.982386 0.277117 0.396746
0.039759 0.355057 0.483437
0.129779 0.369680 0.467361
0.222830 0.385395 0.451587
0.319329 0.402058 0.435743
0.419569 0.419569 0.419569
0.555736 0.418536 0.416450
0.695939 0.416831 0.412587
0.839972 0.414541 0.408072
0.987677 0.411733 0.402975
0.007650 0.483415 0.500911
0.110026 0.496009 0.489957
0.216231 0.509365 0.478895
0.326285 0.522920 0.467137
0.439134 0.536826 0.452518
0.555631 0.548493 0.446659
0.690276 0.549136 0.459136
0.839316 0.554559 0.413983
0.989738 0.552934 0.408130
0.013290 0.598985 0.538105
0.119508 0.614226 0.527491
0.229375 0.629072 0.515682
0.342660 0.643609 0.502809
0.457824 0.659273 0.485423
0.574389 0.673407 0.478699
0.699491 0.684588 0.471951
0.819008 0.701987 0.458254
0.965652 0.686223 0.496253
0.019314 0.721819 0.577016
0.129095 0.737895 0.565185
0.242250 0.753673 0.552353
0.358619 0.769218 0.538608
0.475970 0.786689 0.518540
0.594962 0.806204 0.489555
0.719969 0.815326 0.503727
0.849951 0.826748 0.495693
0.966977 0.854663 0.470062
0.025647 0.849289 0.615631
0.138739 0.866270 0.602856
0.255013 0.883027 0.589209
0.374351 0.899602 0.574746
0.493607 0.918609 0.551834
0.613269 0.941649 0.509108
0.738691 0.949333 0.535128
0.870432 0.961060 0.526425
0.987796 0.972368 0.517184
0.015838 0.000000 0.460009
0.108192 0.000000 0.435607
0.215797 0.000000 0.439361
0.323402 0.000000 0.443115
0.431008 0.000000 0.446869
0.538734 0.000000 0.450724
0.649663 0.000000 0.456800
0.765487 0.000000 0.465220
0.886512 0.000000 0.475335
0.019475 0.083320 0.495087
0.108778 0.092823 0.464115
0.204183 0.097047 0.445344
0.311831 0.090489 0.449160
0.421459 0.084320 0.455083
0.534823 0.078485 0.463387
0.652588 0.072773 0.473408
0.775172 0.067048 0.484727
0.997952 0.000000 0.566868
0.023112 0.170747 0.530166
0.112423 0.180262 0.499229
0.202633 0.190612 0.470344
0.304446 0.194000 0.461559
0.419020 0.189800 0.471485
0.537816 0.185891 0.482724
0.661262 0.182108 0.494994
0.789656 0.178336 0.508101
1.000000 0.115545 0.588062
0.051482 0.248172 0.562881
0.117634 0.271324 0.541554
0.210860 0.284608 0.516791
0.307224 0.298906 0.492469
0.420118 0.302771 0.492924
0.543970 0.301198 0.505966
0.672585 0.299638 0.519617
0.866271 0.257685 0.578005
1.000000 0.239820 0.608499
0.063317 0.342684 0.596941
0.161843 0.352823 0.585920
0.242682 0.376603 0.566309
0.321791 0.403574 0.547372
0.426001 0.421617 0.523636
0.550585 0.424824 0.530898
0.713307 0.404188 0.566888
0.847182 0.412217 0.538724
0.995512 0.409208 0.535418
0.051537 0.460236 0.626646
0.145556 0.478444 0.613987
0.243134 0.497501 0.601072
0.344035 0.516656 0.586942
0.447983 0.535745 0.571479
0.554820 0.554820 0.554820
0.698664 0.553987 0.551787
0.846171 0.552639 0.548175
0.997226 0.550825 0.544037
0.008623 0.605541 0.648242
0.115449 0.620638 0.639216
0.225868 0.635371 0.628950
0.339664 0.649823 0.617584
0.456674 0.664058 0.605226
0.576070 0.678823 0.590148
0.698851 0.691361 0.584496
0.840184 0.692378 0.598127
0.995698 0.698175 0.551297
0.014509 0.728705 0.690582
0.124851 0.744673 0.680246
0.238528 0.760368 0.668878
0.355390 0.775852 0.656571
0.475317 0.791169 0.643397
0.596729 0.807716 0.625635
0.718896 0.822365 0.618904
0.849166 0.833631 0.611990
0.970836 0.851111 0.597736
0.020715 0.856530 0.732432
0.134336 0.873432 0.721087
0.251109 0.890130 0.708847
0.370899 0.906596 0.695721
0.493398 0.922511 0.681502
0.616176 0.940098 0.660555
0.739872 0.959500 0.630280
0.869231 0.968129 0.644961
0.990785 0.979320 0.636710
0.019006 0.000000 0.552011
0.108309 0.000000 0.521977
0.215914 0.000000 0.525731
0.323520 0.000000 0.529485
0.431125 0.000000 0.533240
0.539498 0.000000 0.537759
0.651931 0.000000 0.545430
0.769216 0.000000 0.555535
0.891662 0.000000 0.567421
0.022643 0.082499 0.587089
0.111946 0.092002 0.556117
0.204300 0.098924 0.531715
0.312280 0.092465 0.536113
0.422934 0.086484 0.543623
0.537433 0.080764 0.553605
0.656385 0.075124 0.565392
0.780179 0.069443 0.578556
0.909078 0.063645 0.592809
0.026280 0.169925 0.622168
0.115698 0.179607 0.591785
0.206459 0.190381 0.564523
0.305964 0.196804 0.551682
0.421484 0.192800 0.563368
0.541312 0.189028 0.576447
0.665844 0.185341 0.590624
0.795355 0.181638 0.605698
0.929392 0.177721 0.621086
0.030132 0.259205 0.661980
0.121392 0.271718 0.637687
0.215300 0.285339 0.614649
0.312465 0.299911 0.592067
0.423066 0.306810 0.588444
0.547929 0.305360 0.603449
0.677299 0.303759 0.618824
0.810323 0.301633 0.633806
0.946808 0.299040 0.648466
0.076012 0.336823 0.706278
0.154486 0.359811 0.688336
0.226289 0.388010 0.672360
0.327494 0.405519 0.651165
0.432420 0.423592 0.629026
0.554241 0.429655 0.631538
0.686465 0.429182 0.646189
0.822179 0.428213 0.660590
1.000000 0.384744 0.722115
0.076135 0.448557 0.746120
0.171278 0.466776 0.735713
0.278008 0.480683 0.728055
0.365776 0.507964 0.709381
0.450963 0.537646 0.690059
0.561686 0.557054 0.664841
0.693233 0.560758 0.672495
0.864364 0.539561 0.710516
1.000000 0.548640 0.681281
0.064532 0.576282 0.784652
0.162739 0.596682 0.773371
0.264098 0.616979 0.760662
0.368438 0.637231 0.746676
0.475624 0.657486 0.731534
0.585553 0.677778 0.715330
0.698138 0.698138 0.698138
0.848913 0.697529 0.695227
1.000000 0.696160 0.691501
0.009642 0.735552 0.805432
0.120540 0.751422 0.796553
0.234735 0.767043 0.786618
0.352087 0.782471 0.775722
0.472483 0.797748 0.763938
0.595685 0.812708 0.751141
0.720625 0.827900 0.735322
0.848273 0.840473 0.729193
0.981657 0.840899 0.743014
0.015725 0.863743 0.850446
0.129870 0.880574 0.840503
0.247141 0.897218 0.829646
0.367353 0.913512 0.817758
0.490210 0.929230 0.804685
0.615505 0.944450 0.790552
0.741578 0.960728 0.771603
0.867942 0.975163 0.764325
0.993816 0.986241 0.757034
0.022173 0.000000 0.644013
0.111477 0.000000 0.613040
0.216032 0.000000 0.612102
0.323637 0.000000 0.615856
0.431242 0.000000 0.619610
0.540748 0.000000 0.625563
0.654596 0.000000 0.635018
0.773275 0.000000 0.646950
0.897089 0.000000 0.660718
0.025810 0.081678 0.679091
0.115114 0.091181 0.648119
0.204417 0.100801 0.618085
0.313017 0.094531 0.623822
0.424672 0.088715 0.633113
0.540277 0.083097 0.644918
0.660388 0.077520 0.658582
0.785369 0.071880 0.673677
0.915468 0.066105 0.689911
0.029447 0.169104 0.714170
0.119091 0.179119 0.685154
0.210437 0.190264 0.659695
0.307619 0.199713 0.642892
0.424083 0.195884 0.656451
0.544937 0.192235 0.671457
0.670547 0.188635 0.687612
0.801122 0.184983 0.704669
0.935673 0.180992 0.721583
0.033445 0.259326 0.757413
0.125236 0.272225 0.734993
0.219847 0.286152 0.713784
0.317823 0.300976 0.693027
0.426092 0.310931 0.685319
0.551947 0.309584 0.702319
0.681927 0.307869 0.719234
0.815508 0.305643 0.735692
0.952528 0.302966 0.751793
0.068174 0.343525 0.808157
0.132951 0.372887 0.794762
0.231238 0.389781 0.775757
0.333286 0.407501 0.756447
0.438830 0.425500 0.735705
0.557840 0.434469 0.733339
0.690661 0.433881 0.749433
0.826943 0.432817 0.765246
0.966567 0.431329 0.780838
0.103086 0.435379 0.867536
0.185575 0.461885 0.853294
0.270988 0.488990 0.837798
0.348947 0.520579 0.822356
0.457280 0.539890 0.799971
0.568554 0.559238 0.776029
0.697113 0.566008 0.778456
0.836146 0.566038 0.793862
0.978384 0.565639 0.809092
0.090273 0.564756 0.910221
0.189504 0.584780 0.900602
0.291825 0.604738 0.889525
0.405567 0.619480 0.880567
0.498754 0.648402 0.860388
0.588876 0.679891 0.839920
0.705460 0.700607 0.813544
0.843143 0.704647 0.821462
1.000000 0.682486 0.860770
0.078273 0.698983 0.951719
0.180180 0.720391 0.940349
0.285002 0.741776 0.927762
0.392624 0.763180 0.914059
0.502940 0.784609 0.899296
0.615631 0.805780 0.883203
0.730460 0.826652 0.865819
0.847276 0.847276 0.847276
1.000000 0.846050 0.843662
0.010679 0.870932 0.969653
0.125343 0.887699 0.961088
0.243103 0.904275 0.951572
0.363718 0.920353 0.940823
0.486930 0.935885 0.928845
0.612542 0.950947 0.915771
0.740390 0.965601 0.901711
0.869581 0.980655 0.884799
0.996888 0.993134 0.878136
0.025341 0.000000 0.736014
0.114644 0.000000 0.705042
0.216149 0.000000 0.698472
0.323754 0.000000 0.702226
0.431587 0.000000 0.706353
0.542416 0.000000 0.714280
0.657608 0.000000 0.725669
0.777625 0.000000 0.739545
0.902764 0.000000 0.755285
0.028978 0.080856 0.771093
0.118281 0.090359 0.740121
0.207666 0.099901 0.709426
0.314002 0.096681 0.712434
0.426639 0.091009 0.723658
0.543328 0.085482 0.737403
0.664577 0.079962 0.753037
0.790726 0.074358 0.770137
0.922007 0.068604 0.788412
0.032624 0.168329 0.806393
0.122594 0.178770 0.779493
0.214556 0.190245 0.755976
0.309394 0.202719 0.735269
0.426803 0.199047 0.750795
0.548680 0.195508 0.767803
0.675360 0.191987 0.785996
0.806788 0.188333 0.804871
0.941846 0.184269 0.823252
0.036801 0.259585 0.854002
0.129162 0.272831 0.833555
0.224497 0.287038 0.814263
0.323293 0.302095 0.795402
0.429191 0.315131 0.783586
0.555906 0.313801 0.802434
0.686477 0.311970 0.820818
0.820617 0.309649 0.838712
0.958175 0.306894 0.856221
0.041642 0.358222 0.914858
0.137192 0.374474 0.897702
0.236273 0.391605 0.880643
0.339097 0.409434 0.863072
0.445234 0.427345 0.843640
0.561387 0.439267 0.836277
0.694803 0.438571 0.853780
0.831656 0.437418 0.870976
0.971832 0.435853 0.887928
0.095184 0.443345 0.975359
0.178091 0.470150 0.962974
0.248836 0.503613 0.951581
0.354696 0.522839 0.932184
0.463605 0.542080 0.911058
0.575427 0.561375 0.888364
0.700957 0.571252 0.885468
0.840562 0.571198 0.902215
0.983231 0.570654 0.918645
0.132619 0.542978 1.000000
0.218706 0.571157 1.000000
0.307360 0.599585 1.000000
0.398461 0.628292 0.996028
0.481302 0.661769 0.979080
0.595715 0.682382 0.955239
0.712737 0.702984 0.929949
0.847073 0.710133 0.932036
0.991434 0.710021 0.947380
0.105019 0.687080 1.000000
0.207869 0.708173 1.000000
0.313592 0.729269 1.000000
0.422084 0.750403 1.000000
0.542072 0.766050 1.000000
0.639879 0.796207 1.000000
0.733831 0.828667 0.995416
0.854636 0.849593 0.966958
0.996837 0.853259 0.974361
0.092584 0.826788 1.000000
0.197945 0.849287 1.000000
0.306023 0.871717 1.000000
0.416551 0.893773 1.000000
0.529325 0.915493 1.000000
0.644182 0.936933 1.000000
0.760987 0.958139 1.000000
0.879626 0.979150 1.000000
1.000000 1.000000 1.000000
