packages/app/public/luts/Ricoh_GR2_VIVID_33_Rec709.cube
TITLE "Ricoh_GR2_VIVID_33_Rec709"
DOMAIN_MIN 0.000000 0.000000 0.000000
DOMAIN_MAX 1.000000 1.000000 1.000000
LUT_3D_SIZE 9
0.000000 0.000000 0.000000
0.096295 0.000000 0.000000
0.238315 0.000000 0.000000
0.388573 0.000000 0.000000
0.545465 0.000000 0.000000
0.706217 0.000000 0.000000
0.872335 0.000000 0.000000
1.000000 0.000000 0.000000
1.000000 0.000000 0.000000
0.000000 0.098532 0.000000
0.098052 0.098052 0.000000
0.244976 0.094586 0.000000
0.397567 0.088460 0.000000
0.555004 0.079877 0.000000
0.719299 0.069154 0.000000
0.887019 0.055889 0.000000
1.000000 0.041090 0.000000
1.000000 0.024697 0.000000
0.000000 0.245255 0.000000
0.088504 0.243095 0.000000
0.237677 0.237677 0.000000
0.394640 0.232103 0.000000
0.552640 0.221950 0.000000
0.714320 0.210146 0.000000
0.883644 0.196897 0.000000
1.000000 0.181545 0.000000
1.000000 0.164908 0.000000
0.000000 0.394945 0.000000
0.069398 0.393965 0.000000
0.221766 0.386230 0.000000
0.378414 0.378414 0.000000
0.540784 0.369097 0.000000
0.708362 0.357521 0.000000
0.878041 0.344275 0.000000
1.000000 0.329120 0.000000
1.000000 0.311669 0.000000
0.000000 0.549805 0.000000
0.043140 0.546758 0.000000
0.197924 0.541298 0.000000
0.358075 0.533496 0.000000
0.522482 0.522482 0.000000
0.691703 0.510719 0.000000
0.865812 0.496820 0.000000
1.000000 0.481395 0.000000
1.000000 0.463908 0.000000
0.000000 0.713498 0.000000
0.007789 0.709471 0.000000
0.168276 0.700449 0.000000
0.330351 0.692319 0.000000
0.497487 0.681450 0.000000
0.668375 0.668375 0.000000
0.843974 0.654297 0.000000
1.000000 0.638074 0.000000
1.000000 0.620574 0.000000
0.000000 0.878416 0.000000
0.000000 0.873918 0.000000
0.131369 0.864918 0.000000
0.296439 0.855355 0.000000
0.465331 0.844686 0.000000
0.638804 0.830190 0.000000
0.815202 0.815202 0.000000
0.995081 0.798856 0.000000
1.000000 0.781065 0.000000
0.000000 1.000000 0.000000
0.000000 1.000000 0.000000
0.086688 1.000000 0.000000
0.256762 1.000000 0.000000
0.429104 1.000000 0.000000
0.603414 0.995864 0.000000
0.781722 0.979400 0.000000
0.963346 0.963346 0.000000
1.000000 0.944684 0.000000
0.000000 1.000000 0.000000
0.000000 1.000000 0.000000
0.043924 1.000000 0.000000
0.211748 1.000000 0.000000
0.386873 1.000000 0.000000
0.563098 1.000000 0.000000
0.743227 1.000000 0.000000
0.925991 1.000000 0.000000
1.000000 1.000000 0.000000
0.000000 0.000000 0.116887
0.096428 0.000000 0.096428
0.239303 0.000000 0.097712
0.388885 0.000000 0.096220
0.546394 0.000000 0.091645
0.709096 0.000000 0.084261
0.874693 0.000000 0.074815
1.000000 0.000000 0.062484
1.000000 0.000000 0.050621
0.000000 0.097742 0.097742
0.096415 0.096415 0.096415
0.243006 0.092069 0.092069
0.396847 0.084662 0.084662
0.553735 0.075706 0.075706
0.720183 0.062922 0.062922
0.883534 0.051077 0.051077
1.000000 0.035128 0.035128
1.000000 0.017714 0.017714
0.000000 0.242770 0.092479
0.085318 0.240771 0.085318
0.235293 0.235293 0.076583
0.391414 0.227724 0.064034
0.551007 0.218025 0.051533
0.717021 0.205923 0.035557
0.888036 0.191819 0.017764
1.000000 0.176475 0.000000
1.000000 0.160496 0.000000
0.000000 0.394119 0.077117
0.065132 0.391262 0.065132
0.218481 0.384973 0.051990
0.376788 0.376788 0.036056
0.540453 0.366293 0.017973
0.707465 0.354093 0.000720
0.878412 0.340373 0.000000
1.000000 0.324091 0.000000
1.000000 0.307638 0.000000
0.000000 0.551920 0.052446
0.036555 0.547653 0.036555
0.192674 0.540993 0.018514
0.354590 0.530845 0.002080
0.520213 0.520213 0.000000
0.690434 0.507581 0.000000
0.861042 0.492186 0.000000
1.000000 0.474887 0.000000
1.000000 0.457538 0.000000
0.000000 0.715694 0.019054
0.002798 0.707480 0.002798
0.161312 0.700409 0.000000
0.325269 0.689917 0.000000
0.492022 0.676187 0.000000
0.662496 0.662496 0.000000
0.836350 0.647296 0.000000
1.000000 0.631021 0.000000
1.000000 0.613342 0.000000
0.000000 0.880448 0.000000
0.000000 0.870195 0.000000
0.124011 0.859835 0.000000
0.288533 0.850507 0.000000
0.458947 0.837054 0.000000
0.631761 0.824066 0.000000
0.808033 0.808033 0.000000
0.987827 0.791375 0.000000
1.000000 0.773183 0.000000
0.000000 1.000000 0.000000
0.000000 1.000000 0.000000
0.081544 1.000000 0.000000
0.247892 1.000000 0.000000
0.420925 1.000000 0.000000
0.596030 0.987868 0.000000
0.773992 0.972563 0.000000
0.954746 0.954746 0.000000
1.000000 0.936653 0.000000
0.000000 1.000000 0.000000
0.000000 1.000000 0.000000
0.033818 1.000000 0.000000
0.206004 1.000000 0.000000
0.377659 1.000000 0.000000
0.555455 1.000000 0.000000
0.735004 1.000000 0.000000
0.917605 1.000000 0.000000
1.000000 1.000000 0.000000
0.000000 0.000000 0.236232
0.096546 0.000000 0.235567
0.239899 0.000000 0.239899
0.389295 0.000000 0.241519
0.546485 0.000000 0.240982
0.705538 0.000000 0.236912
0.874597 0.000000 0.231366
1.000000 0.000000 0.222901
1.000000 0.000000 0.212171
0.000000 0.096663 0.240102
0.093994 0.093994 0.241770
0.240846 0.088741 0.240846
0.393464 0.081046 0.237255
0.552070 0.071523 0.231706
0.715264 0.059352 0.223330
0.884133 0.044770 0.212642
1.000000 0.028012 0.199698
1.000000 0.011934 0.186032
0.000000 0.241094 0.241094
0.081389 0.237598 0.237598
0.231958 0.231958 0.231958
0.387737 0.223759 0.223759
0.548859 0.213114 0.213114
0.715272 0.200212 0.200212
0.881857 0.186987 0.186987
1.000000 0.170267 0.170267
1.000000 0.151495 0.151495
0.000000 0.392364 0.232180
0.060146 0.388150 0.224148
0.213585 0.381458 0.213585
0.372412 0.372412 0.200725
0.534958 0.361240 0.187523
0.703016 0.348234 0.170844
0.876046 0.333095 0.152111
1.000000 0.317496 0.134642
1.000000 0.298768 0.112463
0.000000 0.549802 0.214057
0.029552 0.544613 0.201239
0.188059 0.535494 0.188059
0.348811 0.526201 0.171420
0.514694 0.514694 0.152727
0.683839 0.500985 0.135278
0.858359 0.485748 0.113137
1.000000 0.469397 0.093248
1.000000 0.450671 0.067899
0.000000 0.709747 0.188595
0.000000 0.704169 0.171996
0.153668 0.696030 0.153668
0.318768 0.684475 0.135915
0.486423 0.672728 0.113811
0.658166 0.658166 0.093942
0.834173 0.642787 0.068629
1.000000 0.625674 0.046510
1.000000 0.606904 0.018229
0.000000 0.876057 0.155240
0.000000 0.867965 0.136551
0.114486 0.859708 0.114486
0.282710 0.846935 0.094636
0.452132 0.834904 0.069360
0.626423 0.819477 0.047259
0.803913 0.803913 0.019013
0.983819 0.786026 0.000000
1.000000 0.766667 0.000000
0.000000 1.000000 0.115160
0.000000 1.000000 0.095330
0.070090 1.000000 0.070090
0.241062 1.000000 0.048007
0.412246 1.000000 0.019796
0.588835 0.984263 0.000000
0.766635 0.965525 0.000000
0.947209 0.947209 0.000000
1.000000 0.927873 0.000000
0.000000 1.000000 0.071031
0.000000 1.000000 0.048756
0.020579 1.000000 0.020579
0.194065 1.000000 0.000000
0.369342 1.000000 0.000000
0.544970 1.000000 0.000000
0.725763 1.000000 0.000000
0.908558 1.000000 0.000000
1.000000 1.000000 0.000000
0.000000 0.000000 0.366399
0.098593 0.000000 0.381944
0.243282 0.000000 0.389355
0.394111 0.000000 0.394111
0.550438 0.000000 0.396053
0.712393 0.000000 0.395392
0.879809 0.000000 0.392200
1.000000 0.000000 0.386549
1.000000 0.000000 0.378512
0.000000 0.097441 0.389587
0.094010 0.094010 0.394388
0.241991 0.087606 0.396376
0.395760 0.078758 0.395760
0.555149 0.067540 0.392613
0.719988 0.054023 0.387006
0.890109 0.038279 0.379011
1.000000 0.022611 0.368609
1.000000 0.004068 0.356195
0.000000 0.242314 0.396699
0.079127 0.237628 0.396129
0.230489 0.230489 0.393026
0.387462 0.220971 0.387462
0.549876 0.209144 0.379510
0.713862 0.196607 0.369025
0.883356 0.180155 0.355955
1.000000 0.161810 0.340912
1.000000 0.145946 0.326633
0.000000 0.393438 0.393438
0.054936 0.387918 0.387918
0.209643 0.380009 0.380009
0.368664 0.368664 0.368664
0.531247 0.355710 0.355710
0.699578 0.341430 0.341430
0.869527 0.326916 0.326916
1.000000 0.309111 0.309111
1.000000 0.291529 0.291529
0.000000 0.549347 0.379620
0.024512 0.540189 0.368297
0.180487 0.531328 0.355907
0.342025 0.521099 0.342025
0.508312 0.508312 0.327328
0.678757 0.494261 0.309765
0.851370 0.478759 0.292454
1.000000 0.461566 0.272175
1.000000 0.444256 0.253507
0.000000 0.707303 0.356462
0.000000 0.700729 0.342632
0.146960 0.689911 0.327944
0.310420 0.679412 0.310420
0.479434 0.665739 0.293128
0.651551 0.651551 0.272331
0.826524 0.635548 0.253598
1.000000 0.618236 0.230370
1.000000 0.599726 0.208684
0.000000 0.871511 0.328560
0.000000 0.864563 0.311074
0.107497 0.852719 0.293803
0.272873 0.841905 0.272873
0.444895 0.827297 0.253694
0.618864 0.812921 0.230749
0.796022 0.796022 0.209459
0.976767 0.778377 0.183208
1.000000 0.759191 0.159016
0.000000 1.000000 0.294477
0.000000 1.000000 0.273584
0.062522 1.000000 0.253908
0.230781 1.000000 0.230781
0.405753 0.992320 0.210231
0.581232 0.976958 0.185505
0.760016 0.960075 0.159841
0.941456 0.941456 0.135433
1.000000 0.922366 0.104948
0.000000 1.000000 0.254638
0.000000 1.000000 0.230818
0.014422 1.000000 0.210191
0.187791 1.000000 0.187791
0.360725 1.000000 0.160667
0.539286 1.000000 0.136274
0.719120 1.000000 0.107051
0.902499 1.000000 0.079694
1.000000 1.000000 0.053075
0.000000 0.000000 0.507595
0.097769 0.000000 0.528085
0.243136 0.000000 0.538688
0.394451 0.000000 0.546484
0.551545 0.000000 0.551545
0.714249 0.000000 0.553944
0.882393 0.000000 0.553753
1.000000 0.000000 0.550960
1.000000 0.000000 0.545398
0.000000 0.095611 0.538938
0.090683 0.090683 0.546781
0.239471 0.083262 0.551888
0.394028 0.073419 0.554333
0.554186 0.061226 0.554186
0.718899 0.047961 0.551164
0.886550 0.033033 0.545143
1.000000 0.016193 0.537345
1.000000 0.000000 0.528192
0.000000 0.239814 0.552232
0.073807 0.234112 0.554721
0.225978 0.225978 0.554618
0.383446 0.216193 0.550699
0.544875 0.204677 0.544875
0.711598 0.190446 0.537881
0.883550 0.173987 0.528769
1.000000 0.158160 0.516802
1.000000 0.138113 0.503820
0.000000 0.390731 0.555051
0.049915 0.383449 0.550217
0.205053 0.375126 0.545199
0.364699 0.364699 0.538417
0.529345 0.351954 0.529345
0.696720 0.338078 0.517399
0.870163 0.321603 0.504457
1.000000 0.304328 0.489629
1.000000 0.285107 0.473182
0.000000 0.545698 0.545698
0.017672 0.538946 0.538946
0.175140 0.529921 0.529921
0.338676 0.517997 0.517997
0.505093 0.505093 0.505093
0.675134 0.490401 0.490401
0.850025 0.473876 0.473876
1.000000 0.456514 0.456514
1.000000 0.436091 0.436091
0.000000 0.707888 0.530497
0.000000 0.697915 0.518594
0.140022 0.688583 0.505729
0.306385 0.675750 0.491067
0.474570 0.662644 0.474570
0.646472 0.646472 0.456862
0.821282 0.628773 0.436265
0.998243 0.610378 0.416445
1.000000 0.590670 0.393627
0.000000 0.872073 0.506366
0.000000 0.861090 0.491724
0.099032 0.850911 0.474971
0.267573 0.835613 0.456920
0.436562 0.821171 0.436562
0.611136 0.805069 0.417203
0.788505 0.788505 0.394419
0.968590 0.770019 0.372877
1.000000 0.750618 0.350371
0.000000 1.000000 0.474930
0.000000 1.000000 0.456972
0.052693 1.000000 0.437303
0.224028 0.999760 0.417961
0.395211 0.986341 0.395211
0.572257 0.969399 0.373687
0.751460 0.951518 0.351343
0.933409 0.933409 0.324507
1.000000 0.913320 0.300256
0.000000 1.000000 0.438043
0.000000 1.000000 0.418719
0.001918 1.000000 0.396004
0.175925 1.000000 0.374496
0.352169 1.000000 0.352169
0.528332 1.000000 0.325364
0.709838 1.000000 0.301129
0.893299 1.000000 0.276195
1.000000 1.000000 0.245807
0.000000 0.000000 0.657868
0.097497 0.000000 0.673350
0.245408 0.000000 0.696577
0.397161 0.000000 0.706055
0.553299 0.000000 0.711268
0.719097 0.000000 0.719097
0.881308 0.000000 0.716444
1.000000 0.000000 0.713945
1.000000 0.000000 0.712238
0.000000 0.095022 0.695320
0.087828 0.087828 0.704564
0.236875 0.079215 0.709857
0.393571 0.069291 0.717851
0.549623 0.057675 0.713606
0.714417 0.042926 0.714417
0.884438 0.026004 0.712751
1.000000 0.006982 0.708664
1.000000 0.000000 0.699936
0.000000 0.236871 0.708242
0.069091 0.230968 0.716599
0.222083 0.222083 0.714017
0.379143 0.211270 0.714888
0.541578 0.198204 0.713265
0.709219 0.182957 0.709219
0.877578 0.168014 0.700187
1.000000 0.149088 0.692039
1.000000 0.128734 0.681410
0.000000 0.386490 0.714446
0.043869 0.379615 0.715360
0.198718 0.370405 0.713778
0.358955 0.358955 0.709430
0.523372 0.345982 0.700763
0.692655 0.330687 0.692655
0.865145 0.314197 0.681496
1.000000 0.296132 0.668743
1.000000 0.275331 0.654685
0.000000 0.542605 0.714292
0.010296 0.534216 0.708857
0.169167 0.523949 0.701339
0.331303 0.512287 0.693270
0.498496 0.498496 0.681569
0.669418 0.483112 0.669418
0.845074 0.465719 0.655397
1.000000 0.447816 0.639202
1.000000 0.428465 0.621920
0.000000 0.701916 0.701916
0.000000 0.693886 0.693886
0.133427 0.681988 0.681988
0.297481 0.670092 0.670092
0.466578 0.656006 0.656006
0.639933 0.639933 0.639933
0.815802 0.622748 0.622748
0.996292 0.603842 0.603842
1.000000 0.584302 0.584302
0.000000 0.865477 0.682624
0.000000 0.857072 0.670766
0.089882 0.845345 0.656479
0.257891 0.832049 0.640663
0.430442 0.816551 0.623496
0.604625 0.800850 0.604625
0.782896 0.782896 0.585103
0.964709 0.763998 0.563288
1.000000 0.743690 0.541400
0.000000 1.000000 0.656940
0.000000 1.000000 0.641393
0.045081 1.000000 0.624245
0.212958 0.997859 0.605409
0.388110 0.981490 0.585903
0.564243 0.965277 0.564243
0.744541 0.946831 0.542250
0.926827 0.926827 0.519605
1.000000 0.904301 0.494474
0.000000 1.000000 0.624993
0.000000 1.000000 0.606192
0.000000 1.000000 0.586704
0.165645 1.000000 0.565625
0.340794 1.000000 0.543067
0.520050 1.000000 0.520050
0.700741 1.000000 0.496332
0.883764 1.000000 0.469518
1.000000 1.000000 0.444986
0.000000 0.000000 0.806253
0.096771 0.000000 0.826330
0.242839 0.000000 0.843594
0.395879 0.000000 0.861192
0.552452 0.000000 0.869454
0.718031 0.000000 0.881380
0.884239 0.000000 0.884239
1.000000 0.000000 0.887659
1.000000 0.000000 0.888488
0.000000 0.092927 0.843871
0.086304 0.086304 0.858629
0.235819 0.077318 0.869822
0.391173 0.065725 0.879344
0.551713 0.052239 0.884696
0.717792 0.036329 0.888158
0.889068 0.018268 0.889068
1.000000 0.001461 0.883720
1.000000 0.000000 0.878873
0.000000 0.236187 0.870191
0.066339 0.228875 0.879021
0.219186 0.219186 0.885152
0.377559 0.207194 0.888657
0.541288 0.192969 0.889608
0.707224 0.178713 0.883395
0.879721 0.161246 0.879721
1.000000 0.142343 0.873165
1.000000 0.123528 0.860666
0.000000 0.386134 0.885608
0.037327 0.378059 0.889156
0.193516 0.367669 0.890126
0.355446 0.355446 0.883958
0.520983 0.341188 0.880573
0.689260 0.325528 0.871127
0.859972 0.307908 0.859972
1.000000 0.288221 0.850195
1.000000 0.269573 0.836734
0.000000 0.541716 0.888812
0.003668 0.532179 0.884520
0.161541 0.520748 0.879955
0.325988 0.507016 0.869071
0.492162 0.492162 0.860290
0.663556 0.476231 0.850881
0.837439 0.459331 0.837439
1.000000 0.439860 0.824469
1.000000 0.420581 0.808446
0.000000 0.699706 0.879047
0.000000 0.687419 0.867939
0.124082 0.676866 0.861127
0.289638 0.664182 0.851454
0.460036 0.649089 0.838143
0.632905 0.632905 0.825210
0.809205 0.615272 0.809205
0.987885 0.596630 0.792257
1.000000 0.575862 0.774433
0.000000 0.861968 0.861968
0.000000 0.851385 0.851385
0.082633 0.838848 0.838848
0.250100 0.825411 0.825411
0.422097 0.809963 0.809963
0.597469 0.792990 0.792990
0.775243 0.775243 0.775243
0.956022 0.755963 0.755963
1.000000 0.735601 0.735601
0.000000 1.000000 0.839615
0.000000 1.000000 0.825587
0.034989 1.000000 0.810721
0.207203 0.989287 0.793766
0.378910 0.974623 0.776052
0.556731 0.956847 0.756789
0.736660 0.938166 0.736660
0.918954 0.918954 0.714599
1.000000 0.898141 0.692440
0.000000 1.000000 0.811480
0.000000 1.000000 0.794542
0.000000 1.000000 0.776861
0.157439 1.000000 0.757615
0.334490 1.000000 0.737502
0.511118 1.000000 0.715472
0.693327 1.000000 0.693327
0.877444 1.000000 0.670436
1.000000 1.000000 0.629146
0.000000 0.000000 0.957609
0.094381 0.000000 0.981036
0.241256 0.000000 1.000000
0.393994 0.000000 1.000000
0.552351 0.000000 1.000000
0.715927 0.000000 1.000000
0.884862 0.000000 1.000000
1.000000 0.000000 1.000000
1.000000 0.000000 1.000000
0.000000 0.089521 1.000000
0.081920 0.081920 1.000000
0.232302 0.072060 1.000000
0.388341 0.060206 1.000000
0.549588 0.045970 1.000000
0.716066 0.029319 1.000000
0.882685 0.014098 1.000000
1.000000 0.000000 1.000000
1.000000 0.000000 1.000000
0.000000 0.232594 1.000000
0.060319 0.224506 1.000000
0.214314 0.214314 1.000000
0.373206 0.201519 1.000000
0.535786 0.188351 1.000000
0.703907 0.171734 1.000000
0.876997 0.153063 1.000000
1.000000 0.135626 1.000000
1.000000 0.113505 1.000000
0.000000 0.382658 1.000000
0.030346 0.373719 1.000000
0.188887 0.362605 1.000000
0.349701 0.349701 1.000000
0.515466 0.334996 1.000000
0.684822 0.319115 1.000000
0.859401 0.300485 1.000000
1.000000 0.282395 1.000000
1.000000 0.260414 1.000000
0.000000 0.536858 1.000000
0.000000 0.527668 1.000000
0.156093 0.515865 1.000000
0.319752 0.502605 1.000000
0.487465 0.487465 1.000000
0.659238 0.471164 1.000000
0.835302 0.452530 1.000000
1.000000 0.433776 1.000000
1.000000 0.411890 1.000000
0.000000 0.695579 1.000000
0.000000 0.686095 1.000000
0.115528 0.674445 1.000000
0.283783 0.659932 1.000000
0.453260 0.644646 1.000000
0.627580 0.627580 1.000000
0.805124 0.608899 1.000000
0.984050 0.588908 0.984050
1.000000 0.567868 0.965361
0.000000 0.860554 1.000000
0.000000 0.848701 1.000000
0.072279 0.836312 1.000000
0.242219 0.821383 1.000000
0.413596 0.805232 1.000000
0.589038 0.786346 0.983653
0.766855 0.766855 0.965426
0.948510 0.746970 0.948510
1.000000 0.726231 0.929199
0.000000 1.000000 1.000000
0.000000 1.000000 1.000000
0.024611 0.999684 0.999684
0.195072 0.983251 0.983251
0.370523 0.966236 0.966236
0.546271 0.949352 0.949352
0.727089 0.930056 0.930056
0.909907 0.909907 0.909907
1.000000 0.888777 0.888777
0.000000 1.000000 0.998299
0.000000 1.000000 0.984035
0.000000 1.000000 0.967045
0.145424 1.000000 0.949885
0.322012 1.000000 0.930914
0.502071 1.000000 0.910780
0.683622 1.000000 0.889757
0.867448 1.000000 0.867448
1.000000 1.000000 0.814246
0.000000 0.000000 1.000000
0.094234 0.000000 1.000000
0.242490 0.000000 1.000000
0.396330 0.000000 1.000000
0.555787 0.000000 1.000000
0.720694 0.000000 1.000000
0.890880 0.000000 1.000000
1.000000 0.000000 1.000000
1.000000 0.000000 1.000000
0.000000 0.088299 1.000000
0.079696 0.079696 1.000000
0.231127 0.068591 1.000000
0.388167 0.055185 1.000000
0.550071 0.039698 1.000000
0.712488 0.024440 1.000000
0.881917 0.004814 1.000000
1.000000 0.000000 1.000000
1.000000 0.000000 1.000000
0.000000 0.231540 1.000000
0.055641 0.222132 1.000000
0.209973 0.209973 1.000000
0.368094 0.196345 1.000000
0.531630 0.180789 1.000000
0.700497 0.163276 1.000000
0.870615 0.146680 1.000000
1.000000 0.125626 1.000000
1.000000 0.106516 1.000000
0.000000 0.378479 1.000000
0.025024 0.368397 1.000000
0.181344 0.356764 1.000000
0.343106 0.343106 1.000000
0.509264 0.328280 1.000000
0.679769 0.310777 1.000000
0.852413 0.293496 1.000000
1.000000 0.272550 1.000000
1.000000 0.253650 1.000000
0.000000 0.532739 1.000000
0.000000 0.522102 1.000000
0.147912 0.509879 1.000000
0.311431 0.495927 1.000000
0.480476 0.480476 1.000000
0.652615 0.462938 1.000000
0.827721 0.445072 1.000000
1.000000 0.424954 1.000000
1.000000 0.405403 1.000000
0.000000 0.691479 1.000000
0.000000 0.681078 1.000000
0.108539 0.667456 1.000000
0.273972 0.653327 1.000000
0.445692 0.637078 1.000000
0.619657 0.619657 1.000000
0.797179 0.601522 1.000000
0.977057 0.581905 1.000000
1.000000 0.560408 1.000000
0.000000 0.854436 1.000000
0.000000 0.843716 1.000000
0.063650 0.829194 1.000000
0.231252 0.814754 1.000000
0.406075 0.797883 1.000000
0.583100 0.780179 1.000000
0.761292 0.761292 1.000000
0.942756 0.741250 1.000000
1.000000 0.719788 1.000000
0.000000 1.000000 1.000000
0.000000 1.000000 1.000000
0.013989 0.994743 1.000000
0.188831 0.978160 1.000000
0.362001 0.962177 1.000000
0.540084 0.943570 1.000000
0.721005 0.924247 1.000000
0.903147 0.903147 1.000000
1.000000 0.880795 1.000000
0.000000 1.000000 1.000000
0.000000 1.000000 1.000000
0.000000 1.000000 1.000000
0.136313 1.000000 1.000000
0.315931 1.000000 1.000000
0.491469 1.000000 1.000000
0.674689 1.000000 1.000000
0.854526 1.000000 1.000000
1.000000 1.000000 1.000000
