packages/app/public/luts/Ricoh_GR2_VIVID_33_Rec709.cube
TITLE "Ricoh_GR2_VIVID_33_Rec709"
DOMAIN_MIN 0.000000 0.000000 0.000000
DOMAIN_MAX 1.000000 1.000000 1.000000
LUT_3D_SIZE 5
0.000000 0.000000 0.000000
0.238315 0.000000 0.000000
0.545465 0.000000 0.000000
0.872335 0.000000 0.000000
1.000000 0.000000 0.000000
0.000000 0.245255 0.000000
0.237677 0.237677 0.000000
0.552640 0.221950 0.000000
0.883644 0.196897 0.000000
1.000000 0.164908 0.000000
0.000000 0.549805 0.000000
0.197924 0.541298 0.000000
0.522482 0.522482 0.000000
0.865812 0.496820 0.000000
1.000000 0.463908 0.000000
0.000000 0.878416 0.000000
0.131369 0.864918 0.000000
0.465331 0.844686 0.000000
0.815202 0.815202 0.000000
1.000000 0.781065 0.000000
0.000000 1.000000 0.000000
0.043924 1.000000 0.000000
0.386873 1.000000 0.000000
0.743227 1.000000 0.000000
1.000000 1.000000 0.000000
0.000000 0.000000 0.236232
0.239899 0.000000 0.239899
0.546485 0.000000 0.240982
0.874597 0.000000 0.231366
1.000000 0.000000 0.212171
0.000000 0.241094 0.241094
0.231958 0.231958 0.231958
0.548859 0.213114 0.213114
0.881857 0.186987 0.186987
1.000000 0.151495 0.151495
0.000000 0.549802 0.214057
0.188059 0.535494 0.188059
0.514694 0.514694 0.152727
0.858359 0.485748 0.113137
1.000000 0.450671 0.067899
0.000000 0.876057 0.155240
0.114486 0.859708 0.114486
0.452132 0.834904 0.069360
0.803913 0.803913 0.019013
1.000000 0.766667 0.000000
0.000000 1.000000 0.071031
0.020579 1.000000 0.020579
0.369342 1.000000 0.000000
0.725763 1.000000 0.000000
1.000000 1.000000 0.000000
0.000000 0.000000 0.507595
0.243136 0.000000 0.538688
0.551545 0.000000 0.551545
0.882393 0.000000 0.553753
1.000000 0.000000 0.545398
0.000000 0.239814 0.552232
0.225978 0.225978 0.554618
0.544875 0.204677 0.544875
0.883550 0.173987 0.528769
1.000000 0.138113 0.503820
0.000000 0.545698 0.545698
0.175140 0.529921 0.529921
0.505093 0.505093 0.505093
0.850025 0.473876 0.473876
1.000000 0.436091 0.436091
0.000000 0.872073 0.506366
0.099032 0.850911 0.474971
0.436562 0.821171 0.436562
0.788505 0.788505 0.394419
1.000000 0.750618 0.350371
0.000000 1.000000 0.438043
0.001918 1.000000 0.396004
0.352169 1.000000 0.352169
0.709838 1.000000 0.301129
1.000000 1.000000 0.245807
0.000000 0.000000 0.806253
0.242839 0.000000 0.843594
0.552452 0.000000 0.869454
0.884239 0.000000 0.884239
1.000000 0.000000 0.888488
0.000000 0.236187 0.870191
0.219186 0.219186 0.885152
0.541288 0.192969 0.889608
0.879721 0.161246 0.879721
1.000000 0.123528 0.860666
0.000000 0.541716 0.888812
0.161541 0.520748 0.879955
0.492162 0.492162 0.860290
0.837439 0.459331 0.837439
1.000000 0.420581 0.808446
0.000000 0.861968 0.861968
0.082633 0.838848 0.838848
0.422097 0.809963 0.809963
0.775243 0.775243 0.775243
1.000000 0.735601 0.735601
0.000000 1.000000 0.811480
0.000000 1.000000 0.776861
0.334490 1.000000 0.737502
0.693327 1.000000 0.693327
1.000000 1.000000 0.629146
0.000000 0.000000 1.000000
0.242490 0.000000 1.000000
0.555787 0.000000 1.000000
0.890880 0.000000 1.000000
1.000000 0.000000 1.000000
0.000000 0.231540 1.000000
0.209973 0.209973 1.000000
0.531630 0.180789 1.000000
0.870615 0.146680 1.000000
1.000000 0.106516 1.000000
0.000000 0.532739 1.000000
0.147912 0.509879 1.000000
0.480476 0.480476 1.000000
0.827721 0.445072 1.000000
1.000000 0.405403 1.000000
0.000000 0.854436 1.000000
0.063650 0.829194 1.000000
0.406075 0.797883 1.000000
0.761292 0.761292 1.000000
1.000000 0.719788 1.000000
0.000000 1.000000 1.000000
0.000000 1.000000 1.000000
0.315931 1.000000 1.000000
0.674689 1.000000 1.000000
1.000000 1.000000 1.000000
