packages/app/public/luts/Ricoh_GR2_VIVID_33_Rec709.cube
TITLE "Ricoh_GR2_VIVID_33_Rec709"
DOMAIN_MIN 0.000000 0.000000 0.000000
DOMAIN_MAX 1.000000 1.000000 1.000000
LUT_3D_SIZE 33
0.000000 0.000000 0.000000
0.022904 0.000000 0.000000
0.046490 0.000000 0.000000
0.069922 0.000000 0.000000
0.096295 0.000000 0.000000
0.131045 0.000000 0.000000
0.164708 0.000000 0.000000
0.200864 0.000000 0.000000
0.238315 0.000000 0.000000
0.275158 0.000000 0.000000
0.312463 0.000000 0.000000
0.347547 0.000000 0.000000
0.388573 0.000000 0.000000
0.425305 0.000000 0.000000
0.464971 0.000000 0.000000
0.500212 0.000000 0.000000
0.545465 0.000000 0.000000
0.581047 0.000000 0.000000
0.622703 0.000000 0.000000
0.660398 0.000000 0.000000
0.706217 0.000000 0.000000
0.742732 0.000000 0.000000
0.786092 0.000000 0.000000
0.822812 0.000000 0.000000
0.872335 0.000000 0.000000
0.909456 0.000000 0.000000
0.954970 0.000000 0.000000
0.994307 0.000000 0.000000
1.000000 0.000000 0.000000
1.000000 0.000000 0.000000
1.000000 0.000000 0.000000
1.000000 0.000000 0.000000
1.000000 0.000000 0.000000
0.000000 0.013695 0.000000
0.003784 0.003784 0.000000
0.028687 0.000000 0.000000
0.062484 0.000000 0.000000
0.096117 0.000000 0.000000
0.131392 0.000000 0.000000
0.168296 0.000000 0.000000
0.204366 0.000000 0.000000
0.240734 0.000000 0.000000
0.275878 0.000000 0.000000
0.315696 0.000000 0.000000
0.352388 0.000000 0.000000
0.391145 0.000000 0.000000
0.426387 0.000000 0.000000
0.470352 0.000000 0.000000
0.506022 0.000000 0.000000
0.546761 0.000000 0.000000
0.583735 0.000000 0.000000
0.629086 0.000000 0.000000
0.665374 0.000000 0.000000
0.708074 0.000000 0.000000
0.744793 0.000000 0.000000
0.793177 0.000000 0.000000
0.830298 0.000000 0.000000
0.874915 0.000000 0.000000
0.913431 0.000000 0.000000
0.962794 0.000000 0.000000
1.000000 0.000000 0.000000
1.000000 0.000000 0.000000
1.000000 0.000000 0.000000
1.000000 0.000000 0.000000
1.000000 0.000000 0.000000
1.000000 0.000000 0.000000
0.000000 0.028715 0.000000
0.000000 0.028263 0.000000
0.027520 0.027520 0.000000
0.061920 0.027165 0.000000
0.098451 0.028565 0.000000
0.133574 0.027318 0.000000
0.169169 0.026388 0.000000
0.204210 0.024911 0.000000
0.242984 0.025523 0.000000
0.279458 0.024055 0.000000
0.317320 0.021768 0.000000
0.352562 0.020066 0.000000
0.395226 0.019252 0.000000
0.430997 0.017978 0.000000
0.470819 0.014721 0.000000
0.507233 0.012557 0.000000
0.551934 0.011145 0.000000
0.588263 0.009319 0.000000
0.630055 0.005220 0.000000
0.666775 0.002887 0.000000
0.714018 0.000764 0.000000
0.751139 0.000000 0.000000
0.794860 0.000000 0.000000
0.832709 0.000000 0.000000
0.881629 0.000000 0.000000
0.919458 0.000000 0.000000
0.965064 0.000000 0.000000
1.000000 0.000000 0.000000
1.000000 0.000000 0.000000
1.000000 0.000000 0.000000
1.000000 0.000000 0.000000
1.000000 0.000000 0.000000
1.000000 0.000000 0.000000
0.000000 0.061811 0.000000
0.000000 0.061959 0.000000
0.028606 0.063549 0.000000
0.062782 0.062782 0.000000
0.097769 0.062115 0.000000
0.132541 0.060822 0.000000
0.170435 0.061829 0.000000
0.206513 0.060555 0.000000
0.243495 0.058775 0.000000
0.278736 0.057073 0.000000
0.320101 0.056919 0.000000
0.355972 0.055594 0.000000
0.394877 0.052804 0.000000
0.430891 0.050775 0.000000
0.474761 0.049797 0.000000
0.511151 0.047996 0.000000
0.552037 0.044358 0.000000
0.588756 0.042025 0.000000
0.634499 0.040343 0.000000
0.671981 0.037977 0.000000
0.714805 0.033510 0.000000
0.752144 0.031579 0.000000
0.800464 0.028417 0.000000
0.838293 0.025611 0.000000
0.883012 0.020333 0.000000
0.920276 0.018397 0.000000
0.971161 0.014095 0.000000
1.000000 0.010969 0.000000
1.000000 0.006502 0.000000
1.000000 0.002844 0.000000
1.000000 0.000000 0.000000
1.000000 0.000000 0.000000
1.000000 0.000000 0.000000
0.000000 0.098532 0.000000
0.000000 0.098247 0.000000
0.026533 0.097759 0.000000
0.060873 0.096732 0.000000
0.098052 0.098052 0.000000
0.133555 0.097061 0.000000
0.169670 0.095782 0.000000
0.204911 0.094079 0.000000
0.244976 0.094586 0.000000
0.280946 0.093211 0.000000
0.318935 0.090886 0.000000
0.354922 0.088865 0.000000
0.397567 0.088460 0.000000
0.434039 0.086673 0.000000
0.474018 0.083496 0.000000
0.510737 0.081163 0.000000
0.555004 0.079877 0.000000
0.592823 0.077695 0.000000
0.634750 0.073684 0.000000
0.671836 0.071804 0.000000
0.719299 0.069154 0.000000
0.757128 0.066348 0.000000
0.800961 0.061521 0.000000
0.838394 0.059498 0.000000
0.887019 0.055889 0.000000
0.926785 0.052705 0.000000
0.969367 0.048628 0.000000
1.000000 0.044930 0.000000
1.000000 0.041090 0.000000
1.000000 0.036839 0.000000
1.000000 0.034087 0.000000
1.000000 0.028187 0.000000
1.000000 0.024697 0.000000
0.000000 0.133319 0.000000
0.000000 0.132643 0.000000
0.025832 0.134190 0.000000
0.060582 0.133575 0.000000
0.095835 0.132741 0.000000
0.131086 0.131086 0.000000
0.169851 0.132254 0.000000
0.205921 0.130827 0.000000
0.242993 0.128969 0.000000
0.278980 0.126948 0.000000
0.320352 0.127134 0.000000
0.356927 0.125350 0.000000
0.395999 0.122634 0.000000
0.432719 0.120301 0.000000
0.475574 0.119376 0.000000
0.513664 0.117412 0.000000
0.554694 0.113857 0.000000
0.591946 0.111841 0.000000
0.638134 0.109891 0.000000
0.675963 0.107085 0.000000
0.718909 0.102709 0.000000
0.756512 0.100600 0.000000
0.803095 0.097571 0.000000
0.843654 0.094442 0.000000
0.885305 0.090694 0.000000
0.926380 0.087016 0.000000
0.969267 0.083520 0.000000
1.000000 0.079555 0.000000
1.000000 0.077008 0.000000
1.000000 0.071237 0.000000
1.000000 0.067747 0.000000
1.000000 0.062496 0.000000
1.000000 0.060121 0.000000
0.000000 0.170246 0.000000
0.000000 0.170096 0.000000
0.022156 0.169617 0.000000
0.057260 0.168092 0.000000
0.094726 0.169921 0.000000
0.130896 0.168444 0.000000
0.167051 0.167051 0.000000
0.203038 0.165030 0.000000
0.243116 0.165818 0.000000
0.279816 0.164027 0.000000
0.317981 0.161772 0.000000
0.354700 0.159439 0.000000
0.396209 0.158843 0.000000
0.434506 0.157129 0.000000
0.474639 0.154030 0.000000
0.512030 0.151892 0.000000
0.556970 0.150629 0.000000
0.594798 0.147823 0.000000
0.636857 0.143897 0.000000
0.674630 0.141702 0.000000
0.719391 0.139142 0.000000
0.760522 0.136179 0.000000
0.801361 0.132699 0.000000
0.842561 0.129103 0.000000
0.884067 0.125839 0.000000
0.931510 0.122271 0.000000
0.969799 0.119851 0.000000
1.000000 0.114287 0.000000
1.000000 0.110797 0.000000
1.000000 0.106171 0.000000
1.000000 0.103685 0.000000
1.000000 0.100043 0.000000
1.000000 0.093558 0.000000
0.000000 0.206411 0.000000
0.000000 0.205099 0.000000
0.019601 0.207588 0.000000
0.055871 0.206060 0.000000
0.091109 0.205134 0.000000
0.127097 0.203113 0.000000
0.165858 0.204513 0.000000
0.202704 0.202704 0.000000
0.239962 0.200910 0.000000
0.276682 0.198577 0.000000
0.316910 0.198276 0.000000
0.355348 0.196847 0.000000
0.394584 0.194203 0.000000
0.432088 0.191956 0.000000
0.475805 0.191366 0.000000
0.513633 0.188560 0.000000
0.554805 0.185085 0.000000
0.592748 0.182803 0.000000
0.635906 0.180602 0.000000
0.677390 0.177916 0.000000
0.717537 0.174644 0.000000
0.758743 0.171189 0.000000
0.799085 0.168048 0.000000
0.846451 0.164988 0.000000
0.884902 0.162432 0.000000
0.929927 0.157337 0.000000
0.969359 0.153847 0.000000
1.000000 0.149846 0.000000
1.000000 0.147248 0.000000
1.000000 0.143606 0.000000
1.000000 0.137552 0.000000
1.000000 0.135105 0.000000
1.000000 0.129888 0.000000
0.000000 0.245255 0.000000
0.000000 0.243676 0.000000
0.015167 0.243216 0.000000
0.051155 0.241195 0.000000
0.088504 0.243095 0.000000
0.125592 0.241381 0.000000
0.161944 0.240048 0.000000
0.198663 0.237715 0.000000
0.237677 0.237677 0.000000
0.276189 0.236564 0.000000
0.314529 0.234376 0.000000
0.352119 0.232033 0.000000
0.394640 0.232103 0.000000
0.432468 0.229297 0.000000
0.472753 0.226273 0.000000
0.510867 0.223905 0.000000
0.552640 0.221950 0.000000
0.594259 0.219653 0.000000
0.633834 0.216527 0.000000
0.674924 0.213275 0.000000
0.714320 0.210146 0.000000
0.761393 0.207704 0.000000
0.800082 0.204984 0.000000
0.844212 0.200387 0.000000
0.883644 0.196897 0.000000
0.933631 0.193542 0.000000
0.972540 0.190811 0.000000
1.000000 0.187170 0.000000
1.000000 0.181545 0.000000
1.000000 0.179288 0.000000
1.000000 0.174380 0.000000
1.000000 0.170464 0.000000
1.000000 0.164908 0.000000
0.000000 0.281298 0.000000
0.000000 0.279278 0.000000
0.011133 0.281552 0.000000
0.048481 0.280058 0.000000
0.083925 0.279186 0.000000
0.120644 0.276853 0.000000
0.158508 0.277044 0.000000
0.197031 0.276281 0.000000
0.234474 0.274550 0.000000
0.272124 0.272124 0.000000
0.313263 0.272643 0.000000
0.351303 0.270035 0.000000
0.390701 0.267461 0.000000
0.428985 0.265007 0.000000
0.469593 0.263187 0.000000
0.511127 0.261390 0.000000
0.550250 0.258349 0.000000
0.591106 0.255361 0.000000
0.629869 0.252156 0.000000
0.676335 0.250420 0.000000
0.715228 0.247554 0.000000
0.758497 0.243437 0.000000
0.797929 0.239947 0.000000
0.846272 0.237315 0.000000
0.885815 0.234375 0.000000
0.925603 0.230733 0.000000
0.971076 0.225539 0.000000
1.000000 0.223472 0.000000
1.000000 0.218872 0.000000
1.000000 0.214955 0.000000
1.000000 0.209862 0.000000
1.000000 0.206382 0.000000
1.000000 0.203547 0.000000
0.000000 0.319975 0.000000
0.000000 0.318735 0.000000
0.005907 0.318324 0.000000
0.042626 0.315991 0.000000
0.079405 0.316377 0.000000
0.117873 0.315999 0.000000
0.154418 0.314723 0.000000
0.192102 0.312228 0.000000
0.231909 0.313117 0.000000
0.270138 0.310772 0.000000
0.308650 0.308650 0.000000
0.347099 0.306103 0.000000
0.386765 0.304313 0.000000
0.427996 0.303127 0.000000
0.466788 0.300109 0.000000
0.507287 0.297447 0.000000
0.546051 0.294242 0.000000
0.591277 0.293136 0.000000
0.630338 0.290141 0.000000
0.672782 0.286487 0.000000
0.712214 0.282997 0.000000
0.759063 0.281013 0.000000
0.799090 0.277938 0.000000
0.838878 0.274296 0.000000
0.883505 0.269533 0.000000
0.928294 0.267655 0.000000
0.972927 0.263363 0.000000
1.000000 0.259447 0.000000
1.000000 0.254741 0.000000
1.000000 0.251335 0.000000
1.000000 0.248526 0.000000
1.000000 0.242505 0.000000
1.000000 0.238320 0.000000
0.000000 0.357462 0.000000
0.000000 0.355129 0.000000
0.000368 0.355678 0.000000
0.038714 0.355716 0.000000
0.074385 0.354871 0.000000
0.112055 0.352345 0.000000
0.150621 0.353557 0.000000
0.188973 0.351509 0.000000
0.226598 0.349838 0.000000
0.265172 0.347178 0.000000
0.304156 0.345327 0.000000
0.344864 0.344864 0.000000
0.383447 0.341808 0.000000
0.423469 0.339533 0.000000
0.462233 0.336328 0.000000
0.506219 0.335853 0.000000
0.545414 0.332747 0.000000
0.587067 0.329537 0.000000
0.626499 0.326047 0.000000
0.672005 0.324634 0.000000
0.712366 0.321501 0.000000
0.752153 0.317860 0.000000
0.795933 0.313527 0.000000
0.840350 0.311838 0.000000
0.884375 0.307855 0.000000
0.924807 0.303939 0.000000
0.967306 0.299545 0.000000
1.000000 0.296255 0.000000
1.000000 0.293506 0.000000
1.000000 0.287905 0.000000
1.000000 0.283720 0.000000
1.000000 0.280581 0.000000
1.000000 0.276165 0.000000
0.000000 0.394945 0.000000
0.000000 0.395433 0.000000
0.000000 0.394849 0.000000
0.031981 0.392476 0.000000
0.069398 0.393965 0.000000
0.107808 0.392247 0.000000
0.144546 0.391026 0.000000
0.183216 0.388269 0.000000
0.221766 0.386230 0.000000
0.261733 0.386601 0.000000
0.300254 0.383500 0.000000
0.339651 0.381619 0.000000
0.378414 0.378414 0.000000
0.421160 0.378569 0.000000
0.460454 0.375370 0.000000
0.501352 0.372587 0.000000
0.540784 0.369097 0.000000
0.585097 0.368179 0.000000
0.625641 0.365065 0.000000
0.665429 0.361423 0.000000
0.708362 0.357521 0.000000
0.752405 0.356022 0.000000
0.795824 0.352347 0.000000
0.836255 0.348431 0.000000
0.878041 0.344275 0.000000
0.924834 0.341142 0.000000
0.966109 0.338486 0.000000
1.000000 0.333304 0.000000
1.000000 0.329120 0.000000
1.000000 0.325998 0.000000
1.000000 0.322037 0.000000
1.000000 0.317712 0.000000
1.000000 0.311669 0.000000
0.000000 0.434748 0.000000
0.000000 0.432620 0.000000
0.000000 0.434339 0.000000
0.026643 0.432984 0.000000
0.062494 0.432214 0.000000
0.101230 0.429375 0.000000
0.139596 0.427021 0.000000
0.178601 0.428338 0.000000
0.217122 0.425237 0.000000
0.255832 0.423705 0.000000
0.294596 0.420500 0.000000
0.336102 0.421285 0.000000
0.375460 0.418011 0.000000
0.415637 0.415637 0.000000
0.455069 0.412148 0.000000
0.498339 0.411647 0.000000
0.538911 0.408601 0.000000
0.578704 0.404986 0.000000
0.620790 0.401514 0.000000
0.664461 0.400205 0.000000
0.707273 0.396839 0.000000
0.747704 0.392923 0.000000
0.788923 0.388930 0.000000
0.834825 0.385996 0.000000
0.876598 0.383465 0.000000
0.921655 0.378704 0.000000
0.962717 0.374520 0.000000
1.000000 0.371310 0.000000
1.000000 0.367909 0.000000
1.000000 0.363585 0.000000
1.000000 0.357957 0.000000
1.000000 0.354194 0.000000
1.000000 0.351771 0.000000
0.000000 0.474680 0.000000
0.000000 0.473721 0.000000
0.000000 0.473402 0.000000
0.019214 0.470496 0.000000
0.057644 0.467701 0.000000
0.095469 0.470075 0.000000
0.133991 0.466973 0.000000
0.172014 0.465791 0.000000
0.210777 0.462586 0.000000
0.251044 0.464001 0.000000
0.290430 0.460670 0.000000
0.329922 0.458688 0.000000
0.369354 0.455198 0.000000
0.411731 0.455039 0.000000
0.452146 0.452146 0.000000
0.491979 0.448550 0.000000
0.533218 0.445508 0.000000
0.576492 0.444368 0.000000
0.618721 0.441331 0.000000
0.659153 0.437414 0.000000
0.699951 0.433511 0.000000
0.744881 0.430816 0.000000
0.787087 0.428445 0.000000
0.831318 0.424104 0.000000
0.872379 0.419919 0.000000
0.913136 0.416516 0.000000
0.962342 0.413782 0.000000
1.000000 0.409457 0.000000
1.000000 0.404244 0.000000
1.000000 0.400309 0.000000
1.000000 0.398189 0.000000
1.000000 0.392488 0.000000
1.000000 0.387906 0.000000
0.000000 0.514590 0.000000
0.000000 0.511632 0.000000
0.000000 0.508703 0.000000
0.012338 0.511812 0.000000
0.050859 0.508710 0.000000
0.088195 0.507877 0.000000
0.126959 0.504672 0.000000
0.165986 0.506718 0.000000
0.205365 0.503346 0.000000
0.244207 0.501738 0.000000
0.283639 0.498248 0.000000
0.325273 0.498355 0.000000
0.365342 0.495711 0.000000
0.405254 0.492113 0.000000
0.445647 0.489502 0.000000
0.488301 0.488301 0.000000
0.530170 0.485822 0.000000
0.570602 0.481906 0.000000
0.611127 0.478017 0.000000
0.655003 0.475603 0.000000
0.697576 0.473424 0.000000
0.740980 0.469504 0.000000
0.782041 0.465319 0.000000
0.822632 0.461675 0.000000
0.871075 0.459654 0.000000
0.912463 0.455330 0.000000
0.957896 0.450532 0.000000
0.999099 0.446449 0.000000
1.000000 0.444524 0.000000
1.000000 0.439233 0.000000
1.000000 0.434651 0.000000
1.000000 0.429930 0.000000
1.000000 0.427157 0.000000
0.000000 0.549805 0.000000
0.000000 0.553549 0.000000
0.000000 0.550447 0.000000
0.004377 0.549963 0.000000
0.043140 0.546758 0.000000
0.080928 0.549434 0.000000
0.120265 0.546041 0.000000
0.158492 0.544788 0.000000
0.197924 0.541298 0.000000
0.238966 0.541594 0.000000
0.278499 0.539295 0.000000
0.318530 0.535676 0.000000
0.358075 0.533496 0.000000
0.400176 0.532201 0.000000
0.441619 0.530314 0.000000
0.482050 0.526398 0.000000
0.522482 0.522482 0.000000
0.565191 0.520357 0.000000
0.608064 0.518404 0.000000
0.650642 0.514904 0.000000
0.691703 0.510719 0.000000
0.732565 0.506909 0.000000
0.779807 0.505527 0.000000
0.821196 0.501202 0.000000
0.865812 0.496820 0.000000
0.907213 0.492614 0.000000
0.952566 0.490859 0.000000
0.998318 0.485978 0.000000
1.000000 0.481395 0.000000
1.000000 0.476925 0.000000
1.000000 0.474349 0.000000
1.000000 0.469634 0.000000
1.000000 0.463908 0.000000
0.000000 0.592184 0.000000
0.000000 0.592049 0.000000
0.000000 0.588844 0.000000
0.000000 0.592150 0.000000
0.035130 0.588753 0.000000
0.072777 0.587838 0.000000
0.112209 0.584348 0.000000
0.152809 0.584757 0.000000
0.191618 0.582899 0.000000
0.231805 0.579240 0.000000
0.270504 0.577490 0.000000
0.312116 0.576068 0.000000
0.353067 0.574806 0.000000
0.393499 0.570890 0.000000
0.433930 0.566973 0.000000
0.475443 0.565078 0.000000
0.518553 0.563384 0.000000
0.560304 0.560304 0.000000
0.601365 0.556119 0.000000
0.642453 0.552167 0.000000
0.688539 0.551399 0.000000
0.729928 0.547075 0.000000
0.773579 0.543085 0.000000
0.815277 0.538804 0.000000
0.860389 0.537193 0.000000
0.905334 0.532723 0.000000
0.947328 0.528140 0.000000
0.991819 0.523878 0.000000
1.000000 0.521541 0.000000
1.000000 0.516826 0.000000
1.000000 0.511506 0.000000
1.000000 0.507491 0.000000
1.000000 0.504265 0.000000
0.000000 0.630930 0.000000
0.000000 0.634866 0.000000
0.000000 0.631475 0.000000
0.000000 0.630888 0.000000
0.026494 0.627398 0.000000
0.066802 0.627843 0.000000
0.104698 0.626523 0.000000
0.145080 0.622803 0.000000
0.182932 0.621483 0.000000
0.224122 0.619901 0.000000
0.264516 0.619298 0.000000
0.304948 0.615381 0.000000
0.345379 0.611465 0.000000
0.385761 0.609765 0.000000
0.429042 0.608363 0.000000
0.469956 0.605616 0.000000
0.511027 0.601519 0.000000
0.552295 0.597449 0.000000
0.597272 0.597272 0.000000
0.638661 0.592947 0.000000
0.681405 0.589280 0.000000
0.723293 0.585019 0.000000
0.768211 0.583528 0.000000
0.812350 0.579468 0.000000
0.854344 0.574885 0.000000
0.898192 0.570788 0.000000
0.944883 0.568733 0.000000
0.987186 0.564018 0.000000
1.000000 0.559103 0.000000
1.000000 0.554931 0.000000
1.000000 0.551654 0.000000
1.000000 0.546978 0.000000
1.000000 0.542016 0.000000
0.000000 0.674191 0.000000
0.000000 0.673938 0.000000
0.000000 0.670448 0.000000
0.000000 0.670854 0.000000
0.017740 0.670166 0.000000
0.058355 0.666366 0.000000
0.095360 0.665477 0.000000
0.136193 0.663701 0.000000
0.176029 0.663645 0.000000
0.216396 0.659873 0.000000
0.256828 0.655957 0.000000
0.296145 0.654419 0.000000
0.339531 0.653343 0.000000
0.379729 0.650830 0.000000
0.420689 0.646919 0.000000
0.462091 0.642753 0.000000
0.506004 0.643144 0.000000
0.547393 0.638820 0.000000
0.589375 0.635401 0.000000
0.631259 0.631259 0.000000
0.676034 0.629863 0.000000
0.719366 0.626213 0.000000
0.761360 0.621630 0.000000
0.804652 0.617653 0.000000
0.851019 0.615925 0.000000
0.893322 0.611210 0.000000
0.938635 0.606700 0.000000
0.980478 0.602371 0.000000
1.000000 0.599010 0.000000
1.000000 0.595007 0.000000
1.000000 0.590045 0.000000
1.000000 0.585501 0.000000
1.000000 0.580635 0.000000
0.000000 0.713498 0.000000
0.000000 0.713762 0.000000
0.000000 0.713829 0.000000
0.000000 0.709930 0.000000
0.007789 0.709471 0.000000
0.048329 0.707468 0.000000
0.087658 0.707890 0.000000
0.127845 0.704365 0.000000
0.168276 0.700449 0.000000
0.206598 0.699051 0.000000
0.250020 0.698322 0.000000
0.289647 0.695971 0.000000
0.330351 0.692319 0.000000
0.371842 0.688080 0.000000
0.414737 0.689017 0.000000
0.456125 0.684692 0.000000
0.497487 0.681450 0.000000
0.539177 0.677524 0.000000
0.583857 0.676198 0.000000
0.626382 0.672958 0.000000
0.668375 0.668375 0.000000
0.711200 0.664472 0.000000
0.757063 0.663037 0.000000
0.799459 0.658403 0.000000
0.843974 0.654297 0.000000
0.886127 0.649810 0.000000
0.930478 0.646332 0.000000
0.977962 0.643036 0.000000
1.000000 0.638074 0.000000
1.000000 0.633657 0.000000
1.000000 0.628710 0.000000
1.000000 0.625929 0.000000
1.000000 0.620574 0.000000
0.000000 0.757511 0.000000
0.000000 0.753493 0.000000
0.000000 0.753451 0.000000
0.000000 0.751202 0.000000
0.000000 0.752082 0.000000
0.039294 0.748857 0.000000
0.079725 0.744941 0.000000
0.117210 0.743968 0.000000
0.160509 0.743302 0.000000
0.199709 0.741037 0.000000
0.240013 0.737719 0.000000
0.281547 0.733431 0.000000
0.323469 0.734889 0.000000
0.364858 0.730565 0.000000
0.405743 0.727426 0.000000
0.447066 0.723811 0.000000
0.491679 0.722533 0.000000
0.533397 0.719703 0.000000
0.575391 0.715120 0.000000
0.617836 0.711247 0.000000
0.662962 0.709959 0.000000
0.705595 0.705595 0.000000
0.749314 0.701894 0.000000
0.791776 0.697250 0.000000
0.835645 0.693622 0.000000
0.882451 0.691065 0.000000
0.925336 0.686103 0.000000
0.969176 0.681744 0.000000
1.000000 0.676893 0.000000
1.000000 0.674380 0.000000
1.000000 0.669335 0.000000
1.000000 0.664720 0.000000
1.000000 0.659567 0.000000
0.000000 0.797088 0.000000
0.000000 0.794902 0.000000
0.000000 0.796219 0.000000
0.000000 0.793349 0.000000
0.000000 0.789432 0.000000
0.027822 0.788885 0.000000
0.070998 0.788282 0.000000
0.109917 0.786030 0.000000
0.149675 0.783119 0.000000
0.191207 0.778805 0.000000
0.232201 0.780762 0.000000
0.273590 0.776437 0.000000
0.314141 0.773330 0.000000
0.354982 0.770098 0.000000
0.399502 0.768868 0.000000
0.440413 0.766448 0.000000
0.482407 0.761865 0.000000
0.524561 0.757976 0.000000
0.568925 0.756847 0.000000
0.611731 0.752787 0.000000
0.654653 0.749491 0.000000
0.697415 0.744687 0.000000
0.740878 0.740878 0.000000
0.786941 0.739094 0.000000
0.829825 0.734132 0.000000
0.873376 0.729762 0.000000
0.917458 0.725154 0.000000
0.964149 0.722831 0.000000
1.000000 0.718026 0.000000
1.000000 0.713393 0.000000
1.000000 0.708240 0.000000
1.000000 0.705676 0.000000
1.000000 0.700437 0.000000
0.000000 0.840302 0.000000
0.000000 0.837840 0.000000
0.000000 0.833924 0.000000
0.000000 0.833802 0.000000
0.000000 0.833261 0.000000
0.020269 0.830950 0.000000
0.059338 0.828518 0.000000
0.100821 0.824202 0.000000
0.140934 0.826634 0.000000
0.182322 0.822310 0.000000
0.222683 0.819160 0.000000
0.262897 0.816386 0.000000
0.307325 0.815203 0.000000
0.347429 0.813193 0.000000
0.389423 0.808610 0.000000
0.431376 0.804660 0.000000
0.474954 0.803702 0.000000
0.517867 0.799979 0.000000
0.559992 0.797089 0.000000
0.603004 0.792147 0.000000
0.646176 0.788101 0.000000
0.691430 0.787123 0.000000
0.734315 0.782161 0.000000
0.777711 0.777711 0.000000
0.821491 0.773415 0.000000
0.867809 0.771282 0.000000
0.912067 0.766649 0.000000
0.955999 0.762066 0.000000
0.999329 0.756913 0.000000
1.000000 0.754928 0.000000
1.000000 0.749629 0.000000
1.000000 0.744709 0.000000
1.000000 0.739587 0.000000
0.000000 0.878416 0.000000
0.000000 0.878719 0.000000
0.000000 0.878241 0.000000
0.000000 0.875795 0.000000
0.000000 0.873918 0.000000
0.010389 0.869622 0.000000
0.049666 0.872507 0.000000
0.091055 0.868182 0.000000
0.131369 0.864918 0.000000
0.170813 0.862674 0.000000
0.215147 0.861538 0.000000
0.254445 0.859938 0.000000
0.296439 0.855355 0.000000
0.338280 0.851298 0.000000
0.381048 0.850524 0.000000
0.424003 0.847171 0.000000
0.465331 0.844686 0.000000
0.508538 0.839634 0.000000
0.551540 0.835291 0.000000
0.595920 0.835153 0.000000
0.638804 0.830190 0.000000
0.682183 0.825591 0.000000
0.725524 0.821676 0.000000
0.771469 0.819732 0.000000
0.815202 0.815202 0.000000
0.859222 0.810738 0.000000
0.902552 0.805586 0.000000
0.951349 0.804180 0.000000
0.995081 0.798856 0.000000
1.000000 0.793783 0.000000
1.000000 0.789046 0.000000
1.000000 0.786299 0.000000
1.000000 0.781065 0.000000
0.000000 0.923269 0.000000
0.000000 0.920567 0.000000
0.000000 0.919318 0.000000
0.000000 0.915065 0.000000
0.000000 0.918379 0.000000
0.000000 0.914054 0.000000
0.040197 0.910603 0.000000
0.078728 0.908961 0.000000
0.122970 0.907872 0.000000
0.161461 0.906683 0.000000
0.203454 0.902100 0.000000
0.245274 0.897889 0.000000
0.287208 0.897313 0.000000
0.330139 0.894363 0.000000
0.370671 0.892283 0.000000
0.414017 0.887148 0.000000
0.456969 0.882447 0.000000
0.500410 0.883182 0.000000
0.543294 0.878219 0.000000
0.586791 0.873401 0.000000
0.629557 0.869937 0.000000
0.675129 0.868183 0.000000
0.718473 0.863686 0.000000
0.762445 0.859411 0.000000
0.805775 0.854259 0.000000
0.853432 0.853432 0.000000
0.897164 0.848108 0.000000
0.940618 0.842858 0.000000
0.986287 0.838504 0.000000
1.000000 0.835947 0.000000
1.000000 0.830601 0.000000
1.000000 0.825915 0.000000
1.000000 0.820416 0.000000
0.000000 0.964718 0.000000
0.000000 0.960532 0.000000
0.000000 0.964251 0.000000
0.000000 0.959927 0.000000
0.000000 0.956215 0.000000
0.000000 0.955249 0.000000
0.030755 0.953851 0.000000
0.068476 0.953428 0.000000
0.110470 0.948845 0.000000
0.152358 0.944435 0.000000
0.193433 0.944069 0.000000
0.236275 0.941555 0.000000
0.276010 0.939880 0.000000
0.319443 0.934690 0.000000
0.362499 0.929659 0.000000
0.404899 0.931211 0.000000
0.447783 0.926248 0.000000
0.491535 0.921142 0.000000
0.533590 0.918199 0.000000
0.578788 0.916634 0.000000
0.621881 0.912100 0.000000
0.665668 0.908084 0.000000
0.708998 0.902931 0.000000
0.755515 0.902684 0.000000
0.799248 0.897360 0.000000
0.843052 0.891932 0.000000
